<?xml version="1.0" encoding="UTF-8"?>
<map version="1.10" tiledversion="1.12.1" orientation="orthogonal" renderorder="right-down" width="16" height="24" tilewidth="16" tileheight="16" infinite="1" nextlayerid="26" nextobjectid="72">
 <tileset firstgid="1" name="Walls_Interior" tilewidth="16" tileheight="16" tilecount="310" columns="31">
  <image source="../Art/Blacksmith/Walls_interior.png" width="496" height="160"/>
 </tileset>
 <tileset firstgid="311" name="House_interior_objects" tilewidth="16" tileheight="16" tilecount="507" columns="39">
  <image source="../Art/Blacksmith/House_interior_objects.png" width="624" height="208"/>
 </tileset>
 <tileset firstgid="818" name="Torch_animation" tilewidth="16" tileheight="16" tilecount="162" columns="9">
  <image source="../Art/Blacksmith/Torch_animation.png" width="144" height="288"/>
  <tile id="0">
   <animation>
    <frame tileid="0" duration="150"/>
    <frame tileid="27" duration="150"/>
    <frame tileid="54" duration="150"/>
    <frame tileid="81" duration="150"/>
    <frame tileid="108" duration="150"/>
    <frame tileid="135" duration="150"/>
   </animation>
  </tile>
  <tile id="1">
   <animation>
    <frame tileid="1" duration="150"/>
    <frame tileid="28" duration="150"/>
    <frame tileid="55" duration="150"/>
    <frame tileid="82" duration="150"/>
    <frame tileid="109" duration="150"/>
    <frame tileid="136" duration="150"/>
   </animation>
  </tile>
  <tile id="3">
   <animation>
    <frame tileid="3" duration="150"/>
    <frame tileid="30" duration="150"/>
    <frame tileid="57" duration="150"/>
    <frame tileid="84" duration="150"/>
    <frame tileid="111" duration="150"/>
    <frame tileid="138" duration="150"/>
   </animation>
  </tile>
  <tile id="4">
   <animation>
    <frame tileid="4" duration="150"/>
    <frame tileid="31" duration="150"/>
    <frame tileid="58" duration="150"/>
    <frame tileid="85" duration="150"/>
    <frame tileid="112" duration="150"/>
    <frame tileid="139" duration="150"/>
   </animation>
  </tile>
  <tile id="5">
   <animation>
    <frame tileid="5" duration="150"/>
    <frame tileid="32" duration="150"/>
    <frame tileid="59" duration="150"/>
    <frame tileid="86" duration="150"/>
    <frame tileid="113" duration="150"/>
    <frame tileid="140" duration="150"/>
   </animation>
  </tile>
  <tile id="6">
   <animation>
    <frame tileid="6" duration="150"/>
    <frame tileid="33" duration="150"/>
    <frame tileid="60" duration="150"/>
    <frame tileid="87" duration="150"/>
    <frame tileid="114" duration="150"/>
    <frame tileid="141" duration="150"/>
   </animation>
  </tile>
  <tile id="7">
   <animation>
    <frame tileid="7" duration="150"/>
    <frame tileid="34" duration="150"/>
    <frame tileid="61" duration="150"/>
    <frame tileid="88" duration="150"/>
    <frame tileid="115" duration="150"/>
    <frame tileid="142" duration="150"/>
   </animation>
  </tile>
  <tile id="8">
   <animation>
    <frame tileid="8" duration="150"/>
    <frame tileid="35" duration="150"/>
    <frame tileid="62" duration="150"/>
    <frame tileid="89" duration="150"/>
    <frame tileid="116" duration="150"/>
    <frame tileid="143" duration="150"/>
   </animation>
  </tile>
  <tile id="9">
   <animation>
    <frame tileid="9" duration="150"/>
    <frame tileid="36" duration="150"/>
    <frame tileid="63" duration="150"/>
    <frame tileid="90" duration="150"/>
    <frame tileid="117" duration="150"/>
    <frame tileid="144" duration="150"/>
   </animation>
  </tile>
  <tile id="10">
   <animation>
    <frame tileid="10" duration="150"/>
    <frame tileid="37" duration="150"/>
    <frame tileid="64" duration="150"/>
    <frame tileid="91" duration="150"/>
    <frame tileid="118" duration="150"/>
    <frame tileid="145" duration="150"/>
   </animation>
  </tile>
  <tile id="12">
   <animation>
    <frame tileid="12" duration="150"/>
    <frame tileid="39" duration="150"/>
    <frame tileid="66" duration="150"/>
    <frame tileid="93" duration="150"/>
    <frame tileid="120" duration="150"/>
    <frame tileid="147" duration="150"/>
   </animation>
  </tile>
  <tile id="13">
   <animation>
    <frame tileid="13" duration="150"/>
    <frame tileid="40" duration="150"/>
    <frame tileid="67" duration="150"/>
    <frame tileid="94" duration="150"/>
    <frame tileid="121" duration="150"/>
    <frame tileid="148" duration="150"/>
   </animation>
  </tile>
  <tile id="14">
   <animation>
    <frame tileid="14" duration="150"/>
    <frame tileid="41" duration="150"/>
    <frame tileid="68" duration="150"/>
    <frame tileid="95" duration="150"/>
    <frame tileid="122" duration="150"/>
    <frame tileid="149" duration="150"/>
   </animation>
  </tile>
  <tile id="15">
   <animation>
    <frame tileid="15" duration="150"/>
    <frame tileid="42" duration="150"/>
    <frame tileid="69" duration="150"/>
    <frame tileid="96" duration="150"/>
    <frame tileid="123" duration="150"/>
    <frame tileid="150" duration="150"/>
   </animation>
  </tile>
  <tile id="16">
   <animation>
    <frame tileid="16" duration="150"/>
    <frame tileid="43" duration="150"/>
    <frame tileid="70" duration="150"/>
    <frame tileid="97" duration="150"/>
    <frame tileid="124" duration="150"/>
    <frame tileid="151" duration="150"/>
   </animation>
  </tile>
  <tile id="17">
   <animation>
    <frame tileid="17" duration="150"/>
    <frame tileid="44" duration="150"/>
    <frame tileid="71" duration="150"/>
    <frame tileid="98" duration="150"/>
    <frame tileid="125" duration="150"/>
    <frame tileid="152" duration="150"/>
   </animation>
  </tile>
  <tile id="18">
   <animation>
    <frame tileid="18" duration="150"/>
    <frame tileid="45" duration="150"/>
    <frame tileid="72" duration="150"/>
    <frame tileid="99" duration="150"/>
    <frame tileid="126" duration="150"/>
    <frame tileid="153" duration="150"/>
   </animation>
  </tile>
  <tile id="19">
   <animation>
    <frame tileid="19" duration="150"/>
    <frame tileid="46" duration="150"/>
    <frame tileid="73" duration="150"/>
    <frame tileid="100" duration="150"/>
    <frame tileid="127" duration="150"/>
    <frame tileid="154" duration="150"/>
   </animation>
  </tile>
  <tile id="21">
   <animation>
    <frame tileid="21" duration="150"/>
    <frame tileid="48" duration="150"/>
    <frame tileid="75" duration="150"/>
    <frame tileid="102" duration="150"/>
    <frame tileid="129" duration="150"/>
    <frame tileid="156" duration="150"/>
   </animation>
  </tile>
  <tile id="22">
   <animation>
    <frame tileid="22" duration="150"/>
    <frame tileid="49" duration="150"/>
    <frame tileid="76" duration="150"/>
    <frame tileid="103" duration="150"/>
    <frame tileid="130" duration="150"/>
    <frame tileid="157" duration="150"/>
   </animation>
  </tile>
  <tile id="23">
   <animation>
    <frame tileid="23" duration="150"/>
    <frame tileid="50" duration="150"/>
    <frame tileid="77" duration="150"/>
    <frame tileid="104" duration="150"/>
    <frame tileid="131" duration="150"/>
    <frame tileid="158" duration="150"/>
   </animation>
  </tile>
  <tile id="24">
   <animation>
    <frame tileid="24" duration="150"/>
    <frame tileid="51" duration="150"/>
    <frame tileid="78" duration="150"/>
    <frame tileid="105" duration="150"/>
    <frame tileid="132" duration="150"/>
    <frame tileid="159" duration="150"/>
   </animation>
  </tile>
  <tile id="25">
   <animation>
    <frame tileid="25" duration="150"/>
    <frame tileid="52" duration="150"/>
    <frame tileid="79" duration="150"/>
    <frame tileid="106" duration="150"/>
    <frame tileid="133" duration="150"/>
    <frame tileid="160" duration="150"/>
   </animation>
  </tile>
  <tile id="26">
   <animation>
    <frame tileid="26" duration="150"/>
    <frame tileid="53" duration="150"/>
    <frame tileid="80" duration="150"/>
    <frame tileid="107" duration="150"/>
    <frame tileid="134" duration="150"/>
    <frame tileid="161" duration="150"/>
   </animation>
  </tile>
 </tileset>
 <tileset firstgid="980" name="Forge_animation" tilewidth="16" tileheight="16" tilecount="72" columns="18">
  <image source="../Art/Blacksmith/Forge_animation.png" width="288" height="64"/>
  <tile id="0">
   <animation>
    <frame tileid="0" duration="150"/>
    <frame tileid="3" duration="150"/>
    <frame tileid="6" duration="150"/>
    <frame tileid="9" duration="150"/>
    <frame tileid="12" duration="150"/>
    <frame tileid="15" duration="150"/>
   </animation>
  </tile>
  <tile id="1">
   <animation>
    <frame tileid="1" duration="150"/>
    <frame tileid="4" duration="150"/>
    <frame tileid="7" duration="150"/>
    <frame tileid="10" duration="150"/>
    <frame tileid="13" duration="150"/>
    <frame tileid="16" duration="150"/>
   </animation>
  </tile>
  <tile id="2">
   <animation>
    <frame tileid="2" duration="150"/>
    <frame tileid="5" duration="150"/>
    <frame tileid="8" duration="150"/>
    <frame tileid="11" duration="150"/>
    <frame tileid="14" duration="150"/>
    <frame tileid="17" duration="150"/>
   </animation>
  </tile>
  <tile id="18">
   <animation>
    <frame tileid="18" duration="150"/>
    <frame tileid="21" duration="150"/>
    <frame tileid="24" duration="150"/>
    <frame tileid="27" duration="150"/>
    <frame tileid="30" duration="150"/>
    <frame tileid="33" duration="150"/>
   </animation>
  </tile>
  <tile id="19">
   <animation>
    <frame tileid="19" duration="150"/>
    <frame tileid="22" duration="150"/>
    <frame tileid="25" duration="150"/>
    <frame tileid="28" duration="150"/>
    <frame tileid="31" duration="150"/>
    <frame tileid="34" duration="150"/>
   </animation>
  </tile>
  <tile id="20">
   <animation>
    <frame tileid="20" duration="150"/>
    <frame tileid="23" duration="150"/>
    <frame tileid="26" duration="150"/>
    <frame tileid="29" duration="150"/>
    <frame tileid="32" duration="150"/>
    <frame tileid="35" duration="150"/>
   </animation>
  </tile>
  <tile id="36">
   <animation>
    <frame tileid="36" duration="150"/>
    <frame tileid="39" duration="150"/>
    <frame tileid="42" duration="150"/>
    <frame tileid="45" duration="150"/>
    <frame tileid="48" duration="150"/>
    <frame tileid="51" duration="150"/>
   </animation>
  </tile>
  <tile id="37">
   <animation>
    <frame tileid="37" duration="150"/>
    <frame tileid="40" duration="150"/>
    <frame tileid="43" duration="150"/>
    <frame tileid="46" duration="150"/>
    <frame tileid="49" duration="150"/>
    <frame tileid="52" duration="150"/>
   </animation>
  </tile>
  <tile id="38">
   <animation>
    <frame tileid="38" duration="150"/>
    <frame tileid="41" duration="150"/>
    <frame tileid="44" duration="150"/>
    <frame tileid="47" duration="150"/>
    <frame tileid="50" duration="150"/>
    <frame tileid="53" duration="150"/>
   </animation>
  </tile>
  <tile id="54">
   <animation>
    <frame tileid="54" duration="150"/>
    <frame tileid="57" duration="150"/>
    <frame tileid="60" duration="150"/>
    <frame tileid="63" duration="150"/>
    <frame tileid="66" duration="150"/>
    <frame tileid="69" duration="150"/>
   </animation>
  </tile>
  <tile id="55">
   <animation>
    <frame tileid="55" duration="150"/>
    <frame tileid="58" duration="150"/>
    <frame tileid="61" duration="150"/>
    <frame tileid="64" duration="150"/>
    <frame tileid="67" duration="150"/>
    <frame tileid="70" duration="150"/>
   </animation>
  </tile>
  <tile id="56">
   <animation>
    <frame tileid="56" duration="150"/>
    <frame tileid="59" duration="150"/>
    <frame tileid="62" duration="150"/>
    <frame tileid="65" duration="150"/>
    <frame tileid="68" duration="150"/>
    <frame tileid="71" duration="150"/>
   </animation>
  </tile>
 </tileset>
 <tileset firstgid="1052" name="Light_animation" tilewidth="16" tileheight="16" tilecount="162" columns="9">
  <image source="../Art/Blacksmith/Light_animation.png" width="144" height="288"/>
  <tile id="0">
   <animation>
    <frame tileid="0" duration="150"/>
    <frame tileid="27" duration="150"/>
    <frame tileid="54" duration="150"/>
    <frame tileid="81" duration="150"/>
    <frame tileid="108" duration="150"/>
    <frame tileid="135" duration="150"/>
   </animation>
  </tile>
  <tile id="1">
   <animation>
    <frame tileid="1" duration="150"/>
    <frame tileid="28" duration="150"/>
    <frame tileid="55" duration="150"/>
    <frame tileid="82" duration="150"/>
    <frame tileid="109" duration="150"/>
    <frame tileid="136" duration="150"/>
   </animation>
  </tile>
  <tile id="2">
   <animation>
    <frame tileid="2" duration="150"/>
    <frame tileid="29" duration="150"/>
    <frame tileid="56" duration="150"/>
    <frame tileid="83" duration="150"/>
    <frame tileid="110" duration="150"/>
    <frame tileid="137" duration="150"/>
   </animation>
  </tile>
  <tile id="3">
   <animation>
    <frame tileid="3" duration="150"/>
    <frame tileid="30" duration="150"/>
    <frame tileid="57" duration="150"/>
    <frame tileid="84" duration="150"/>
    <frame tileid="111" duration="150"/>
    <frame tileid="138" duration="150"/>
   </animation>
  </tile>
  <tile id="4">
   <animation>
    <frame tileid="4" duration="150"/>
    <frame tileid="31" duration="150"/>
    <frame tileid="58" duration="150"/>
    <frame tileid="85" duration="150"/>
    <frame tileid="112" duration="150"/>
    <frame tileid="139" duration="150"/>
   </animation>
  </tile>
  <tile id="5">
   <animation>
    <frame tileid="5" duration="150"/>
    <frame tileid="32" duration="150"/>
    <frame tileid="59" duration="150"/>
    <frame tileid="86" duration="150"/>
    <frame tileid="113" duration="150"/>
    <frame tileid="140" duration="150"/>
   </animation>
  </tile>
  <tile id="6">
   <animation>
    <frame tileid="6" duration="150"/>
    <frame tileid="33" duration="150"/>
    <frame tileid="60" duration="150"/>
    <frame tileid="87" duration="150"/>
    <frame tileid="114" duration="150"/>
    <frame tileid="141" duration="150"/>
   </animation>
  </tile>
  <tile id="7">
   <animation>
    <frame tileid="7" duration="150"/>
    <frame tileid="34" duration="150"/>
    <frame tileid="61" duration="150"/>
    <frame tileid="88" duration="150"/>
    <frame tileid="115" duration="150"/>
    <frame tileid="142" duration="150"/>
   </animation>
  </tile>
  <tile id="8">
   <animation>
    <frame tileid="8" duration="150"/>
    <frame tileid="35" duration="150"/>
    <frame tileid="62" duration="150"/>
    <frame tileid="89" duration="150"/>
    <frame tileid="116" duration="150"/>
    <frame tileid="143" duration="150"/>
   </animation>
  </tile>
  <tile id="9">
   <animation>
    <frame tileid="9" duration="150"/>
    <frame tileid="36" duration="150"/>
    <frame tileid="63" duration="150"/>
    <frame tileid="90" duration="150"/>
    <frame tileid="117" duration="150"/>
    <frame tileid="144" duration="150"/>
   </animation>
  </tile>
  <tile id="10">
   <animation>
    <frame tileid="10" duration="150"/>
    <frame tileid="37" duration="150"/>
    <frame tileid="64" duration="150"/>
    <frame tileid="91" duration="150"/>
    <frame tileid="118" duration="150"/>
    <frame tileid="145" duration="150"/>
   </animation>
  </tile>
  <tile id="11">
   <animation>
    <frame tileid="11" duration="150"/>
    <frame tileid="38" duration="150"/>
    <frame tileid="65" duration="150"/>
    <frame tileid="92" duration="150"/>
    <frame tileid="119" duration="150"/>
    <frame tileid="146" duration="150"/>
   </animation>
  </tile>
  <tile id="16">
   <animation>
    <frame tileid="16" duration="150"/>
    <frame tileid="43" duration="150"/>
    <frame tileid="70" duration="150"/>
    <frame tileid="97" duration="150"/>
    <frame tileid="124" duration="150"/>
    <frame tileid="151" duration="150"/>
   </animation>
  </tile>
  <tile id="17">
   <animation>
    <frame tileid="17" duration="150"/>
    <frame tileid="44" duration="150"/>
    <frame tileid="71" duration="150"/>
    <frame tileid="98" duration="150"/>
    <frame tileid="125" duration="150"/>
    <frame tileid="152" duration="150"/>
   </animation>
  </tile>
  <tile id="19">
   <animation>
    <frame tileid="19" duration="150"/>
    <frame tileid="46" duration="150"/>
    <frame tileid="73" duration="150"/>
    <frame tileid="100" duration="150"/>
    <frame tileid="127" duration="150"/>
    <frame tileid="154" duration="150"/>
   </animation>
  </tile>
  <tile id="20">
   <animation>
    <frame tileid="20" duration="150"/>
    <frame tileid="47" duration="150"/>
    <frame tileid="74" duration="150"/>
    <frame tileid="101" duration="150"/>
    <frame tileid="128" duration="150"/>
    <frame tileid="155" duration="150"/>
   </animation>
  </tile>
  <tile id="21">
   <animation>
    <frame tileid="21" duration="150"/>
    <frame tileid="48" duration="150"/>
    <frame tileid="75" duration="150"/>
    <frame tileid="102" duration="150"/>
    <frame tileid="129" duration="150"/>
    <frame tileid="156" duration="150"/>
   </animation>
  </tile>
  <tile id="22">
   <animation>
    <frame tileid="22" duration="150"/>
    <frame tileid="49" duration="150"/>
    <frame tileid="76" duration="150"/>
    <frame tileid="103" duration="150"/>
    <frame tileid="130" duration="150"/>
    <frame tileid="157" duration="150"/>
   </animation>
  </tile>
  <tile id="23">
   <animation>
    <frame tileid="23" duration="150"/>
    <frame tileid="50" duration="150"/>
    <frame tileid="77" duration="150"/>
    <frame tileid="104" duration="150"/>
    <frame tileid="131" duration="150"/>
    <frame tileid="158" duration="150"/>
   </animation>
  </tile>
  <tile id="24">
   <animation>
    <frame tileid="24" duration="150"/>
    <frame tileid="51" duration="150"/>
    <frame tileid="78" duration="150"/>
    <frame tileid="105" duration="150"/>
    <frame tileid="132" duration="150"/>
    <frame tileid="159" duration="150"/>
   </animation>
  </tile>
  <tile id="25">
   <animation>
    <frame tileid="25" duration="150"/>
    <frame tileid="52" duration="150"/>
    <frame tileid="79" duration="150"/>
    <frame tileid="106" duration="150"/>
    <frame tileid="133" duration="150"/>
    <frame tileid="160" duration="150"/>
   </animation>
  </tile>
 </tileset>
 <tileset firstgid="1214" name="water_animation" tilewidth="16" tileheight="16" tilecount="48" columns="6">
  <image source="../Art/Blacksmith/water_animation.png" width="96" height="128"/>
  <tile id="0">
   <animation>
    <frame tileid="0" duration="150"/>
    <frame tileid="12" duration="150"/>
    <frame tileid="24" duration="150"/>
    <frame tileid="36" duration="150"/>
   </animation>
  </tile>
  <tile id="1">
   <animation>
    <frame tileid="1" duration="150"/>
    <frame tileid="13" duration="150"/>
    <frame tileid="25" duration="150"/>
    <frame tileid="37" duration="150"/>
   </animation>
  </tile>
  <tile id="2">
   <animation>
    <frame tileid="2" duration="150"/>
    <frame tileid="14" duration="150"/>
    <frame tileid="26" duration="150"/>
    <frame tileid="38" duration="150"/>
   </animation>
  </tile>
  <tile id="3">
   <animation>
    <frame tileid="3" duration="150"/>
    <frame tileid="15" duration="150"/>
    <frame tileid="27" duration="150"/>
    <frame tileid="39" duration="150"/>
   </animation>
  </tile>
  <tile id="4">
   <animation>
    <frame tileid="4" duration="150"/>
    <frame tileid="16" duration="150"/>
    <frame tileid="28" duration="150"/>
    <frame tileid="40" duration="150"/>
   </animation>
  </tile>
  <tile id="5">
   <animation>
    <frame tileid="5" duration="150"/>
    <frame tileid="17" duration="150"/>
    <frame tileid="29" duration="150"/>
    <frame tileid="41" duration="150"/>
   </animation>
  </tile>
  <tile id="6">
   <animation>
    <frame tileid="6" duration="150"/>
    <frame tileid="18" duration="150"/>
    <frame tileid="30" duration="150"/>
    <frame tileid="42" duration="150"/>
   </animation>
  </tile>
  <tile id="7">
   <animation>
    <frame tileid="7" duration="150"/>
    <frame tileid="19" duration="150"/>
    <frame tileid="31" duration="150"/>
    <frame tileid="43" duration="150"/>
   </animation>
  </tile>
  <tile id="8">
   <animation>
    <frame tileid="8" duration="150"/>
    <frame tileid="20" duration="150"/>
    <frame tileid="32" duration="150"/>
    <frame tileid="44" duration="150"/>
   </animation>
  </tile>
  <tile id="9">
   <animation>
    <frame tileid="9" duration="150"/>
    <frame tileid="21" duration="150"/>
    <frame tileid="33" duration="150"/>
    <frame tileid="45" duration="150"/>
   </animation>
  </tile>
  <tile id="10">
   <animation>
    <frame tileid="10" duration="150"/>
    <frame tileid="22" duration="150"/>
    <frame tileid="34" duration="150"/>
    <frame tileid="46" duration="150"/>
   </animation>
  </tile>
  <tile id="11">
   <animation>
    <frame tileid="11" duration="150"/>
    <frame tileid="23" duration="150"/>
    <frame tileid="35" duration="150"/>
    <frame tileid="47" duration="150"/>
   </animation>
  </tile>
 </tileset>
 <tileset firstgid="1262" name="Anvil" tilewidth="16" tileheight="16" tilecount="18" columns="6">
  <image source="../Art/Blacksmith/Anvil.png" width="96" height="48"/>
 </tileset>
 <tileset firstgid="1280" name="Smith_forge_full" tilewidth="16" tileheight="16" tilecount="54" columns="18">
  <image source="../Art/Blacksmith/Smith_forge_full.png" width="288" height="48"/>
  <tile id="0">
   <animation>
    <frame tileid="0" duration="150"/>
    <frame tileid="3" duration="150"/>
    <frame tileid="6" duration="150"/>
    <frame tileid="9" duration="150"/>
    <frame tileid="12" duration="150"/>
    <frame tileid="15" duration="150"/>
   </animation>
  </tile>
  <tile id="1">
   <animation>
    <frame tileid="1" duration="150"/>
    <frame tileid="4" duration="150"/>
    <frame tileid="7" duration="150"/>
    <frame tileid="10" duration="150"/>
    <frame tileid="13" duration="150"/>
    <frame tileid="16" duration="150"/>
   </animation>
  </tile>
  <tile id="2">
   <animation>
    <frame tileid="2" duration="150"/>
    <frame tileid="5" duration="150"/>
    <frame tileid="8" duration="150"/>
    <frame tileid="11" duration="150"/>
    <frame tileid="14" duration="150"/>
    <frame tileid="17" duration="150"/>
   </animation>
  </tile>
  <tile id="18">
   <animation>
    <frame tileid="18" duration="150"/>
    <frame tileid="21" duration="150"/>
    <frame tileid="24" duration="150"/>
    <frame tileid="27" duration="150"/>
    <frame tileid="30" duration="150"/>
    <frame tileid="33" duration="150"/>
   </animation>
  </tile>
  <tile id="19">
   <animation>
    <frame tileid="19" duration="150"/>
    <frame tileid="22" duration="150"/>
    <frame tileid="25" duration="150"/>
    <frame tileid="28" duration="150"/>
    <frame tileid="31" duration="150"/>
    <frame tileid="34" duration="150"/>
   </animation>
  </tile>
  <tile id="20">
   <animation>
    <frame tileid="20" duration="150"/>
    <frame tileid="23" duration="150"/>
    <frame tileid="26" duration="150"/>
    <frame tileid="29" duration="150"/>
    <frame tileid="32" duration="150"/>
    <frame tileid="35" duration="150"/>
   </animation>
  </tile>
  <tile id="36">
   <animation>
    <frame tileid="36" duration="150"/>
    <frame tileid="39" duration="150"/>
    <frame tileid="42" duration="150"/>
    <frame tileid="45" duration="150"/>
    <frame tileid="48" duration="150"/>
    <frame tileid="51" duration="150"/>
   </animation>
  </tile>
  <tile id="37">
   <animation>
    <frame tileid="37" duration="150"/>
    <frame tileid="40" duration="150"/>
    <frame tileid="43" duration="150"/>
    <frame tileid="46" duration="150"/>
    <frame tileid="49" duration="150"/>
    <frame tileid="52" duration="150"/>
   </animation>
  </tile>
  <tile id="38">
   <animation>
    <frame tileid="38" duration="150"/>
    <frame tileid="41" duration="150"/>
    <frame tileid="44" duration="150"/>
    <frame tileid="47" duration="150"/>
    <frame tileid="50" duration="150"/>
    <frame tileid="53" duration="150"/>
   </animation>
  </tile>
 </tileset>
 <group id="16" name="Ground">
  <layer id="2" name="Floor" width="16" height="24">
   <data encoding="csv">
    <chunk x="-16" y="-16" width="16" height="16">
0,0,0,0,0,0,0,0,0,0,0,0,0,0,0,0,
0,0,0,0,0,0,0,0,0,0,0,0,0,0,0,0,
0,0,0,0,0,0,0,0,0,0,0,0,0,0,0,0,
0,0,0,0,0,0,0,0,0,0,0,0,0,0,0,0,
0,0,0,0,0,0,0,0,0,0,0,0,0,0,0,0,
0,0,0,0,0,0,0,0,0,0,0,0,0,0,0,0,
0,0,0,0,0,0,0,0,0,0,0,0,0,0,0,0,
0,0,0,0,0,0,0,0,0,0,0,0,0,0,0,0,
0,0,0,0,0,0,0,0,0,0,0,0,0,0,0,0,
0,0,0,0,0,0,110,106,105,108,107,111,106,107,111,106,
0,0,0,0,0,0,110,106,105,108,107,111,106,107,111,106,
0,0,0,0,0,0,110,106,105,105,106,110,107,105,108,108,
0,0,0,0,0,0,105,106,105,107,106,105,111,105,108,110,
0,0,0,0,0,0,109,111,109,111,108,109,108,111,110,106,
0,0,0,0,0,0,109,107,109,111,107,106,105,105,108,108,
0,0,0,0,0,0,105,110,105,107,106,108,109,106,109,105
</chunk>
    <chunk x="0" y="-16" width="16" height="16">
0,0,0,0,0,0,0,0,0,0,0,0,0,0,0,0,
0,0,0,0,0,0,0,0,0,0,0,0,0,0,0,0,
0,0,0,0,0,0,0,0,0,0,0,0,0,0,0,0,
0,0,0,0,0,0,0,0,0,0,0,0,0,0,0,0,
0,0,0,0,0,0,0,0,0,0,0,0,0,0,0,0,
0,0,0,0,0,0,0,0,0,0,0,0,0,0,0,0,
0,0,0,0,0,0,0,0,0,0,0,0,0,0,0,0,
0,0,0,0,0,0,0,0,0,0,0,0,0,0,0,0,
0,0,0,0,0,0,0,0,0,0,0,0,0,0,0,0,
105,109,105,108,105,109,107,106,110,106,105,0,0,0,0,0,
105,109,105,108,105,109,107,106,110,106,105,0,0,0,0,0,
105,109,110,111,111,109,111,106,110,106,105,0,0,0,0,0,
107,106,108,107,105,108,106,110,106,106,105,0,0,0,0,0,
109,108,111,110,105,110,106,108,109,111,109,0,0,0,0,0,
111,105,105,109,106,107,111,105,109,107,109,0,0,0,0,0,
107,109,106,110,111,108,107,107,108,110,105,0,0,0,0,0
</chunk>
    <chunk x="-16" y="0" width="16" height="16">
0,0,0,0,0,0,107,110,107,110,111,105,107,111,108,105,
0,0,0,0,0,0,106,106,106,110,105,109,110,105,105,111,
0,0,0,0,0,0,105,111,105,108,106,105,108,108,110,107,
0,0,0,0,0,0,105,108,105,107,109,106,107,105,106,109,
0,0,0,0,0,0,0,0,0,0,0,0,0,0,0,0,
0,0,0,0,0,0,0,0,0,0,0,0,0,0,0,0,
0,0,0,0,0,0,0,0,0,0,0,0,0,0,0,0,
0,0,0,0,0,0,0,0,0,0,0,0,0,0,0,0,
0,0,0,0,0,0,0,0,0,0,0,0,0,0,0,0,
0,0,0,0,0,0,0,0,0,0,0,0,0,0,0,0,
0,0,0,0,0,0,0,0,0,0,0,0,0,0,0,0,
0,0,0,0,0,0,0,0,0,0,0,0,0,0,0,0,
0,0,0,0,0,0,0,0,0,0,0,0,0,0,0,0,
0,0,0,0,0,0,0,0,0,0,0,0,0,0,0,0,
0,0,0,0,0,0,0,0,0,0,0,0,0,0,0,0,
0,0,0,0,0,0,0,0,0,0,0,0,0,0,0,0
</chunk>
    <chunk x="0" y="0" width="16" height="16">
110,107,106,108,107,110,111,109,107,110,107,0,0,0,0,0,
108,106,110,107,109,107,105,105,110,106,106,0,0,0,0,0,
111,108,105,106,106,106,109,108,111,111,105,0,0,0,0,0,
107,106,109,109,108,106,107,107,105,108,105,0,0,0,0,0,
0,0,0,0,0,0,0,0,0,0,0,0,0,0,0,0,
0,0,0,0,0,0,0,0,0,0,0,0,0,0,0,0,
0,0,0,0,0,0,0,0,0,0,0,0,0,0,0,0,
0,0,0,0,0,0,0,0,0,0,0,0,0,0,0,0,
0,0,0,0,0,0,0,0,0,0,0,0,0,0,0,0,
0,0,0,0,0,0,0,0,0,0,0,0,0,0,0,0,
0,0,0,0,0,0,0,0,0,0,0,0,0,0,0,0,
0,0,0,0,0,0,0,0,0,0,0,0,0,0,0,0,
0,0,0,0,0,0,0,0,0,0,0,0,0,0,0,0,
0,0,0,0,0,0,0,0,0,0,0,0,0,0,0,0,
0,0,0,0,0,0,0,0,0,0,0,0,0,0,0,0,
0,0,0,0,0,0,0,0,0,0,0,0,0,0,0,0
</chunk>
   </data>
  </layer>
  <layer id="1" name="Walls" width="16" height="24">
   <data encoding="csv">
    <chunk x="-16" y="-16" width="16" height="16">
0,0,0,33,33,33,33,33,33,33,33,33,33,33,33,33,
0,0,0,33,33,33,33,33,33,33,33,33,33,33,33,33,
0,0,0,33,33,33,33,33,33,33,33,33,33,33,33,33,
0,0,0,33,33,33,33,33,33,33,33,33,33,33,33,33,
0,0,0,33,33,33,33,33,33,33,33,33,33,33,33,33,
0,0,0,33,33,33,33,33,33,33,33,33,33,33,33,33,
0,0,0,33,33,33,33,33,33,33,33,57,58,58,58,58,
0,0,0,33,33,33,33,33,33,33,33,88,7,13,14,15,
0,0,0,33,33,33,33,57,58,58,58,123,9,44,45,46,
0,0,0,33,33,33,33,88,4,13,19,24,40,75,76,77,
0,0,0,33,33,33,33,88,35,44,50,55,71,0,0,0,
0,0,0,33,33,33,33,88,66,75,81,86,102,0,0,0,
0,0,0,33,33,33,33,88,34,106,112,117,0,0,0,0,
0,0,0,33,33,33,33,88,34,0,0,0,0,0,0,0,
0,0,0,33,33,33,33,88,34,0,0,0,0,0,0,0,
0,0,0,33,33,33,33,88,34,0,0,0,0,0,0,0
</chunk>
    <chunk x="0" y="-16" width="16" height="16">
33,33,33,33,33,33,33,33,33,33,33,33,33,33,33,33,
33,33,33,33,33,33,33,33,33,33,33,33,33,33,33,33,
33,33,33,33,33,33,33,33,33,33,33,33,33,33,33,33,
33,33,33,33,33,33,33,33,33,33,33,33,33,33,33,33,
33,33,33,33,33,33,33,33,33,33,33,33,33,33,33,33,
33,33,33,33,33,33,33,33,33,33,33,33,33,33,33,33,
58,58,58,58,58,58,58,59,33,33,33,33,33,33,33,33,
20,20,20,64,19,21,8,90,33,33,33,33,33,33,33,33,
51,51,51,95,50,52,10,122,58,58,58,59,33,33,33,33,
82,82,82,126,81,83,41,12,21,13,5,90,33,33,33,33,
113,113,113,0,0,114,72,43,52,44,36,90,33,33,33,33,
0,0,0,0,0,0,103,74,83,75,67,90,33,33,33,33,
0,0,0,0,0,0,0,0,0,0,32,90,33,33,33,33,
0,0,0,0,0,0,0,0,0,0,32,90,33,33,33,33,
0,0,0,0,0,0,0,0,0,0,32,90,33,33,33,33,
0,0,0,0,0,0,0,0,0,0,32,90,33,33,33,33
</chunk>
    <chunk x="-16" y="0" width="16" height="16">
0,0,0,33,33,33,33,88,34,0,0,0,0,0,0,0,
0,0,0,33,33,33,33,88,34,0,0,0,0,0,0,0,
0,0,0,33,33,33,0,0,0,0,0,0,0,0,0,0,
0,0,0,33,33,33,0,0,0,0,0,0,0,0,0,0,
0,0,0,33,33,33,0,0,0,0,0,0,0,0,0,0,
0,0,0,33,33,33,0,0,0,0,0,0,0,0,0,0,
0,0,0,33,33,33,0,0,0,0,0,0,0,0,0,0,
0,0,0,33,33,33,33,33,33,33,33,33,33,33,33,33,
0,0,0,33,33,33,33,33,33,33,33,33,33,33,33,33,
0,0,0,33,33,33,33,33,33,33,33,33,33,33,33,33,
0,0,0,33,33,33,33,33,33,33,33,33,33,33,33,33,
0,0,0,33,33,33,33,33,33,33,33,33,33,33,33,33,
0,0,0,33,33,33,33,33,33,33,33,33,33,33,33,33,
0,0,0,0,0,0,0,0,0,0,0,0,0,0,0,0,
0,0,0,0,0,0,0,0,0,0,0,0,0,0,0,0,
0,0,0,0,0,0,0,0,0,0,0,0,0,0,0,0
</chunk>
    <chunk x="0" y="0" width="16" height="16">
0,0,0,0,0,0,0,0,0,0,32,90,33,33,33,33,
0,0,0,0,0,0,0,0,0,0,32,90,33,33,33,33,
0,0,0,0,0,0,0,0,0,0,0,0,0,33,33,33,
0,0,0,0,0,0,0,0,0,0,0,0,0,33,33,33,
0,0,0,0,0,0,0,0,0,0,0,0,0,33,33,33,
0,0,0,0,0,0,0,0,0,0,0,0,0,33,33,33,
0,0,0,0,0,0,0,0,0,0,0,0,0,33,33,33,
0,0,0,0,0,0,0,0,0,0,0,0,0,33,33,33,
33,33,33,33,33,33,33,33,33,33,33,33,33,33,33,33,
33,33,33,33,33,33,33,33,33,33,33,33,33,33,33,33,
33,33,33,33,33,33,33,33,33,33,33,33,33,33,33,33,
33,33,33,33,33,33,33,33,33,33,33,33,33,33,33,33,
33,33,33,33,33,33,33,33,33,33,33,33,33,33,33,33,
0,0,0,0,0,0,0,0,0,0,0,0,0,0,0,0,
0,0,0,0,0,0,0,0,0,0,0,0,0,0,0,0,
0,0,0,0,0,0,0,0,0,0,0,0,0,0,0,0
</chunk>
   </data>
  </layer>
  <layer id="4" name="Walls_top" width="16" height="24">
   <data encoding="csv">
    <chunk x="-16" y="0" width="16" height="16">
0,0,0,0,0,0,0,0,0,0,0,0,0,0,0,0,
0,0,0,0,0,0,0,0,0,0,0,0,0,0,0,0,
0,0,0,0,0,0,33,88,128,29,30,30,31,2,2,2,
0,0,0,0,0,0,33,119,120,120,120,120,120,120,120,120,
0,0,0,0,0,0,33,33,33,33,33,33,33,33,33,33,
0,0,0,0,0,0,33,33,33,33,33,33,33,33,33,33,
0,0,0,0,0,0,33,33,33,33,33,33,33,33,33,33,
0,0,0,0,0,0,33,33,33,33,33,33,33,33,33,33,
0,0,0,0,0,0,0,0,0,0,0,0,0,0,0,0,
0,0,0,0,0,0,0,0,0,0,0,0,0,0,0,0,
0,0,0,0,0,0,0,0,0,0,0,0,0,0,0,0,
0,0,0,0,0,0,0,0,0,0,0,0,0,0,0,0,
0,0,0,0,0,0,0,0,0,0,0,0,0,0,0,0,
0,0,0,0,0,0,0,0,0,0,0,0,0,0,0,0,
0,0,0,0,0,0,0,0,0,0,0,0,0,0,0,0,
0,0,0,0,0,0,0,0,0,0,0,0,0,0,0,0
</chunk>
    <chunk x="0" y="0" width="16" height="16">
0,0,0,0,0,0,0,0,0,0,0,0,0,0,0,0,
0,0,0,0,0,0,0,0,0,0,0,0,0,0,0,0,
2,2,2,2,2,2,2,2,2,2,129,90,33,0,0,0,
120,120,120,120,120,120,120,120,120,120,120,121,33,0,0,0,
33,33,33,33,33,33,33,33,33,33,33,33,33,0,0,0,
33,33,33,33,33,33,33,33,33,33,33,33,33,0,0,0,
33,33,33,33,33,33,33,33,33,33,33,33,33,0,0,0,
33,33,33,33,33,33,33,33,33,33,33,33,33,0,0,0,
0,0,0,0,0,0,0,0,0,0,0,0,0,0,0,0,
0,0,0,0,0,0,0,0,0,0,0,0,0,0,0,0,
0,0,0,0,0,0,0,0,0,0,0,0,0,0,0,0,
0,0,0,0,0,0,0,0,0,0,0,0,0,0,0,0,
0,0,0,0,0,0,0,0,0,0,0,0,0,0,0,0,
0,0,0,0,0,0,0,0,0,0,0,0,0,0,0,0,
0,0,0,0,0,0,0,0,0,0,0,0,0,0,0,0,
0,0,0,0,0,0,0,0,0,0,0,0,0,0,0,0
</chunk>
   </data>
  </layer>
  <layer id="21" name="Objects" width="16" height="24">
   <data encoding="csv">
    <chunk x="-16" y="-16" width="16" height="16">
0,0,0,0,0,0,0,0,0,0,0,0,0,0,0,0,
0,0,0,0,0,0,0,0,0,0,0,0,0,0,0,0,
0,0,0,0,0,0,0,0,0,0,0,0,0,0,0,0,
0,0,0,0,0,0,0,0,0,0,0,0,0,0,0,0,
0,0,0,0,0,0,0,0,0,0,0,0,0,0,0,0,
0,0,0,0,0,0,0,0,0,0,0,0,0,0,0,0,
0,0,0,0,0,0,0,0,0,0,0,0,0,0,0,0,
0,0,0,0,0,0,0,0,0,0,0,0,0,0,0,0,
0,0,0,0,0,0,0,0,0,0,0,0,0,0,0,0,
0,0,0,0,0,0,0,0,322,323,0,0,0,0,0,0,
0,0,0,0,0,0,0,0,361,362,0,0,0,0,0,0,
0,0,0,0,0,0,0,0,400,401,0,0,0,0,0,0,
0,0,0,0,0,0,0,0,439,440,0,0,0,0,0,0,
0,0,0,0,0,0,0,0,0,0,0,0,0,0,0,0,
0,0,0,0,0,0,0,0,0,0,0,0,0,0,0,0,
0,0,0,0,0,0,0,0,0,0,0,0,0,0,0,0
</chunk>
    <chunk x="0" y="-16" width="16" height="16">
0,0,0,0,0,0,0,0,0,0,0,0,0,0,0,0,
0,0,0,0,0,0,0,0,0,0,0,0,0,0,0,0,
0,0,0,0,0,0,0,0,0,0,0,0,0,0,0,0,
0,0,0,0,0,0,0,0,0,0,0,0,0,0,0,0,
0,0,0,0,0,0,0,0,0,0,0,0,0,0,0,0,
0,0,0,0,0,0,0,0,0,0,0,0,0,0,0,0,
0,0,0,0,0,0,0,0,0,0,0,0,0,0,0,0,
0,0,0,0,0,0,0,0,0,0,0,0,0,0,0,0,
0,0,0,0,0,0,0,0,0,0,0,0,0,0,0,0,
0,0,0,0,0,0,0,0,0,320,321,0,0,0,0,0,
0,0,0,0,0,0,0,0,0,359,360,0,0,0,0,0,
0,0,0,0,0,0,0,0,0,398,399,0,0,0,0,0,
0,0,0,0,0,0,0,0,0,437,438,0,0,0,0,0,
0,0,0,0,0,0,0,0,0,0,0,0,0,0,0,0,
0,0,0,0,0,0,0,0,0,0,0,0,0,0,0,0,
0,0,0,0,0,0,0,0,0,0,0,0,0,0,0,0
</chunk>
   </data>
  </layer>
 </group>
 <group id="17" name="Base">
  <layer id="7" name="Various_objects" width="16" height="24">
   <data encoding="csv">
    <chunk x="-16" y="-16" width="16" height="16">
0,0,0,0,0,0,0,0,0,0,0,0,0,0,0,0,
0,0,0,0,0,0,0,0,0,0,0,0,0,0,0,0,
0,0,0,0,0,0,0,0,0,0,0,0,0,0,0,0,
0,0,0,0,0,0,0,0,0,0,0,0,0,0,0,0,
0,0,0,0,0,0,0,0,0,0,0,0,0,0,0,0,
0,0,0,0,0,0,0,0,0,0,0,0,0,0,0,0,
0,0,0,0,0,0,0,0,0,0,0,0,0,0,0,0,
0,0,0,0,0,0,0,0,0,0,0,0,740,741,742,743,
0,0,0,0,0,0,0,0,0,0,0,0,779,780,781,782,
0,0,0,0,0,0,0,0,0,0,645,646,0,634,635,636,
0,0,0,0,0,0,0,0,0,0,684,685,0,673,674,675,
0,0,0,0,0,0,0,0,0,0,723,724,0,712,713,714,
0,0,0,0,0,0,0,0,0,0,0,0,0,335,336,337,
0,0,0,0,0,0,0,0,0,0,0,0,0,1214,1215,1216,
0,0,0,0,0,0,0,0,0,0,0,0,0,1220,1221,1222,
0,0,0,0,0,0,0,0,0,0,0,0,0,0,0,0
</chunk>
    <chunk x="0" y="-16" width="16" height="16">
0,0,0,0,0,0,0,0,0,0,0,0,0,0,0,0,
0,0,0,0,0,0,0,0,0,0,0,0,0,0,0,0,
0,0,0,0,0,0,0,0,0,0,0,0,0,0,0,0,
0,0,0,0,0,0,0,0,0,0,0,0,0,0,0,0,
0,0,0,0,0,0,0,0,0,0,0,0,0,0,0,0,
0,0,0,0,0,0,0,0,0,0,0,0,0,0,0,0,
0,0,0,0,0,0,0,0,0,0,0,0,0,0,0,0,
0,0,0,647,648,649,0,0,0,0,0,0,0,0,0,0,
0,0,0,686,687,688,0,0,0,0,0,0,0,0,0,0,
637,0,0,725,726,727,0,752,753,0,321,0,0,0,0,0,
676,0,0,0,0,0,0,791,792,0,0,0,0,0,0,0,
715,0,0,0,0,0,0,0,0,0,0,0,0,0,0,0,
0,0,0,0,0,0,0,0,0,0,0,0,0,0,0,0,
0,0,0,0,0,0,0,0,0,0,0,0,0,0,0,0,
0,0,0,0,0,0,0,0,0,0,0,0,0,0,0,0,
0,0,0,0,0,0,0,0,0,0,0,0,0,0,0,0
</chunk>
    <chunk x="-16" y="0" width="16" height="16">
0,0,0,0,0,0,0,0,0,0,0,0,0,0,0,0,
0,0,0,0,0,0,0,0,0,0,0,0,0,0,0,0,
0,0,0,0,0,0,0,0,0,0,0,0,0,0,0,0,
0,0,0,0,0,0,0,0,0,0,0,0,0,0,441,442,
0,0,0,0,0,0,0,0,0,0,0,0,0,0,0,0,
0,0,0,0,0,0,0,0,0,0,0,0,0,0,0,0,
0,0,0,0,0,0,0,0,0,0,0,0,0,0,0,0,
0,0,0,0,0,0,0,0,0,0,0,0,0,0,0,0,
0,0,0,0,0,0,0,0,0,0,0,0,0,0,0,0,
0,0,0,0,0,0,0,0,0,0,0,0,0,0,0,0,
0,0,0,0,0,0,0,0,0,0,0,0,0,0,0,0,
0,0,0,0,0,0,0,0,0,0,0,0,0,0,0,0,
0,0,0,0,0,0,0,0,0,0,0,0,0,0,0,0,
0,0,0,0,0,0,0,0,0,0,0,0,0,0,0,0,
0,0,0,0,0,0,0,0,0,0,0,0,0,0,0,0,
0,0,0,0,0,0,0,0,0,0,0,0,0,0,0,0
</chunk>
    <chunk x="0" y="0" width="16" height="16">
0,0,580,0,0,0,0,0,631,632,633,0,0,0,0,0,
0,0,619,0,0,0,0,0,670,671,672,0,0,0,0,0,
0,0,0,0,0,0,0,708,709,710,711,0,0,0,0,0,
443,0,0,0,0,0,0,0,0,0,0,0,0,0,0,0,
0,0,0,0,0,0,0,0,0,0,0,0,0,0,0,0,
0,0,0,0,0,0,0,0,0,0,0,0,0,0,0,0,
0,0,0,0,0,0,0,0,0,0,0,0,0,0,0,0,
0,0,0,0,0,0,0,0,0,0,0,0,0,0,0,0,
0,0,0,0,0,0,0,0,0,0,0,0,0,0,0,0,
0,0,0,0,0,0,0,0,0,0,0,0,0,0,0,0,
0,0,0,0,0,0,0,0,0,0,0,0,0,0,0,0,
0,0,0,0,0,0,0,0,0,0,0,0,0,0,0,0,
0,0,0,0,0,0,0,0,0,0,0,0,0,0,0,0,
0,0,0,0,0,0,0,0,0,0,0,0,0,0,0,0,
0,0,0,0,0,0,0,0,0,0,0,0,0,0,0,0,
0,0,0,0,0,0,0,0,0,0,0,0,0,0,0,0
</chunk>
   </data>
  </layer>
  <layer id="8" name="Boxes_grindstone_barrel_rack" width="16" height="24">
   <data encoding="csv">
    <chunk x="-16" y="-16" width="16" height="16">
0,0,0,0,0,0,0,0,0,0,0,0,0,0,0,0,
0,0,0,0,0,0,0,0,0,0,0,0,0,0,0,0,
0,0,0,0,0,0,0,0,0,0,0,0,0,0,0,0,
0,0,0,0,0,0,0,0,0,0,0,0,0,0,0,0,
0,0,0,0,0,0,0,0,0,0,0,0,0,0,0,0,
0,0,0,0,0,0,0,0,0,0,0,0,0,0,0,0,
0,0,0,0,0,0,0,0,0,0,0,0,0,0,0,0,
0,0,0,0,0,0,0,0,0,0,0,0,0,0,0,0,
0,0,0,0,0,0,0,0,0,0,0,0,0,0,0,0,
0,0,0,0,0,0,0,0,0,0,0,0,0,0,0,0,
0,0,0,0,0,0,0,0,0,0,0,0,0,0,0,0,
0,0,0,0,0,0,0,0,0,0,0,0,0,0,0,0,
0,0,0,0,0,0,0,0,444,445,446,0,0,0,0,0,
0,0,0,0,0,0,0,0,483,484,485,0,0,0,0,0,
0,0,0,0,0,0,0,0,522,523,524,0,0,0,0,0,
0,0,0,0,0,0,0,0,0,0,0,0,0,0,0,0
</chunk>
    <chunk x="0" y="-16" width="16" height="16">
0,0,0,0,0,0,0,0,0,0,0,0,0,0,0,0,
0,0,0,0,0,0,0,0,0,0,0,0,0,0,0,0,
0,0,0,0,0,0,0,0,0,0,0,0,0,0,0,0,
0,0,0,0,0,0,0,0,0,0,0,0,0,0,0,0,
0,0,0,0,0,0,0,0,0,0,0,0,0,0,0,0,
0,0,0,0,0,0,0,0,0,0,0,0,0,0,0,0,
0,0,0,0,0,0,0,0,0,0,0,0,0,0,0,0,
0,0,0,0,0,0,0,0,0,0,0,0,0,0,0,0,
0,0,0,0,0,0,0,0,0,0,0,0,0,0,0,0,
0,0,0,0,0,0,0,0,0,0,0,0,0,0,0,0,
0,0,0,0,0,0,0,0,0,0,0,0,0,0,0,0,
0,0,0,0,0,0,0,0,0,0,0,0,0,0,0,0,
0,0,0,0,0,0,0,0,0,411,412,0,0,0,0,0,
0,0,0,0,0,0,0,0,0,450,451,0,0,0,0,0,
0,0,0,0,0,0,0,0,0,489,490,0,0,0,0,0,
0,0,0,0,0,0,0,0,0,0,0,0,0,0,0,0
</chunk>
    <chunk x="0" y="0" width="16" height="16">
0,0,0,0,338,339,340,341,0,0,0,0,0,0,0,0,
0,0,0,0,377,378,379,380,0,0,0,0,0,0,0,0,
0,0,0,0,416,417,418,419,0,0,0,0,0,0,0,0,
0,0,0,0,0,0,0,0,0,0,0,0,0,0,0,0,
0,0,0,0,0,0,0,0,0,0,0,0,0,0,0,0,
0,0,0,0,0,0,0,0,0,0,0,0,0,0,0,0,
0,0,0,0,0,0,0,0,0,0,0,0,0,0,0,0,
0,0,0,0,0,0,0,0,0,0,0,0,0,0,0,0,
0,0,0,0,0,0,0,0,0,0,0,0,0,0,0,0,
0,0,0,0,0,0,0,0,0,0,0,0,0,0,0,0,
0,0,0,0,0,0,0,0,0,0,0,0,0,0,0,0,
0,0,0,0,0,0,0,0,0,0,0,0,0,0,0,0,
0,0,0,0,0,0,0,0,0,0,0,0,0,0,0,0,
0,0,0,0,0,0,0,0,0,0,0,0,0,0,0,0,
0,0,0,0,0,0,0,0,0,0,0,0,0,0,0,0,
0,0,0,0,0,0,0,0,0,0,0,0,0,0,0,0
</chunk>
   </data>
  </layer>
  <layer id="24" name="Cutter" width="16" height="24">
   <data encoding="csv">
    <chunk x="0" y="-16" width="16" height="16">
0,0,0,0,0,0,0,0,0,0,0,0,0,0,0,0,
0,0,0,0,0,0,0,0,0,0,0,0,0,0,0,0,
0,0,0,0,0,0,0,0,0,0,0,0,0,0,0,0,
0,0,0,0,0,0,0,0,0,0,0,0,0,0,0,0,
0,0,0,0,0,0,0,0,0,0,0,0,0,0,0,0,
0,0,0,0,0,0,0,0,0,0,0,0,0,0,0,0,
0,0,0,0,0,0,0,0,0,0,0,0,0,0,0,0,
0,0,0,0,0,0,0,0,0,0,0,0,0,0,0,0,
0,0,0,0,0,0,0,0,0,0,0,0,0,0,0,0,
0,0,0,0,0,0,0,0,0,0,0,0,0,0,0,0,
0,0,0,0,0,0,0,0,0,0,0,0,0,0,0,0,
0,0,0,0,0,0,0,0,0,0,0,0,0,0,0,0,
0,0,0,0,0,0,0,0,0,0,0,0,0,0,0,0,
0,0,0,0,0,616,617,618,0,0,0,0,0,0,0,0,
0,0,0,0,0,0,0,0,0,0,0,0,0,0,0,0,
0,0,0,0,0,0,0,0,0,0,0,0,0,0,0,0
</chunk>
   </data>
  </layer>
  <layer id="5" name="Forge_pillars_boxes" width="16" height="24">
   <data encoding="csv">
    <chunk x="-16" y="-16" width="16" height="16">
0,0,0,0,0,0,0,0,0,0,0,0,0,0,0,0,
0,0,0,0,0,0,0,0,0,0,0,0,0,0,0,0,
0,0,0,0,0,0,0,0,0,0,0,0,0,0,0,0,
0,0,0,0,0,0,0,0,0,0,0,0,0,0,0,0,
0,0,0,0,0,0,0,0,0,0,0,0,0,0,0,0,
0,0,0,0,0,0,0,0,0,0,0,0,0,0,0,311,
0,0,0,0,0,0,0,0,0,0,0,0,0,0,0,350,
0,0,0,0,0,0,0,0,0,316,317,0,0,0,0,389,
0,0,0,0,0,0,0,0,0,0,0,0,0,0,0,428,
0,0,0,0,0,0,0,0,0,0,0,0,528,529,0,467,
0,0,0,0,0,0,0,0,0,0,0,0,567,568,0,506,
0,0,0,0,0,0,0,0,0,0,0,0,0,0,0,545,
0,0,0,0,0,0,0,0,0,0,0,0,0,0,0,584,
0,0,0,0,0,0,0,0,0,550,551,0,0,0,0,0,
0,0,0,0,0,0,0,0,0,589,590,0,0,0,0,0,
0,0,0,0,0,0,0,0,0,0,0,0,0,0,0,0
</chunk>
    <chunk x="0" y="-16" width="16" height="16">
0,0,0,0,0,0,0,0,0,0,0,0,0,0,0,0,
0,0,0,0,0,0,0,0,0,0,0,0,0,0,0,0,
0,0,0,0,0,0,0,0,0,0,0,0,0,0,0,0,
0,0,0,0,0,0,0,0,0,0,0,0,0,0,0,0,
0,0,0,0,0,0,0,0,0,0,0,0,0,0,0,0,
312,313,314,315,0,0,0,0,0,0,0,0,0,0,0,0,
351,352,353,354,0,0,0,0,0,0,0,0,0,0,0,0,
390,391,392,393,0,0,0,0,2147483965,2147483964,0,0,0,0,0,0,
429,430,431,432,0,526,527,0,0,0,0,0,0,0,0,0,
980,981,982,471,0,565,566,0,0,0,0,0,0,0,0,0,
998,999,1000,510,0,604,605,0,0,0,0,0,0,0,0,0,
1016,1017,1018,549,0,0,0,0,0,0,0,0,0,0,0,0,
1034,1035,1036,588,0,0,0,0,0,0,0,0,0,0,0,0,
0,0,0,0,0,0,0,0,2147484199,2147484198,0,0,0,0,0,0,
0,0,0,0,0,0,0,0,2147484238,2147484237,0,0,0,0,0,0,
0,0,0,0,0,0,0,0,0,0,0,0,0,0,0,0
</chunk>
    <chunk x="-16" y="0" width="16" height="16">
0,0,0,0,0,0,0,0,0,0,0,0,0,0,0,0,
0,0,0,0,0,0,0,0,0,0,0,0,327,0,0,0,
0,0,0,0,0,0,0,0,0,0,0,0,0,0,0,0,
0,0,0,0,0,0,0,0,0,0,0,0,0,0,0,0,
0,0,0,0,0,0,0,0,0,0,0,0,0,0,0,0,
0,0,0,0,0,0,0,0,0,0,0,0,0,0,0,0,
0,0,0,0,0,0,0,0,0,0,0,0,0,0,0,0,
0,0,0,0,0,0,0,0,0,0,0,0,0,0,0,0,
0,0,0,0,0,0,0,0,0,0,0,0,0,0,0,0,
0,0,0,0,0,0,0,0,0,0,0,0,0,0,0,0,
0,0,0,0,0,0,0,0,0,0,0,0,0,0,0,0,
0,0,0,0,0,0,0,0,0,0,0,0,0,0,0,0,
0,0,0,0,0,0,0,0,0,0,0,0,0,0,0,0,
0,0,0,0,0,0,0,0,0,0,0,0,0,0,0,0,
0,0,0,0,0,0,0,0,0,0,0,0,0,0,0,0,
0,0,0,0,0,0,0,0,0,0,0,0,0,0,0,0
</chunk>
   </data>
  </layer>
  <layer id="9" name="Bellows_tannery_rack_table" width="16" height="24">
   <data encoding="csv">
    <chunk x="-16" y="-16" width="16" height="16">
0,0,0,0,0,0,0,0,0,0,0,0,0,0,0,0,
0,0,0,0,0,0,0,0,0,0,0,0,0,0,0,0,
0,0,0,0,0,0,0,0,0,0,0,0,0,0,0,0,
0,0,0,0,0,0,0,0,0,0,0,0,0,0,0,0,
0,0,0,0,0,0,0,0,0,0,0,0,0,0,0,0,
0,0,0,0,0,0,0,0,0,0,0,0,0,0,0,0,
0,0,0,0,0,0,0,0,0,0,0,0,0,0,0,0,
0,0,0,0,0,0,0,0,0,0,0,0,0,0,0,0,
0,0,0,0,0,0,0,0,0,0,0,0,0,0,0,0,
0,0,0,0,0,0,0,0,0,0,0,0,0,0,0,0,
0,0,0,0,0,0,0,0,0,0,0,0,0,0,0,0,
0,0,0,0,0,0,0,0,0,0,0,0,0,0,0,0,
0,0,0,0,0,0,0,0,0,0,0,0,0,0,0,0,
0,0,0,0,0,0,0,0,345,0,0,0,349,0,0,0,
0,0,0,0,0,0,0,0,0,0,0,0,388,0,0,0,
0,0,0,0,0,0,0,0,0,0,0,0,427,0,0,0
</chunk>
    <chunk x="0" y="-16" width="16" height="16">
0,0,0,0,0,0,0,0,0,0,0,0,0,0,0,0,
0,0,0,0,0,0,0,0,0,0,0,0,0,0,0,0,
0,0,0,0,0,0,0,0,0,0,0,0,0,0,0,0,
0,0,0,0,0,0,0,0,0,0,0,0,0,0,0,0,
0,0,0,0,0,0,0,0,0,0,0,0,0,0,0,0,
0,0,0,0,0,0,0,0,0,0,0,0,0,0,0,0,
0,0,0,0,0,0,0,0,0,0,0,0,0,0,0,0,
0,0,0,0,0,0,0,0,0,0,0,0,0,0,0,0,
0,0,474,475,476,477,0,0,0,0,0,0,0,0,0,0,
0,0,513,514,515,516,0,0,0,0,0,0,0,0,0,0,
0,0,552,553,554,555,0,0,0,0,0,0,0,0,0,0,
0,0,591,592,593,594,0,0,0,0,0,0,0,0,0,0,
0,0,630,631,0,633,0,0,0,0,0,0,0,0,0,0,
0,0,0,0,0,0,0,0,533,534,535,0,0,0,0,0,
0,0,0,0,0,0,0,0,0,0,574,0,0,0,0,0,
0,0,0,0,0,0,0,0,0,0,0,0,0,0,0,0
</chunk>
    <chunk x="-16" y="0" width="16" height="16">
0,0,0,0,0,0,0,0,0,0,0,465,466,0,0,0,
0,0,0,0,0,0,0,0,0,0,0,0,0,0,0,0,
0,0,0,0,0,0,0,0,0,0,0,0,0,0,0,0,
0,0,0,0,0,0,0,0,0,0,0,0,0,0,0,0,
0,0,0,0,0,0,0,0,0,0,0,0,0,0,0,0,
0,0,0,0,0,0,0,0,0,0,0,0,0,0,0,0,
0,0,0,0,0,0,0,0,0,0,0,0,0,0,0,0,
0,0,0,0,0,0,0,0,0,0,0,0,0,0,0,0,
0,0,0,0,0,0,0,0,0,0,0,0,0,0,0,0,
0,0,0,0,0,0,0,0,0,0,0,0,0,0,0,0,
0,0,0,0,0,0,0,0,0,0,0,0,0,0,0,0,
0,0,0,0,0,0,0,0,0,0,0,0,0,0,0,0,
0,0,0,0,0,0,0,0,0,0,0,0,0,0,0,0,
0,0,0,0,0,0,0,0,0,0,0,0,0,0,0,0,
0,0,0,0,0,0,0,0,0,0,0,0,0,0,0,0,
0,0,0,0,0,0,0,0,0,0,0,0,0,0,0,0
</chunk>
   </data>
  </layer>
  <layer id="10" name="Tables_shields_w_weapon" width="16" height="24">
   <data encoding="csv">
    <chunk x="0" y="-16" width="16" height="16">
0,0,0,0,0,0,0,0,0,0,0,0,0,0,0,0,
0,0,0,0,0,0,0,0,0,0,0,0,0,0,0,0,
0,0,0,0,0,0,0,0,0,0,0,0,0,0,0,0,
0,0,0,0,0,0,0,0,0,0,0,0,0,0,0,0,
0,0,0,0,0,0,0,0,0,0,0,0,0,0,0,0,
0,0,0,0,0,0,0,0,0,0,0,0,0,0,0,0,
0,0,0,0,0,0,0,0,0,0,0,0,0,0,0,0,
0,0,0,0,0,0,0,0,0,0,0,0,0,0,0,0,
0,0,0,0,0,0,0,0,0,0,0,0,0,0,0,0,
0,0,0,0,0,0,0,0,0,0,0,0,0,0,0,0,
0,0,0,0,0,0,0,0,0,0,762,0,0,0,0,0,
0,0,0,0,0,0,0,0,0,0,801,0,0,0,0,0,
0,0,0,0,0,0,0,0,0,0,0,0,0,0,0,0,
0,0,0,0,582,583,0,0,0,0,0,0,0,0,0,0,
0,0,0,620,621,622,0,0,572,573,574,0,0,0,0,0,
0,0,0,659,660,661,0,0,611,612,613,0,0,0,0,0
</chunk>
    <chunk x="-16" y="0" width="16" height="16">
0,0,0,0,0,0,0,0,638,639,0,0,0,0,0,0,
0,0,0,0,0,0,0,0,677,678,0,0,0,0,0,0,
0,0,0,0,0,0,0,0,716,717,0,0,0,0,0,0,
0,0,0,0,0,0,0,0,0,0,0,0,0,0,0,0,
0,0,0,0,0,0,0,0,0,0,0,0,0,0,0,0,
0,0,0,0,0,0,0,0,0,0,0,0,0,0,0,0,
0,0,0,0,0,0,0,0,0,0,0,0,0,0,0,0,
0,0,0,0,0,0,0,0,0,0,0,0,0,0,0,0,
0,0,0,0,0,0,0,0,0,0,0,0,0,0,0,0,
0,0,0,0,0,0,0,0,0,0,0,0,0,0,0,0,
0,0,0,0,0,0,0,0,0,0,0,0,0,0,0,0,
0,0,0,0,0,0,0,0,0,0,0,0,0,0,0,0,
0,0,0,0,0,0,0,0,0,0,0,0,0,0,0,0,
0,0,0,0,0,0,0,0,0,0,0,0,0,0,0,0,
0,0,0,0,0,0,0,0,0,0,0,0,0,0,0,0,
0,0,0,0,0,0,0,0,0,0,0,0,0,0,0,0
</chunk>
    <chunk x="0" y="0" width="16" height="16">
0,0,0,698,699,700,0,0,0,0,0,0,0,0,0,0,
0,651,652,653,0,0,0,0,0,0,0,0,0,0,0,0,
0,690,691,692,0,0,0,0,0,0,0,0,0,0,0,0,
0,0,0,0,0,0,0,0,0,0,0,0,0,0,0,0,
0,0,0,0,0,0,0,0,0,0,0,0,0,0,0,0,
0,0,0,0,0,0,0,0,0,0,0,0,0,0,0,0,
0,0,0,0,0,0,0,0,0,0,0,0,0,0,0,0,
0,0,0,0,0,0,0,0,0,0,0,0,0,0,0,0,
0,0,0,0,0,0,0,0,0,0,0,0,0,0,0,0,
0,0,0,0,0,0,0,0,0,0,0,0,0,0,0,0,
0,0,0,0,0,0,0,0,0,0,0,0,0,0,0,0,
0,0,0,0,0,0,0,0,0,0,0,0,0,0,0,0,
0,0,0,0,0,0,0,0,0,0,0,0,0,0,0,0,
0,0,0,0,0,0,0,0,0,0,0,0,0,0,0,0,
0,0,0,0,0,0,0,0,0,0,0,0,0,0,0,0,
0,0,0,0,0,0,0,0,0,0,0,0,0,0,0,0
</chunk>
   </data>
  </layer>
 </group>
 <group id="18" name="OverPlay">
  <layer id="13" name="Floor_light" width="16" height="24">
   <data encoding="csv">
    <chunk x="-16" y="-16" width="16" height="16">
0,0,0,0,0,0,0,0,0,0,0,0,0,0,0,0,
0,0,0,0,0,0,0,0,0,0,0,0,0,0,0,0,
0,0,0,0,0,0,0,0,0,0,0,0,0,0,0,0,
0,0,0,0,0,0,0,0,0,0,0,0,0,0,0,0,
0,0,0,0,0,0,0,0,0,0,0,0,0,0,0,0,
0,0,0,0,0,0,0,0,0,0,0,0,0,0,0,0,
0,0,0,0,0,0,0,0,0,0,0,0,0,0,0,0,
0,0,0,0,0,0,0,0,0,0,0,0,0,0,0,0,
0,0,0,0,0,0,0,0,0,0,0,0,0,0,0,0,
0,0,0,0,0,0,0,0,0,0,0,0,0,0,0,0,
0,0,0,0,0,0,0,0,0,0,0,0,0,0,0,0,
0,0,0,0,0,0,0,0,0,0,0,0,0,1052,1053,1054,
0,0,0,0,0,0,0,0,0,0,0,0,0,1061,1062,1063,
0,0,0,0,0,0,0,0,0,0,0,0,0,1070,1071,1072,
0,0,0,0,0,0,0,0,0,0,0,0,0,0,0,0,
0,0,0,0,0,0,0,0,0,0,0,0,0,0,0,0
</chunk>
    <chunk x="0" y="-16" width="16" height="16">
0,0,0,0,0,0,0,0,0,0,0,0,0,0,0,0,
0,0,0,0,0,0,0,0,0,0,0,0,0,0,0,0,
0,0,0,0,0,0,0,0,0,0,0,0,0,0,0,0,
0,0,0,0,0,0,0,0,0,0,0,0,0,0,0,0,
0,0,0,0,0,0,0,0,0,0,0,0,0,0,0,0,
0,0,0,0,0,0,0,0,0,0,0,0,0,0,0,0,
0,0,0,0,0,0,0,0,0,0,0,0,0,0,0,0,
0,0,0,0,0,0,0,0,0,0,0,0,0,0,0,0,
0,0,0,0,0,0,0,0,0,0,0,0,0,0,0,0,
0,0,0,0,0,0,0,0,0,0,0,0,0,0,0,0,
0,0,0,0,0,0,0,0,0,0,0,0,0,0,0,0,
1055,1056,1057,1058,1059,1060,0,0,0,0,0,0,0,0,0,0,
1064,1065,1066,1067,1068,1069,0,0,0,0,0,0,0,0,0,0,
1073,1074,1075,1076,1077,1078,0,0,0,0,0,0,0,0,0,0,
0,0,0,0,0,0,0,0,0,0,0,0,0,0,0,0,
0,0,0,0,0,0,0,0,0,0,0,0,0,0,0,0
</chunk>
   </data>
  </layer>
  <layer id="23" name="Objects" width="16" height="24">
   <data encoding="csv">
    <chunk x="-16" y="0" width="16" height="16">
0,0,0,0,0,0,0,0,0,0,0,0,0,0,0,0,
0,0,0,0,0,0,0,0,0,0,0,0,327,328,329,0,
0,0,0,0,0,0,0,0,0,0,0,0,366,367,368,0,
0,0,0,0,0,0,0,0,0,0,0,0,405,406,407,0,
0,0,0,0,0,0,0,0,0,0,0,0,0,0,0,0,
0,0,0,0,0,0,0,0,0,0,0,0,0,0,0,0,
0,0,0,0,0,0,0,0,0,0,0,0,0,0,0,0,
0,0,0,0,0,0,0,0,0,0,0,0,0,0,0,0,
0,0,0,0,0,0,0,0,0,0,0,0,0,0,0,0,
0,0,0,0,0,0,0,0,0,0,0,0,0,0,0,0,
0,0,0,0,0,0,0,0,0,0,0,0,0,0,0,0,
0,0,0,0,0,0,0,0,0,0,0,0,0,0,0,0,
0,0,0,0,0,0,0,0,0,0,0,0,0,0,0,0,
0,0,0,0,0,0,0,0,0,0,0,0,0,0,0,0,
0,0,0,0,0,0,0,0,0,0,0,0,0,0,0,0,
0,0,0,0,0,0,0,0,0,0,0,0,0,0,0,0
</chunk>
   </data>
  </layer>
  <layer id="22" name="Objects" width="16" height="24">
   <data encoding="csv">
    <chunk x="-16" y="-16" width="16" height="16">
0,0,0,0,0,0,0,0,0,0,0,0,0,0,0,0,
0,0,0,0,0,0,0,0,0,0,0,0,0,0,0,0,
0,0,0,0,0,0,0,0,0,0,0,0,0,0,0,0,
0,0,0,0,0,0,0,0,0,0,0,0,0,0,0,0,
0,0,0,0,0,0,0,0,0,0,0,0,0,0,0,0,
0,0,0,0,0,0,0,0,0,0,0,0,0,0,0,0,
0,0,0,0,0,0,0,0,0,0,0,0,0,0,0,0,
0,0,0,0,0,0,0,0,0,0,0,0,0,0,0,0,
0,0,0,0,0,0,0,0,0,355,356,0,0,0,0,0,
0,0,0,0,0,0,0,0,0,394,395,0,0,0,0,0,
0,0,0,0,0,0,0,0,0,433,434,0,0,0,0,0,
0,0,0,0,0,0,0,0,0,472,473,0,0,0,0,0,
0,0,0,0,0,0,0,0,0,472,473,0,0,0,0,0,
0,0,0,0,0,0,0,0,0,0,0,0,0,0,0,0,
0,0,0,0,0,0,0,0,0,0,0,0,0,0,0,0,
0,0,0,0,0,0,0,0,0,0,0,0,0,0,0,0
</chunk>
    <chunk x="0" y="-16" width="16" height="16">
0,0,0,0,0,0,0,0,0,0,0,0,0,0,0,0,
0,0,0,0,0,0,0,0,0,0,0,0,0,0,0,0,
0,0,0,0,0,0,0,0,0,0,0,0,0,0,0,0,
0,0,0,0,0,0,0,0,0,0,0,0,0,0,0,0,
0,0,0,0,0,0,0,0,0,0,0,0,0,0,0,0,
0,0,0,0,0,0,0,0,0,0,0,0,0,0,0,0,
0,0,0,0,0,0,0,0,0,0,0,0,0,0,0,0,
0,0,0,0,0,0,0,0,0,0,0,0,0,0,0,0,
0,0,0,0,0,0,0,0,2147484004,2147484003,0,0,0,0,0,0,
0,0,0,0,0,0,0,0,2147484043,2147484042,0,0,0,0,0,0,
0,0,0,0,0,0,0,0,2147484082,2147484081,0,0,0,0,0,0,
0,0,0,0,0,0,0,0,2147484121,2147484120,0,0,0,0,0,0,
0,0,0,0,0,577,578,579,2147484160,2147484159,0,0,0,0,0,0,
0,0,0,0,0,0,0,0,0,0,0,0,0,0,0,0,
0,0,0,0,0,0,0,0,0,0,0,0,0,0,0,0,
0,0,0,0,0,0,0,0,0,0,0,0,0,0,0,0
</chunk>
    <chunk x="-16" y="0" width="16" height="16">
0,0,0,0,0,0,0,0,0,0,0,0,0,0,324,325,
0,0,0,0,0,0,0,0,0,0,0,0,0,0,363,364,
0,0,0,0,0,0,0,0,0,0,0,0,0,0,402,403,
0,0,0,0,0,0,0,0,0,0,0,0,0,0,441,442,
0,0,0,0,0,0,0,0,0,0,0,0,0,0,0,0,
0,0,0,0,0,0,0,0,0,0,0,0,0,0,0,0,
0,0,0,0,0,0,0,0,0,0,0,0,0,0,0,0,
0,0,0,0,0,0,0,0,0,0,0,0,0,0,0,0,
0,0,0,0,0,0,0,0,0,0,0,0,0,0,0,0,
0,0,0,0,0,0,0,0,0,0,0,0,0,0,0,0,
0,0,0,0,0,0,0,0,0,0,0,0,0,0,0,0,
0,0,0,0,0,0,0,0,0,0,0,0,0,0,0,0,
0,0,0,0,0,0,0,0,0,0,0,0,0,0,0,0,
0,0,0,0,0,0,0,0,0,0,0,0,0,0,0,0,
0,0,0,0,0,0,0,0,0,0,0,0,0,0,0,0,
0,0,0,0,0,0,0,0,0,0,0,0,0,0,0,0
</chunk>
    <chunk x="0" y="0" width="16" height="16">
326,0,0,0,338,339,340,341,0,0,0,0,0,0,0,0,
365,0,0,0,377,378,379,380,0,0,0,0,0,0,0,0,
404,0,0,0,0,0,0,0,0,0,0,0,0,0,0,0,
443,0,0,0,0,0,0,0,0,0,0,0,0,0,0,0,
0,0,0,0,0,0,0,0,0,0,0,0,0,0,0,0,
0,0,0,0,0,0,0,0,0,0,0,0,0,0,0,0,
0,0,0,0,0,0,0,0,0,0,0,0,0,0,0,0,
0,0,0,0,0,0,0,0,0,0,0,0,0,0,0,0,
0,0,0,0,0,0,0,0,0,0,0,0,0,0,0,0,
0,0,0,0,0,0,0,0,0,0,0,0,0,0,0,0,
0,0,0,0,0,0,0,0,0,0,0,0,0,0,0,0,
0,0,0,0,0,0,0,0,0,0,0,0,0,0,0,0,
0,0,0,0,0,0,0,0,0,0,0,0,0,0,0,0,
0,0,0,0,0,0,0,0,0,0,0,0,0,0,0,0,
0,0,0,0,0,0,0,0,0,0,0,0,0,0,0,0,
0,0,0,0,0,0,0,0,0,0,0,0,0,0,0,0
</chunk>
   </data>
  </layer>
  <layer id="25" name="Tile Layer 16" width="16" height="24">
   <data encoding="csv">
    <chunk x="-16" y="-16" width="16" height="16">
0,0,0,0,0,0,0,0,0,0,0,0,0,0,0,0,
0,0,0,0,0,0,0,0,0,0,0,0,0,0,0,0,
0,0,0,0,0,0,0,0,0,0,0,0,0,0,0,0,
0,0,0,0,0,0,0,0,0,0,0,0,0,0,0,0,
0,0,0,0,0,0,0,0,0,0,0,0,0,0,0,0,
0,0,0,0,0,0,0,0,0,0,0,0,0,0,0,0,
0,0,0,0,0,0,0,0,0,0,0,0,0,0,0,0,
0,0,0,0,0,0,0,0,0,0,0,0,0,0,0,0,
0,0,0,0,0,0,0,0,0,0,0,0,0,0,0,0,
0,0,0,0,0,0,0,0,0,0,0,0,0,0,0,0,
0,0,0,0,0,0,0,0,0,756,757,0,0,0,0,0,
0,0,0,0,0,0,0,0,0,795,796,0,0,0,0,0,
0,0,0,0,0,0,0,0,0,0,0,0,0,0,0,0,
0,0,0,0,0,0,0,0,0,0,0,0,0,0,0,0,
0,0,0,0,0,0,0,0,0,0,0,0,0,0,0,0,
0,0,0,0,0,0,0,0,0,0,0,0,0,0,0,0
</chunk>
    <chunk x="0" y="-16" width="16" height="16">
0,0,0,0,0,0,0,0,0,0,0,0,0,0,0,0,
0,0,0,0,0,0,0,0,0,0,0,0,0,0,0,0,
0,0,0,0,0,0,0,0,0,0,0,0,0,0,0,0,
0,0,0,0,0,0,0,0,0,0,0,0,0,0,0,0,
0,0,0,0,0,0,0,0,0,0,0,0,0,0,0,0,
0,0,0,0,0,0,0,0,0,0,0,0,0,0,0,0,
0,0,0,0,0,0,0,0,0,0,0,0,0,0,0,0,
0,0,0,0,0,0,0,0,0,0,0,0,0,0,0,0,
0,0,0,0,0,0,0,0,0,0,0,0,0,0,0,0,
0,0,0,0,0,0,0,0,0,0,0,0,0,0,0,0,
0,0,0,0,0,0,0,0,760,761,762,0,0,0,0,0,
0,0,0,0,0,0,0,0,799,800,801,0,0,0,0,0,
0,0,0,0,0,0,0,0,0,0,0,0,0,0,0,0,
0,0,0,0,0,0,0,0,0,0,0,0,0,0,0,0,
0,0,0,0,0,0,0,0,0,0,0,0,0,0,0,0,
0,0,0,0,0,0,0,0,0,0,0,0,0,0,0,0
</chunk>
   </data>
  </layer>
  <layer id="11" name="Torches_back" width="16" height="24">
   <data encoding="csv">
    <chunk x="-16" y="-16" width="16" height="16">
0,0,0,0,0,0,0,0,0,0,0,0,0,0,0,0,
0,0,0,0,0,0,0,0,0,0,0,0,0,0,0,0,
0,0,0,0,0,0,0,0,0,0,0,0,0,0,0,0,
0,0,0,0,0,0,0,0,0,0,0,0,0,0,0,0,
0,0,0,0,0,0,0,0,0,0,0,0,0,0,0,0,
0,0,0,0,0,0,0,0,0,0,0,0,0,0,0,0,
0,0,0,0,0,0,0,0,0,0,0,0,0,0,0,0,
0,0,0,0,0,0,0,0,0,0,0,0,0,0,0,0,
0,0,0,0,0,0,0,0,0,0,0,0,0,0,0,0,
0,0,0,0,0,0,0,0,0,0,0,2147484470,2147484469,0,0,0,
0,0,0,0,0,0,0,0,0,0,0,2147484479,2147484478,0,0,0,
0,0,0,0,0,0,0,0,0,0,0,2147484488,2147484487,0,0,0,
0,0,0,0,0,0,0,0,0,0,0,0,0,0,0,0,
0,0,0,0,0,0,0,0,0,0,0,0,0,0,0,0,
0,0,0,0,0,0,0,0,0,0,0,0,0,0,0,0,
0,0,0,0,0,0,0,0,0,0,0,0,0,0,0,0
</chunk>
    <chunk x="0" y="-16" width="16" height="16">
0,0,0,0,0,0,0,0,0,0,0,0,0,0,0,0,
0,0,0,0,0,0,0,0,0,0,0,0,0,0,0,0,
0,0,0,0,0,0,0,0,0,0,0,0,0,0,0,0,
0,0,0,0,0,0,0,0,0,0,0,0,0,0,0,0,
0,0,0,0,0,0,0,0,0,0,0,0,0,0,0,0,
0,0,0,0,0,0,0,0,0,0,0,0,0,0,0,0,
0,0,0,0,0,0,0,0,0,0,0,0,0,0,0,0,
0,0,0,0,0,0,0,0,0,0,0,0,0,0,0,0,
0,0,0,0,0,0,0,0,0,0,0,0,0,0,0,0,
0,0,0,0,0,0,821,822,0,0,0,0,0,0,0,0,
0,0,0,0,0,0,830,831,0,0,0,0,0,0,0,0,
0,0,0,0,0,0,839,840,0,0,0,0,0,0,0,0,
0,0,0,0,0,0,0,0,0,0,0,0,0,0,0,0,
0,0,0,0,0,0,0,0,0,0,0,0,0,0,0,0,
0,0,0,0,0,0,0,0,0,0,0,0,0,0,0,0,
0,0,0,0,0,0,0,0,0,0,0,0,0,0,0,0
</chunk>
   </data>
  </layer>
  <layer id="12" name="Torches_pillar_n_front" width="16" height="24">
   <data encoding="csv">
    <chunk x="-16" y="-16" width="16" height="16">
0,0,0,0,0,0,0,0,0,0,0,0,0,0,0,0,
0,0,0,0,0,0,0,0,0,0,0,0,0,0,0,0,
0,0,0,0,0,0,0,0,0,0,0,0,0,0,0,0,
0,0,0,0,0,0,0,0,0,0,0,0,0,0,0,0,
0,0,0,0,0,0,0,0,0,0,0,0,0,0,0,0,
0,0,0,0,0,0,0,0,0,0,0,0,0,0,0,0,
0,0,0,0,0,0,0,0,0,0,0,0,0,0,0,0,
0,0,0,0,0,0,0,0,0,0,0,0,0,0,0,0,
0,0,0,0,0,0,0,0,0,0,0,0,0,0,0,0,
0,0,0,0,0,0,0,0,0,0,0,0,0,0,0,0,
0,0,0,0,0,0,0,0,0,0,0,0,0,0,0,0,
0,0,0,0,0,0,0,0,0,2147484467,2147484466,0,0,0,0,0,
0,0,0,0,0,0,0,0,0,2147484476,2147484475,0,0,0,0,0,
0,0,0,0,0,0,0,0,0,2147484485,2147484484,0,0,0,0,0,
0,0,0,0,0,0,0,0,0,0,0,0,0,0,0,0,
0,0,0,0,0,0,0,0,0,0,0,0,0,0,0,0
</chunk>
    <chunk x="0" y="-16" width="16" height="16">
0,0,0,0,0,0,0,0,0,0,0,0,0,0,0,0,
0,0,0,0,0,0,0,0,0,0,0,0,0,0,0,0,
0,0,0,0,0,0,0,0,0,0,0,0,0,0,0,0,
0,0,0,0,0,0,0,0,0,0,0,0,0,0,0,0,
0,0,0,0,0,0,0,0,0,0,0,0,0,0,0,0,
0,0,0,0,0,0,0,0,0,0,0,0,0,0,0,0,
0,0,0,0,0,0,0,0,0,0,0,0,0,0,0,0,
0,0,0,0,0,0,0,0,0,0,0,0,0,0,0,0,
0,0,0,0,0,0,0,0,0,0,0,0,0,0,0,0,
0,0,0,0,0,0,0,0,0,0,0,0,0,0,0,0,
0,0,0,0,0,0,0,0,0,0,0,0,0,0,0,0,
0,0,0,0,0,0,0,0,818,819,0,0,0,0,0,0,
0,0,0,0,0,0,0,0,827,828,0,0,0,0,0,0,
0,0,0,0,0,0,0,0,836,837,0,0,0,0,0,0,
0,0,0,0,0,0,0,0,0,0,0,0,0,0,0,0,
0,0,0,0,0,0,0,0,0,0,0,0,0,0,0,0
</chunk>
    <chunk x="-16" y="0" width="16" height="16">
0,0,0,0,0,0,0,0,0,0,0,0,0,0,0,0,
0,0,0,0,0,0,0,0,0,0,0,824,825,826,0,0,
0,0,0,0,0,0,0,0,0,0,0,833,834,835,0,0,
0,0,0,0,0,0,0,0,0,0,0,842,843,844,0,0,
0,0,0,0,0,0,0,0,0,0,0,0,0,0,0,0,
0,0,0,0,0,0,0,0,0,0,0,0,0,0,0,0,
0,0,0,0,0,0,0,0,0,0,0,0,0,0,0,0,
0,0,0,0,0,0,0,0,0,0,0,0,0,0,0,0,
0,0,0,0,0,0,0,0,0,0,0,0,0,0,0,0,
0,0,0,0,0,0,0,0,0,0,0,0,0,0,0,0,
0,0,0,0,0,0,0,0,0,0,0,0,0,0,0,0,
0,0,0,0,0,0,0,0,0,0,0,0,0,0,0,0,
0,0,0,0,0,0,0,0,0,0,0,0,0,0,0,0,
0,0,0,0,0,0,0,0,0,0,0,0,0,0,0,0,
0,0,0,0,0,0,0,0,0,0,0,0,0,0,0,0,
0,0,0,0,0,0,0,0,0,0,0,0,0,0,0,0
</chunk>
   </data>
  </layer>
 </group>
 <objectgroup id="19" name="Colliders">
  <object id="1" x="-123" y="45">
   <polygon points="0,0 -7,4 25,4 25,0"/>
  </object>
  <object id="2" x="-63" y="45">
   <polygon points="0,0 0,3 0,5 241,5 235,0"/>
  </object>
  <object id="3" x="171" y="45">
   <polygon points="0,0 1,0 7,5 7,-160 0,-160"/>
  </object>
  <object id="4" x="171" y="-110">
   <polygon points="0,0 -62,0 -63,0 -64,0 -64,-37 -56,-37 -56,-6 0,-5"/>
  </object>
  <object id="5" x="107" y="-142">
   <polygon points="0,0 -175,0 -176,0 -176,-9 1,-8"/>
  </object>
  <object id="6" x="-59" y="-142">
   <polygon points="0,0 0,31 0,32 -74,32 -75,24 -11,25 -10,0"/>
  </object>
  <object id="7" x="-123" y="-110">
   <polygon points="0,0 0,155 -7,159 -6,0"/>
  </object>
  <object id="8" x="-123" y="-66">
   <polygon points="0,0 62,0 64,-3 63,-4 -1,-4 -1,0"/>
  </object>
  <object id="9" x="-59" y="-70">
   <polygon points="0,0 0,-40 -5,-40 -4,0"/>
  </object>
  <object id="10" x="-59" y="-99">
   <polygon points="0,0 167,1 167,-1 167,-2 -1,-4 -1,0"/>
  </object>
  <object id="11" x="-56" y="-94">
   <polygon points="0,0 12,0 11,2 8,5 4,5 1,3"/>
  </object>
  <object id="12" x="6" y="-76">
   <polygon points="0,0 0,18 1,19 2,19 2,-1 0,-1"/>
  </object>
  <object id="13" x="0" y="-67">
   <polygon points="0,0 -2,-1 -2,-8 -2,-19 0,-19"/>
  </object>
  <object id="14" x="-5" y="-75">
   <polygon points="0,0 3,0 3,-2 0,-3 0,-24 -3,-23 -2,-1"/>
  </object>
  <object id="15" x="41" y="-57">
   <polygon points="0,0 1,-2 1,-21 -1,-22"/>
  </object>
  <object id="16" x="41" y="-57">
   <polygon points="0,0 -12,0 -12,-1 0,-1"/>
  </object>
  <object id="17" x="8" y="-57">
   <polyline points="0,0 11,0 11,-1 0,-1"/>
  </object>
  <object id="18" x="19" y="-58">
   <polygon points="0,0 10,0 10,-1 -1,-1 -1,0 1,0"/>
  </object>
  <object id="19" x="42" y="-67">
   <polygon points="0,0 7,0 8,-1 8,-8 12,-8 13,-9 13,-21 13,-24 10,-28 9,-29 9,-34 8,-34 8,-21 10,-16 9,-12 5,-11 5,-7 4,-5 2,-3 0,-2"/>
  </object>
  <object id="20" x="55" y="-76">
   <polygon points="0,0 21,0 21,7 22,8 24,8 25,7 25,0 28,0 29,-1 30,-1 30,-3 29,-4 0,-4"/>
  </object>
  <object id="21" x="66" y="-76">
   <polygon points="0,0 0,1 2,2 3,2 4,1 4,0"/>
  </object>
  <object id="23" x="-118" y="9">
   <polygon points="0,0 14,0 15,2 15,17 16,17 17,18 17,21 15,23 15,31 14,32 12,32 12,30 11,30 11,31 10,31 9,29 2,29 2,32 0,33 -1,32 -1,1"/>
  </object>
  <object id="26" x="-108" y="-21">
   <polygon points="0,0 20,0 20,-20 0,-20"/>
  </object>
  <object id="27" x="-108" y="-30">
   <polygon points="0,0 -8,0 -9,-2 -9,-7 0,-7"/>
  </object>
  <object id="28" x="-87" y="-40">
   <polygon points="0,0 -1,0 -1,-1 -4,-1 -4,-5 2,-7 2,-3 2,-1"/>
  </object>
  <object id="30" x="-42" y="-32">
   <polygon points="0,0 0,-2 0,-3 5,-9 10,-11 15,-12 24,-11 30,-9 34,-5 35,3 30,10 24,13 16,14 11,13 6,10 2,6 0,3"/>
  </object>
  <object id="33" x="-37" y="-90">
   <polygon points="0,0 2,3 5,3 4,4 4,8 7,10 10,11 14,14 17,17 19,17 23,15 23,14 21,12 24,10 25,11 26,13 27,13 28,12 29,11 30,10 30,-6 26,-10 10,-10 13,-9 13,-8 11,-7 9,-8 6,-7 7,-5 9,-3 8,-2 6,-3 5,-4 3,-4 1,-3 0,-1"/>
  </object>
  <object id="34" x="-39" y="-89">
   <polygon points="0,0 -2,0 -4,-2 -1,-4 0,-6 1,-4 2,-4"/>
  </object>
  <object id="35" x="-42" y="-82">
   <polygon points="0,0 3,-3 5,-3 7,-1 7,1 5,3 2,3 0,1"/>
  </object>
  <object id="36" x="-35" y="-74">
   <polygon points="0,0 0,-1 3,-4 6,-4 9,-1 9,0 6,3 3,3 2,3 0,1"/>
  </object>
  <object id="37" x="-15" y="-72">
   <polygon points="0,0 0,4 2,6 6,6 10,2 10,0 6,-4 4,-4"/>
  </object>
  <object id="38" x="-54" y="45">
   <polygon points="0,0 0,-12 1,-12 1,0"/>
  </object>
  <object id="39" x="-53" y="42">
   <polygon points="0,0 60,0 60,3 0,3"/>
  </object>
  <object id="42" x="-53" y="37">
   <polygon points="0,0 58,0 58,5 0,5"/>
  </object>
  <object id="43" x="37" y="22">
   <polygon points="0,0 0,2 1,3 2,3 3,2 3,0 4,0 4,2 5,3 6,3 7,2 7,-2 0,-2"/>
  </object>
  <object id="44" x="72" y="35">
   <polygon points="0,0 0,8 0,9 1,10 6,10 8,9 8,5 40,5 40,8 41,10 46,10 47,9 48,8 48,0 41,0 40,2 8,2 7,1 9,1 41,1 42,0 41,-1 6,-1 1,-2 1,0"/>
  </object>
  <object id="45" x="125" y="31">
   <polygon points="0,0 0,5 1,7 6,7 7,6 7,-1 4,-4 3,-4"/>
  </object>
  <object id="46" x="133" y="26">
   <polygon points="0,0 0,9 2,10 2,12 1,12 1,17 3,18 6,18 8,16 11,16 11,18 13,19 16,19 17,17 22,17 22,18 31,19 38,18 38,4 35,1 36,0 36,-7 34,-9 33,-9 30,-6 30,-5 30,-4 29,-4 29,-5 28,-5 28,-4 27,-4 27,-10 24,-13 23,-13 19,-9 19,-6 14,-3 13,-4 10,-7 9,-7 6,-4 6,-1 5,-1 5,-2 4,-3 3,-3"/>
  </object>
  <object id="47" x="136" y="-21">
   <polygon points="0,0 19,0 20,0 20,-21 0,-21"/>
  </object>
  <object id="48" x="156" y="-37">
   <polygon points="0,0 9,-1 10,-1 8,3 6,6 0,7"/>
  </object>
  <object id="49" x="151" y="-64">
   <polygon points="0,0 0,8 1,9 3,8 4,7 15,7 16,9 17,9 18,7 18,-2 0,-2"/>
  </object>
  <object id="50" x="169" y="-66">
   <polygon points="0,0 2,0 2,-1 0,-2"/>
  </object>
  <object id="51" x="152" y="-66">
   <polygon points="0,0 -18,0 -17,0 -17,-1 0,-1"/>
  </object>
  <object id="52" x="117" y="-66">
   <polygon points="0,0 -7,0 -10,-3 -10,-5 -10,-32 -8,-32 -7,-4 -4,-2 18,-2 18,0"/>
  </object>
  <object id="53" x="103" y="-40">
   <polygon points="0,0 -1,1 -2,0 -2,-2 0,-4 1,-6 -2,-6 -3,-7 21,-8 19,-6 18,-6 19,-2 20,-2 20,0 19,1 18,-1 15,-5 12,-3 8,-2 6,-3 4,-5 2,-4"/>
  </object>
  <object id="54" x="90" y="-37">
   <polygon points="1,-8 1,-6 2,-5 3,-5 4,-6 4,-8 5,-8 5,-6 6,-5 7,-5 8,-6 8,-10 1,-10"/>
  </object>
  <object id="56" x="64" y="-35">
   <polygon points="0,0 1,-1 15,-1 16,0 16,12 17,12 17,14 18,14 19,15 19,17 18,18 17,18 17,20 16,20 16,23 17,23 17,24 16,24 16,25 17,25 17,26 16,26 16,29 17,29 17,27 18,26 19,26 20,27 20,30 19,31 18,32 16,32 16,38 16,39 15,40 14,40 14,39 13,39 13,36 3,36 3,39 2,40 1,40 0,39 0,31 0,32 -2,32 -2,31 -3,31 -3,30 -2,30 -2,29 0,29 0,27 -1,27 -1,26 0,26 0,23 -1,23 -1,22 0,22 0,18 -1,18 -1,17 -2,17 -2,15 -1,15 -1,14 0,14"/>
  </object>
  <object id="58" x="16" y="35">
   <polygon points="0,0 48,0 48,4 46,4 44,9 44,10 40,10 40,5 38,5 34,10 28,5 19,5 19,7 16,9 15,8 15,5 7,5 7,10 3,10 3,5 2,5 0,4"/>
  </object>
  <object id="59" x="17" y="23">
   <polygon points="0,0 4,0 45,-1 47,1 47,5 -1,4 -1,1"/>
  </object>
  <object id="60" x="20" y="27">
   <polygon points="0,0 0,7 0,8 -4,8 -4,0"/>
  </object>
  <object id="61" x="59" y="28">
   <polygon points="0,0 0,7 5,7 5,0"/>
  </object>
  <object id="62" x="-98" y="49">
   <polygon points="0,0 0,1 35,1 35,0"/>
  </object>
  <object id="65" x="37" y="20">
   <polygon points="0,0 -1,-2 -1,-5 1,-6 2,-7 5,-7 7,-5 8,-3 7,0"/>
  </object>
  <object id="66" x="73" y="33">
   <polygon points="0,0 0,-7 1,-9 3,-9 4,-9 6,-8 6,-6 9,-5 11,-3 12,-4 13,-5 18,-5 22,-6 23,-4 25,-4 26,-5 29,-5 32,-5 34,-4 36,-3 39,-4 40,-5 41,-8 43,-9 45,-8 46,-6 46,2"/>
  </object>
  <object id="67" x="135" y="-21">
   <polygon points="0,0 0,-2 -3,-4 -5,-3 -5,0 -4,5 -6,7 -7,10 -6,15 -3,17 0,16 3,16 4,18 6,18 8,16 14,16 16,18 17,17 19,16 23,18 26,17 28,8 27,-3 22,-4 21,-1 1,0"/>
  </object>
  <object id="68" x="5" y="37">
   <polygon points="0,0 1,0 2,0 2,5 0,5"/>
  </object>
  <object id="69" x="-36" y="-41">
   <polygon points="0,0 -3,-5 -5,-12 -4,-13 -3,-13 3,-3 4,-2"/>
  </object>
  <object id="70" x="-38" y="-25">
   <polygon points="0,0 -4,2 -3,3 1,2 2,2"/>
  </object>
 </objectgroup>
 <objectgroup id="20" name="Trigger">
  <object id="63" name="Trigger" x="-98" y="46">
   <polygon points="0,0 35,0 35,3 0,3"/>
  </object>
 </objectgroup>
</map>
