<?xml version="1.0" encoding="UTF-8"?>
<map version="1.10" tiledversion="1.12.1" orientation="orthogonal" renderorder="right-down" width="16" height="24" tilewidth="16" tileheight="16" infinite="1" nextlayerid="21" nextobjectid="1">
 <tileset firstgid="1" name="x500" tilewidth="16" tileheight="16" tilecount="0" columns="23">
  <image source="../Art/Guild/x500.png" width="368" height="256"/>
 </tileset>
 <tileset firstgid="1" name="Walls_interior" tilewidth="16" tileheight="16" tilecount="192" columns="24">
  <image source="../../Art/Guild/Walls_interior.png" width="384" height="128"/>
 </tileset>
 <tileset firstgid="193" name="Interior_objects" tilewidth="16" tileheight="16" tilecount="576" columns="24">
  <image source="../../Art/Guild/Interior_objects.png" width="384" height="384"/>
 </tileset>
 <tileset firstgid="769" name="Fighter_sword1_without_shadow" tilewidth="16" tileheight="16" tilecount="384" columns="24">
  <image source="../../Art/Guild/Fighter_sword_without_shadow.png" width="384" height="256"/>
  <tile id="24">
   <animation>
    <frame tileid="24" duration="150"/>
    <frame tileid="24" duration="150"/>
    <frame tileid="24" duration="150"/>
    <frame tileid="24" duration="150"/>
    <frame tileid="24" duration="150"/>
    <frame tileid="24" duration="150"/>
    <frame tileid="24" duration="150"/>
    <frame tileid="28" duration="150"/>
    <frame tileid="32" duration="150"/>
    <frame tileid="36" duration="150"/>
    <frame tileid="40" duration="150"/>
    <frame tileid="44" duration="150"/>
   </animation>
  </tile>
  <tile id="25">
   <animation>
    <frame tileid="25" duration="150"/>
    <frame tileid="25" duration="150"/>
    <frame tileid="25" duration="150"/>
    <frame tileid="25" duration="150"/>
    <frame tileid="25" duration="150"/>
    <frame tileid="25" duration="150"/>
    <frame tileid="25" duration="150"/>
    <frame tileid="29" duration="150"/>
    <frame tileid="33" duration="150"/>
    <frame tileid="37" duration="150"/>
    <frame tileid="41" duration="150"/>
    <frame tileid="45" duration="150"/>
   </animation>
  </tile>
  <tile id="26">
   <animation>
    <frame tileid="26" duration="150"/>
    <frame tileid="26" duration="150"/>
    <frame tileid="26" duration="150"/>
    <frame tileid="26" duration="150"/>
    <frame tileid="26" duration="150"/>
    <frame tileid="26" duration="150"/>
    <frame tileid="26" duration="150"/>
    <frame tileid="30" duration="150"/>
    <frame tileid="34" duration="150"/>
    <frame tileid="38" duration="150"/>
    <frame tileid="42" duration="150"/>
    <frame tileid="46" duration="150"/>
   </animation>
  </tile>
  <tile id="48">
   <animation>
    <frame tileid="48" duration="150"/>
    <frame tileid="48" duration="150"/>
    <frame tileid="48" duration="150"/>
    <frame tileid="48" duration="150"/>
    <frame tileid="48" duration="150"/>
    <frame tileid="48" duration="150"/>
    <frame tileid="48" duration="150"/>
    <frame tileid="52" duration="150"/>
    <frame tileid="56" duration="150"/>
    <frame tileid="60" duration="150"/>
    <frame tileid="64" duration="150"/>
    <frame tileid="68" duration="150"/>
   </animation>
  </tile>
  <tile id="49">
   <animation>
    <frame tileid="49" duration="150"/>
    <frame tileid="49" duration="150"/>
    <frame tileid="49" duration="150"/>
    <frame tileid="49" duration="150"/>
    <frame tileid="49" duration="150"/>
    <frame tileid="49" duration="150"/>
    <frame tileid="49" duration="150"/>
    <frame tileid="53" duration="150"/>
    <frame tileid="57" duration="150"/>
    <frame tileid="61" duration="150"/>
    <frame tileid="65" duration="150"/>
    <frame tileid="69" duration="150"/>
   </animation>
  </tile>
  <tile id="50">
   <animation>
    <frame tileid="50" duration="150"/>
    <frame tileid="50" duration="150"/>
    <frame tileid="50" duration="150"/>
    <frame tileid="50" duration="150"/>
    <frame tileid="50" duration="150"/>
    <frame tileid="50" duration="150"/>
    <frame tileid="50" duration="150"/>
    <frame tileid="54" duration="150"/>
    <frame tileid="58" duration="150"/>
    <frame tileid="62" duration="150"/>
    <frame tileid="66" duration="150"/>
    <frame tileid="70" duration="150"/>
   </animation>
  </tile>
  <tile id="97">
   <animation>
    <frame tileid="97" duration="150"/>
    <frame tileid="97" duration="150"/>
    <frame tileid="97" duration="150"/>
    <frame tileid="97" duration="150"/>
    <frame tileid="97" duration="150"/>
    <frame tileid="97" duration="150"/>
    <frame tileid="97" duration="150"/>
    <frame tileid="101" duration="150"/>
    <frame tileid="105" duration="150"/>
    <frame tileid="109" duration="150"/>
    <frame tileid="113" duration="150"/>
    <frame tileid="117" duration="150"/>
   </animation>
  </tile>
  <tile id="98">
   <animation>
    <frame tileid="98" duration="150"/>
    <frame tileid="98" duration="150"/>
    <frame tileid="98" duration="150"/>
    <frame tileid="98" duration="150"/>
    <frame tileid="98" duration="150"/>
    <frame tileid="98" duration="150"/>
    <frame tileid="98" duration="150"/>
    <frame tileid="102" duration="150"/>
    <frame tileid="106" duration="150"/>
    <frame tileid="110" duration="150"/>
    <frame tileid="114" duration="150"/>
    <frame tileid="118" duration="150"/>
   </animation>
  </tile>
  <tile id="121">
   <animation>
    <frame tileid="121" duration="150"/>
    <frame tileid="121" duration="150"/>
    <frame tileid="121" duration="150"/>
    <frame tileid="121" duration="150"/>
    <frame tileid="121" duration="150"/>
    <frame tileid="121" duration="150"/>
    <frame tileid="121" duration="150"/>
    <frame tileid="125" duration="150"/>
    <frame tileid="129" duration="150"/>
    <frame tileid="133" duration="150"/>
    <frame tileid="137" duration="150"/>
    <frame tileid="141" duration="150"/>
   </animation>
  </tile>
  <tile id="122">
   <animation>
    <frame tileid="122" duration="150"/>
    <frame tileid="122" duration="150"/>
    <frame tileid="122" duration="150"/>
    <frame tileid="122" duration="150"/>
    <frame tileid="122" duration="150"/>
    <frame tileid="122" duration="150"/>
    <frame tileid="122" duration="150"/>
    <frame tileid="126" duration="150"/>
    <frame tileid="130" duration="150"/>
    <frame tileid="134" duration="150"/>
    <frame tileid="138" duration="150"/>
    <frame tileid="142" duration="150"/>
   </animation>
  </tile>
  <tile id="145">
   <animation>
    <frame tileid="145" duration="150"/>
    <frame tileid="145" duration="150"/>
    <frame tileid="145" duration="150"/>
    <frame tileid="145" duration="150"/>
    <frame tileid="145" duration="150"/>
    <frame tileid="145" duration="150"/>
    <frame tileid="145" duration="150"/>
    <frame tileid="149" duration="150"/>
    <frame tileid="153" duration="150"/>
    <frame tileid="157" duration="150"/>
    <frame tileid="161" duration="150"/>
    <frame tileid="165" duration="150"/>
   </animation>
  </tile>
  <tile id="146">
   <animation>
    <frame tileid="146" duration="150"/>
    <frame tileid="146" duration="150"/>
    <frame tileid="146" duration="150"/>
    <frame tileid="146" duration="150"/>
    <frame tileid="146" duration="150"/>
    <frame tileid="146" duration="150"/>
    <frame tileid="146" duration="150"/>
    <frame tileid="150" duration="150"/>
    <frame tileid="154" duration="150"/>
    <frame tileid="158" duration="150"/>
    <frame tileid="162" duration="150"/>
    <frame tileid="166" duration="150"/>
   </animation>
  </tile>
  <tile id="193">
   <animation>
    <frame tileid="193" duration="150"/>
    <frame tileid="193" duration="150"/>
    <frame tileid="193" duration="150"/>
    <frame tileid="193" duration="150"/>
    <frame tileid="193" duration="150"/>
    <frame tileid="193" duration="150"/>
    <frame tileid="193" duration="150"/>
    <frame tileid="197" duration="150"/>
    <frame tileid="201" duration="150"/>
    <frame tileid="205" duration="150"/>
    <frame tileid="209" duration="150"/>
    <frame tileid="213" duration="150"/>
   </animation>
  </tile>
  <tile id="194">
   <animation>
    <frame tileid="194" duration="150"/>
    <frame tileid="194" duration="150"/>
    <frame tileid="194" duration="150"/>
    <frame tileid="194" duration="150"/>
    <frame tileid="194" duration="150"/>
    <frame tileid="194" duration="150"/>
    <frame tileid="194" duration="150"/>
    <frame tileid="198" duration="150"/>
    <frame tileid="202" duration="150"/>
    <frame tileid="206" duration="150"/>
    <frame tileid="210" duration="150"/>
    <frame tileid="214" duration="150"/>
   </animation>
  </tile>
  <tile id="217">
   <animation>
    <frame tileid="217" duration="150"/>
    <frame tileid="217" duration="150"/>
    <frame tileid="217" duration="150"/>
    <frame tileid="217" duration="150"/>
    <frame tileid="217" duration="150"/>
    <frame tileid="217" duration="150"/>
    <frame tileid="217" duration="150"/>
    <frame tileid="221" duration="150"/>
    <frame tileid="225" duration="150"/>
    <frame tileid="229" duration="150"/>
    <frame tileid="233" duration="150"/>
    <frame tileid="237" duration="150"/>
   </animation>
  </tile>
  <tile id="218">
   <animation>
    <frame tileid="218" duration="150"/>
    <frame tileid="218" duration="150"/>
    <frame tileid="218" duration="150"/>
    <frame tileid="218" duration="150"/>
    <frame tileid="218" duration="150"/>
    <frame tileid="218" duration="150"/>
    <frame tileid="218" duration="150"/>
    <frame tileid="222" duration="150"/>
    <frame tileid="226" duration="150"/>
    <frame tileid="230" duration="150"/>
    <frame tileid="234" duration="150"/>
    <frame tileid="238" duration="150"/>
   </animation>
  </tile>
  <tile id="241">
   <animation>
    <frame tileid="241" duration="150"/>
    <frame tileid="241" duration="150"/>
    <frame tileid="241" duration="150"/>
    <frame tileid="241" duration="150"/>
    <frame tileid="241" duration="150"/>
    <frame tileid="241" duration="150"/>
    <frame tileid="241" duration="150"/>
    <frame tileid="245" duration="150"/>
    <frame tileid="249" duration="150"/>
    <frame tileid="253" duration="150"/>
    <frame tileid="257" duration="150"/>
    <frame tileid="261" duration="150"/>
   </animation>
  </tile>
  <tile id="242">
   <animation>
    <frame tileid="242" duration="150"/>
    <frame tileid="242" duration="150"/>
    <frame tileid="242" duration="150"/>
    <frame tileid="242" duration="150"/>
    <frame tileid="242" duration="150"/>
    <frame tileid="242" duration="150"/>
    <frame tileid="242" duration="150"/>
    <frame tileid="246" duration="150"/>
    <frame tileid="250" duration="150"/>
    <frame tileid="254" duration="150"/>
    <frame tileid="258" duration="150"/>
    <frame tileid="262" duration="150"/>
   </animation>
  </tile>
  <tile id="312">
   <animation>
    <frame tileid="312" duration="150"/>
    <frame tileid="312" duration="150"/>
    <frame tileid="312" duration="150"/>
    <frame tileid="312" duration="150"/>
    <frame tileid="312" duration="150"/>
    <frame tileid="312" duration="150"/>
    <frame tileid="312" duration="150"/>
    <frame tileid="316" duration="150"/>
    <frame tileid="320" duration="150"/>
    <frame tileid="324" duration="150"/>
    <frame tileid="328" duration="150"/>
    <frame tileid="332" duration="150"/>
   </animation>
  </tile>
  <tile id="313">
   <animation>
    <frame tileid="313" duration="150"/>
    <frame tileid="313" duration="150"/>
    <frame tileid="313" duration="150"/>
    <frame tileid="313" duration="150"/>
    <frame tileid="313" duration="150"/>
    <frame tileid="313" duration="150"/>
    <frame tileid="313" duration="150"/>
    <frame tileid="317" duration="150"/>
    <frame tileid="321" duration="150"/>
    <frame tileid="325" duration="150"/>
    <frame tileid="329" duration="150"/>
    <frame tileid="333" duration="150"/>
   </animation>
  </tile>
  <tile id="314">
   <animation>
    <frame tileid="314" duration="150"/>
    <frame tileid="314" duration="150"/>
    <frame tileid="314" duration="150"/>
    <frame tileid="314" duration="150"/>
    <frame tileid="314" duration="150"/>
    <frame tileid="314" duration="150"/>
    <frame tileid="314" duration="150"/>
    <frame tileid="318" duration="150"/>
    <frame tileid="322" duration="150"/>
    <frame tileid="326" duration="150"/>
    <frame tileid="330" duration="150"/>
    <frame tileid="334" duration="150"/>
   </animation>
  </tile>
  <tile id="315">
   <animation>
    <frame tileid="315" duration="150"/>
    <frame tileid="315" duration="150"/>
    <frame tileid="315" duration="150"/>
    <frame tileid="315" duration="150"/>
    <frame tileid="315" duration="150"/>
    <frame tileid="315" duration="150"/>
    <frame tileid="315" duration="150"/>
    <frame tileid="319" duration="150"/>
    <frame tileid="323" duration="150"/>
    <frame tileid="327" duration="150"/>
    <frame tileid="331" duration="150"/>
    <frame tileid="335" duration="150"/>
   </animation>
  </tile>
  <tile id="336">
   <animation>
    <frame tileid="336" duration="150"/>
    <frame tileid="336" duration="150"/>
    <frame tileid="336" duration="150"/>
    <frame tileid="336" duration="150"/>
    <frame tileid="336" duration="150"/>
    <frame tileid="336" duration="150"/>
    <frame tileid="336" duration="150"/>
    <frame tileid="340" duration="150"/>
    <frame tileid="344" duration="150"/>
    <frame tileid="348" duration="150"/>
    <frame tileid="352" duration="150"/>
    <frame tileid="356" duration="150"/>
   </animation>
  </tile>
  <tile id="337">
   <animation>
    <frame tileid="337" duration="150"/>
    <frame tileid="337" duration="150"/>
    <frame tileid="337" duration="150"/>
    <frame tileid="337" duration="150"/>
    <frame tileid="337" duration="150"/>
    <frame tileid="337" duration="150"/>
    <frame tileid="337" duration="150"/>
    <frame tileid="341" duration="150"/>
    <frame tileid="345" duration="150"/>
    <frame tileid="349" duration="150"/>
    <frame tileid="353" duration="150"/>
    <frame tileid="357" duration="150"/>
   </animation>
  </tile>
  <tile id="338">
   <animation>
    <frame tileid="338" duration="150"/>
    <frame tileid="338" duration="150"/>
    <frame tileid="338" duration="150"/>
    <frame tileid="338" duration="150"/>
    <frame tileid="338" duration="150"/>
    <frame tileid="338" duration="150"/>
    <frame tileid="338" duration="150"/>
    <frame tileid="342" duration="150"/>
    <frame tileid="346" duration="150"/>
    <frame tileid="350" duration="150"/>
    <frame tileid="354" duration="150"/>
    <frame tileid="358" duration="150"/>
   </animation>
  </tile>
  <tile id="339">
   <animation>
    <frame tileid="339" duration="150"/>
    <frame tileid="339" duration="150"/>
    <frame tileid="339" duration="150"/>
    <frame tileid="339" duration="150"/>
    <frame tileid="339" duration="150"/>
    <frame tileid="339" duration="150"/>
    <frame tileid="339" duration="150"/>
    <frame tileid="343" duration="150"/>
    <frame tileid="347" duration="150"/>
    <frame tileid="351" duration="150"/>
    <frame tileid="355" duration="150"/>
    <frame tileid="359" duration="150"/>
   </animation>
  </tile>
 </tileset>
 <tileset firstgid="1153" name="Attacked_Manequin2_with_shadow" tilewidth="16" tileheight="16" tilecount="64" columns="8">
  <image source="../../Art/Guild/Attacked_Manequin2_with_shadow.png" width="128" height="128"/>
  <tile id="0">
   <animation>
    <frame tileid="0" duration="150"/>
    <frame tileid="0" duration="150"/>
    <frame tileid="0" duration="150"/>
    <frame tileid="0" duration="150"/>
    <frame tileid="0" duration="150"/>
    <frame tileid="0" duration="150"/>
    <frame tileid="0" duration="150"/>
    <frame tileid="0" duration="150"/>
    <frame tileid="2" duration="150"/>
    <frame tileid="4" duration="150"/>
    <frame tileid="6" duration="150"/>
    <frame tileid="0" duration="150"/>
   </animation>
  </tile>
  <tile id="1">
   <animation>
    <frame tileid="1" duration="150"/>
    <frame tileid="1" duration="150"/>
    <frame tileid="1" duration="150"/>
    <frame tileid="1" duration="150"/>
    <frame tileid="1" duration="150"/>
    <frame tileid="1" duration="150"/>
    <frame tileid="1" duration="150"/>
    <frame tileid="1" duration="150"/>
    <frame tileid="3" duration="150"/>
    <frame tileid="5" duration="150"/>
    <frame tileid="7" duration="150"/>
    <frame tileid="1" duration="150"/>
   </animation>
  </tile>
  <tile id="8">
   <animation>
    <frame tileid="8" duration="150"/>
    <frame tileid="8" duration="150"/>
    <frame tileid="8" duration="150"/>
    <frame tileid="8" duration="150"/>
    <frame tileid="8" duration="150"/>
    <frame tileid="8" duration="150"/>
    <frame tileid="8" duration="150"/>
    <frame tileid="8" duration="150"/>
    <frame tileid="10" duration="150"/>
    <frame tileid="12" duration="150"/>
    <frame tileid="14" duration="150"/>
    <frame tileid="8" duration="150"/>
   </animation>
  </tile>
  <tile id="9">
   <animation>
    <frame tileid="9" duration="150"/>
    <frame tileid="9" duration="150"/>
    <frame tileid="9" duration="150"/>
    <frame tileid="9" duration="150"/>
    <frame tileid="9" duration="150"/>
    <frame tileid="9" duration="150"/>
    <frame tileid="9" duration="150"/>
    <frame tileid="9" duration="150"/>
    <frame tileid="11" duration="150"/>
    <frame tileid="13" duration="150"/>
    <frame tileid="15" duration="150"/>
    <frame tileid="9" duration="150"/>
   </animation>
  </tile>
  <tile id="16">
   <animation>
    <frame tileid="16" duration="150"/>
    <frame tileid="16" duration="150"/>
    <frame tileid="16" duration="150"/>
    <frame tileid="16" duration="150"/>
    <frame tileid="16" duration="150"/>
    <frame tileid="16" duration="150"/>
    <frame tileid="16" duration="150"/>
    <frame tileid="16" duration="150"/>
    <frame tileid="18" duration="150"/>
    <frame tileid="20" duration="150"/>
    <frame tileid="22" duration="150"/>
    <frame tileid="16" duration="150"/>
   </animation>
  </tile>
  <tile id="17">
   <animation>
    <frame tileid="17" duration="150"/>
    <frame tileid="17" duration="150"/>
    <frame tileid="17" duration="150"/>
    <frame tileid="17" duration="150"/>
    <frame tileid="17" duration="150"/>
    <frame tileid="17" duration="150"/>
    <frame tileid="17" duration="150"/>
    <frame tileid="17" duration="150"/>
    <frame tileid="19" duration="150"/>
    <frame tileid="21" duration="150"/>
    <frame tileid="23" duration="150"/>
    <frame tileid="17" duration="150"/>
   </animation>
  </tile>
  <tile id="24">
   <animation>
    <frame tileid="24" duration="150"/>
    <frame tileid="24" duration="150"/>
    <frame tileid="24" duration="150"/>
    <frame tileid="24" duration="150"/>
    <frame tileid="24" duration="150"/>
    <frame tileid="24" duration="150"/>
    <frame tileid="24" duration="150"/>
    <frame tileid="24" duration="150"/>
    <frame tileid="26" duration="150"/>
    <frame tileid="28" duration="150"/>
    <frame tileid="30" duration="150"/>
    <frame tileid="24" duration="150"/>
   </animation>
  </tile>
  <tile id="25">
   <animation>
    <frame tileid="25" duration="150"/>
    <frame tileid="25" duration="150"/>
    <frame tileid="25" duration="150"/>
    <frame tileid="25" duration="150"/>
    <frame tileid="25" duration="150"/>
    <frame tileid="25" duration="150"/>
    <frame tileid="25" duration="150"/>
    <frame tileid="25" duration="150"/>
    <frame tileid="27" duration="150"/>
    <frame tileid="29" duration="150"/>
    <frame tileid="31" duration="150"/>
    <frame tileid="25" duration="150"/>
   </animation>
  </tile>
  <tile id="32">
   <animation>
    <frame tileid="32" duration="150"/>
    <frame tileid="32" duration="150"/>
    <frame tileid="32" duration="150"/>
    <frame tileid="32" duration="150"/>
    <frame tileid="32" duration="150"/>
    <frame tileid="32" duration="150"/>
    <frame tileid="32" duration="150"/>
    <frame tileid="32" duration="150"/>
    <frame tileid="34" duration="150"/>
    <frame tileid="36" duration="150"/>
    <frame tileid="38" duration="150"/>
    <frame tileid="32" duration="150"/>
   </animation>
  </tile>
  <tile id="33">
   <animation>
    <frame tileid="33" duration="150"/>
    <frame tileid="33" duration="150"/>
    <frame tileid="33" duration="150"/>
    <frame tileid="33" duration="150"/>
    <frame tileid="33" duration="150"/>
    <frame tileid="33" duration="150"/>
    <frame tileid="33" duration="150"/>
    <frame tileid="33" duration="150"/>
    <frame tileid="35" duration="150"/>
    <frame tileid="37" duration="150"/>
    <frame tileid="39" duration="150"/>
    <frame tileid="33" duration="150"/>
   </animation>
  </tile>
  <tile id="40">
   <animation>
    <frame tileid="40" duration="150"/>
    <frame tileid="40" duration="150"/>
    <frame tileid="40" duration="150"/>
    <frame tileid="40" duration="150"/>
    <frame tileid="40" duration="150"/>
    <frame tileid="40" duration="150"/>
    <frame tileid="40" duration="150"/>
    <frame tileid="40" duration="150"/>
    <frame tileid="42" duration="150"/>
    <frame tileid="44" duration="150"/>
    <frame tileid="46" duration="150"/>
    <frame tileid="40" duration="150"/>
   </animation>
  </tile>
  <tile id="41">
   <animation>
    <frame tileid="41" duration="150"/>
    <frame tileid="41" duration="150"/>
    <frame tileid="41" duration="150"/>
    <frame tileid="41" duration="150"/>
    <frame tileid="41" duration="150"/>
    <frame tileid="41" duration="150"/>
    <frame tileid="41" duration="150"/>
    <frame tileid="41" duration="150"/>
    <frame tileid="43" duration="150"/>
    <frame tileid="45" duration="150"/>
    <frame tileid="47" duration="150"/>
    <frame tileid="41" duration="150"/>
   </animation>
  </tile>
  <tile id="48">
   <animation>
    <frame tileid="48" duration="150"/>
    <frame tileid="48" duration="150"/>
    <frame tileid="48" duration="150"/>
    <frame tileid="48" duration="150"/>
    <frame tileid="48" duration="150"/>
    <frame tileid="48" duration="150"/>
    <frame tileid="48" duration="150"/>
    <frame tileid="48" duration="150"/>
    <frame tileid="50" duration="150"/>
    <frame tileid="52" duration="150"/>
    <frame tileid="54" duration="150"/>
    <frame tileid="48" duration="150"/>
   </animation>
  </tile>
  <tile id="49">
   <animation>
    <frame tileid="49" duration="150"/>
    <frame tileid="49" duration="150"/>
    <frame tileid="49" duration="150"/>
    <frame tileid="49" duration="150"/>
    <frame tileid="49" duration="150"/>
    <frame tileid="49" duration="150"/>
    <frame tileid="49" duration="150"/>
    <frame tileid="49" duration="150"/>
    <frame tileid="51" duration="150"/>
    <frame tileid="53" duration="150"/>
    <frame tileid="55" duration="150"/>
    <frame tileid="49" duration="150"/>
   </animation>
  </tile>
  <tile id="56">
   <animation>
    <frame tileid="56" duration="150"/>
    <frame tileid="56" duration="150"/>
    <frame tileid="56" duration="150"/>
    <frame tileid="56" duration="150"/>
    <frame tileid="56" duration="150"/>
    <frame tileid="56" duration="150"/>
    <frame tileid="56" duration="150"/>
    <frame tileid="56" duration="150"/>
    <frame tileid="58" duration="150"/>
    <frame tileid="60" duration="150"/>
    <frame tileid="62" duration="150"/>
    <frame tileid="56" duration="150"/>
   </animation>
  </tile>
  <tile id="57">
   <animation>
    <frame tileid="57" duration="150"/>
    <frame tileid="57" duration="150"/>
    <frame tileid="57" duration="150"/>
    <frame tileid="57" duration="150"/>
    <frame tileid="57" duration="150"/>
    <frame tileid="57" duration="150"/>
    <frame tileid="57" duration="150"/>
    <frame tileid="57" duration="150"/>
    <frame tileid="59" duration="150"/>
    <frame tileid="61" duration="150"/>
    <frame tileid="63" duration="150"/>
    <frame tileid="57" duration="150"/>
   </animation>
  </tile>
 </tileset>
 <tileset firstgid="1217" name="Mage3" tilewidth="16" tileheight="16" tilecount="364" columns="28">
  <image source="../../Art/Guild/Mage4.png" width="448" height="208"/>
  <tile id="0">
   <animation>
    <frame tileid="0" duration="150"/>
    <frame tileid="3" duration="150"/>
    <frame tileid="6" duration="150"/>
    <frame tileid="9" duration="150"/>
    <frame tileid="12" duration="150"/>
    <frame tileid="15" duration="150"/>
    <frame tileid="18" duration="150"/>
    <frame tileid="0" duration="150"/>
    <frame tileid="0" duration="150"/>
    <frame tileid="0" duration="150"/>
    <frame tileid="0" duration="150"/>
    <frame tileid="0" duration="150"/>
    <frame tileid="0" duration="150"/>
    <frame tileid="0" duration="150"/>
    <frame tileid="0" duration="150"/>
    <frame tileid="0" duration="150"/>
    <frame tileid="0" duration="150"/>
    <frame tileid="0" duration="150"/>
   </animation>
  </tile>
  <tile id="1">
   <animation>
    <frame tileid="1" duration="150"/>
    <frame tileid="4" duration="150"/>
    <frame tileid="7" duration="150"/>
    <frame tileid="10" duration="150"/>
    <frame tileid="13" duration="150"/>
    <frame tileid="16" duration="150"/>
    <frame tileid="19" duration="150"/>
    <frame tileid="1" duration="150"/>
    <frame tileid="1" duration="150"/>
    <frame tileid="1" duration="150"/>
    <frame tileid="1" duration="150"/>
    <frame tileid="1" duration="150"/>
    <frame tileid="1" duration="150"/>
    <frame tileid="1" duration="150"/>
    <frame tileid="1" duration="150"/>
    <frame tileid="1" duration="150"/>
    <frame tileid="1" duration="150"/>
    <frame tileid="1" duration="150"/>
   </animation>
  </tile>
  <tile id="2">
   <animation>
    <frame tileid="2" duration="150"/>
    <frame tileid="5" duration="150"/>
    <frame tileid="8" duration="150"/>
    <frame tileid="11" duration="150"/>
    <frame tileid="14" duration="150"/>
    <frame tileid="17" duration="150"/>
    <frame tileid="20" duration="150"/>
    <frame tileid="2" duration="150"/>
    <frame tileid="2" duration="150"/>
    <frame tileid="2" duration="150"/>
    <frame tileid="2" duration="150"/>
    <frame tileid="2" duration="150"/>
    <frame tileid="2" duration="150"/>
    <frame tileid="2" duration="150"/>
    <frame tileid="2" duration="150"/>
    <frame tileid="2" duration="150"/>
    <frame tileid="2" duration="150"/>
    <frame tileid="2" duration="150"/>
   </animation>
  </tile>
  <tile id="28">
   <animation>
    <frame tileid="28" duration="150"/>
    <frame tileid="31" duration="150"/>
    <frame tileid="34" duration="150"/>
    <frame tileid="37" duration="150"/>
    <frame tileid="40" duration="150"/>
    <frame tileid="43" duration="150"/>
    <frame tileid="46" duration="150"/>
    <frame tileid="28" duration="150"/>
    <frame tileid="28" duration="150"/>
    <frame tileid="28" duration="150"/>
    <frame tileid="28" duration="150"/>
    <frame tileid="28" duration="150"/>
    <frame tileid="28" duration="150"/>
    <frame tileid="28" duration="150"/>
    <frame tileid="28" duration="150"/>
    <frame tileid="28" duration="150"/>
    <frame tileid="28" duration="150"/>
    <frame tileid="28" duration="150"/>
   </animation>
  </tile>
  <tile id="29">
   <animation>
    <frame tileid="29" duration="150"/>
    <frame tileid="32" duration="150"/>
    <frame tileid="35" duration="150"/>
    <frame tileid="38" duration="150"/>
    <frame tileid="41" duration="150"/>
    <frame tileid="44" duration="150"/>
    <frame tileid="47" duration="150"/>
    <frame tileid="29" duration="150"/>
    <frame tileid="29" duration="150"/>
    <frame tileid="29" duration="150"/>
    <frame tileid="29" duration="150"/>
    <frame tileid="29" duration="150"/>
    <frame tileid="29" duration="150"/>
    <frame tileid="29" duration="150"/>
    <frame tileid="29" duration="150"/>
    <frame tileid="29" duration="150"/>
    <frame tileid="29" duration="150"/>
    <frame tileid="29" duration="150"/>
   </animation>
  </tile>
  <tile id="30">
   <animation>
    <frame tileid="30" duration="150"/>
    <frame tileid="33" duration="150"/>
    <frame tileid="36" duration="150"/>
    <frame tileid="39" duration="150"/>
    <frame tileid="42" duration="150"/>
    <frame tileid="45" duration="150"/>
    <frame tileid="48" duration="150"/>
    <frame tileid="30" duration="150"/>
    <frame tileid="30" duration="150"/>
    <frame tileid="30" duration="150"/>
    <frame tileid="30" duration="150"/>
    <frame tileid="30" duration="150"/>
    <frame tileid="30" duration="150"/>
    <frame tileid="30" duration="150"/>
    <frame tileid="30" duration="150"/>
    <frame tileid="30" duration="150"/>
    <frame tileid="30" duration="150"/>
    <frame tileid="30" duration="150"/>
   </animation>
  </tile>
  <tile id="56">
   <animation>
    <frame tileid="56" duration="150"/>
    <frame tileid="59" duration="150"/>
    <frame tileid="62" duration="150"/>
    <frame tileid="65" duration="150"/>
    <frame tileid="68" duration="150"/>
    <frame tileid="71" duration="150"/>
    <frame tileid="74" duration="150"/>
    <frame tileid="56" duration="150"/>
    <frame tileid="56" duration="150"/>
    <frame tileid="56" duration="150"/>
    <frame tileid="56" duration="150"/>
    <frame tileid="56" duration="150"/>
    <frame tileid="56" duration="150"/>
    <frame tileid="56" duration="150"/>
    <frame tileid="56" duration="150"/>
    <frame tileid="56" duration="150"/>
    <frame tileid="56" duration="150"/>
    <frame tileid="56" duration="150"/>
   </animation>
  </tile>
  <tile id="57">
   <animation>
    <frame tileid="57" duration="150"/>
    <frame tileid="60" duration="150"/>
    <frame tileid="63" duration="150"/>
    <frame tileid="66" duration="150"/>
    <frame tileid="69" duration="150"/>
    <frame tileid="72" duration="150"/>
    <frame tileid="75" duration="150"/>
    <frame tileid="57" duration="150"/>
    <frame tileid="57" duration="150"/>
    <frame tileid="57" duration="150"/>
    <frame tileid="57" duration="150"/>
    <frame tileid="57" duration="150"/>
    <frame tileid="57" duration="150"/>
    <frame tileid="57" duration="150"/>
    <frame tileid="57" duration="150"/>
    <frame tileid="57" duration="150"/>
    <frame tileid="57" duration="150"/>
    <frame tileid="57" duration="150"/>
   </animation>
  </tile>
  <tile id="58">
   <animation>
    <frame tileid="58" duration="150"/>
    <frame tileid="61" duration="150"/>
    <frame tileid="64" duration="150"/>
    <frame tileid="67" duration="150"/>
    <frame tileid="70" duration="150"/>
    <frame tileid="73" duration="150"/>
    <frame tileid="76" duration="150"/>
    <frame tileid="58" duration="150"/>
    <frame tileid="58" duration="150"/>
    <frame tileid="58" duration="150"/>
    <frame tileid="58" duration="150"/>
    <frame tileid="58" duration="150"/>
    <frame tileid="58" duration="150"/>
    <frame tileid="58" duration="150"/>
    <frame tileid="58" duration="150"/>
    <frame tileid="58" duration="150"/>
    <frame tileid="58" duration="150"/>
    <frame tileid="58" duration="150"/>
   </animation>
  </tile>
  <tile id="85">
   <animation>
    <frame tileid="85" duration="150"/>
    <frame tileid="88" duration="150"/>
    <frame tileid="91" duration="150"/>
    <frame tileid="94" duration="150"/>
    <frame tileid="97" duration="150"/>
    <frame tileid="100" duration="150"/>
    <frame tileid="103" duration="150"/>
    <frame tileid="85" duration="150"/>
    <frame tileid="85" duration="150"/>
    <frame tileid="85" duration="150"/>
    <frame tileid="85" duration="150"/>
    <frame tileid="85" duration="150"/>
    <frame tileid="85" duration="150"/>
    <frame tileid="85" duration="150"/>
    <frame tileid="85" duration="150"/>
    <frame tileid="85" duration="150"/>
    <frame tileid="85" duration="150"/>
    <frame tileid="85" duration="150"/>
   </animation>
  </tile>
  <tile id="112">
   <animation>
    <frame tileid="112" duration="150"/>
    <frame tileid="115" duration="150"/>
    <frame tileid="118" duration="150"/>
    <frame tileid="121" duration="150"/>
    <frame tileid="124" duration="150"/>
    <frame tileid="127" duration="150"/>
    <frame tileid="130" duration="150"/>
    <frame tileid="112" duration="150"/>
    <frame tileid="112" duration="150"/>
    <frame tileid="112" duration="150"/>
    <frame tileid="112" duration="150"/>
    <frame tileid="112" duration="150"/>
    <frame tileid="112" duration="150"/>
    <frame tileid="112" duration="150"/>
    <frame tileid="112" duration="150"/>
    <frame tileid="112" duration="150"/>
    <frame tileid="112" duration="150"/>
    <frame tileid="112" duration="150"/>
   </animation>
  </tile>
  <tile id="113">
   <animation>
    <frame tileid="113" duration="150"/>
    <frame tileid="116" duration="150"/>
    <frame tileid="119" duration="150"/>
    <frame tileid="122" duration="150"/>
    <frame tileid="125" duration="150"/>
    <frame tileid="128" duration="150"/>
    <frame tileid="131" duration="150"/>
    <frame tileid="113" duration="150"/>
    <frame tileid="113" duration="150"/>
    <frame tileid="113" duration="150"/>
    <frame tileid="113" duration="150"/>
    <frame tileid="113" duration="150"/>
    <frame tileid="113" duration="150"/>
    <frame tileid="113" duration="150"/>
    <frame tileid="113" duration="150"/>
    <frame tileid="113" duration="150"/>
    <frame tileid="113" duration="150"/>
    <frame tileid="113" duration="150"/>
   </animation>
  </tile>
  <tile id="114">
   <animation>
    <frame tileid="114" duration="150"/>
    <frame tileid="117" duration="150"/>
    <frame tileid="120" duration="150"/>
    <frame tileid="123" duration="150"/>
    <frame tileid="126" duration="150"/>
    <frame tileid="129" duration="150"/>
    <frame tileid="132" duration="150"/>
    <frame tileid="114" duration="150"/>
    <frame tileid="114" duration="150"/>
    <frame tileid="114" duration="150"/>
    <frame tileid="114" duration="150"/>
    <frame tileid="114" duration="150"/>
    <frame tileid="114" duration="150"/>
    <frame tileid="114" duration="150"/>
    <frame tileid="114" duration="150"/>
    <frame tileid="114" duration="150"/>
    <frame tileid="114" duration="150"/>
    <frame tileid="114" duration="150"/>
   </animation>
  </tile>
  <tile id="140">
   <animation>
    <frame tileid="140" duration="150"/>
    <frame tileid="143" duration="150"/>
    <frame tileid="146" duration="150"/>
    <frame tileid="149" duration="150"/>
    <frame tileid="152" duration="150"/>
    <frame tileid="155" duration="150"/>
    <frame tileid="158" duration="150"/>
    <frame tileid="140" duration="150"/>
    <frame tileid="140" duration="150"/>
    <frame tileid="140" duration="150"/>
    <frame tileid="140" duration="150"/>
    <frame tileid="140" duration="150"/>
    <frame tileid="140" duration="150"/>
    <frame tileid="140" duration="150"/>
    <frame tileid="140" duration="150"/>
    <frame tileid="140" duration="150"/>
    <frame tileid="140" duration="150"/>
    <frame tileid="140" duration="150"/>
   </animation>
  </tile>
  <tile id="141">
   <animation>
    <frame tileid="141" duration="150"/>
    <frame tileid="144" duration="150"/>
    <frame tileid="147" duration="150"/>
    <frame tileid="150" duration="150"/>
    <frame tileid="153" duration="150"/>
    <frame tileid="156" duration="150"/>
    <frame tileid="159" duration="150"/>
    <frame tileid="141" duration="150"/>
    <frame tileid="141" duration="150"/>
    <frame tileid="141" duration="150"/>
    <frame tileid="141" duration="150"/>
    <frame tileid="141" duration="150"/>
    <frame tileid="141" duration="150"/>
    <frame tileid="141" duration="150"/>
    <frame tileid="141" duration="150"/>
    <frame tileid="141" duration="150"/>
    <frame tileid="141" duration="150"/>
    <frame tileid="141" duration="150"/>
   </animation>
  </tile>
  <tile id="142">
   <animation>
    <frame tileid="142" duration="150"/>
    <frame tileid="145" duration="150"/>
    <frame tileid="148" duration="150"/>
    <frame tileid="151" duration="150"/>
    <frame tileid="154" duration="150"/>
    <frame tileid="157" duration="150"/>
    <frame tileid="160" duration="150"/>
    <frame tileid="142" duration="150"/>
    <frame tileid="142" duration="150"/>
    <frame tileid="142" duration="150"/>
    <frame tileid="142" duration="150"/>
    <frame tileid="142" duration="150"/>
    <frame tileid="142" duration="150"/>
    <frame tileid="142" duration="150"/>
    <frame tileid="142" duration="150"/>
    <frame tileid="142" duration="150"/>
    <frame tileid="142" duration="150"/>
    <frame tileid="142" duration="150"/>
   </animation>
  </tile>
  <tile id="169">
   <animation>
    <frame tileid="169" duration="150"/>
    <frame tileid="172" duration="150"/>
    <frame tileid="175" duration="150"/>
    <frame tileid="178" duration="150"/>
    <frame tileid="181" duration="150"/>
    <frame tileid="184" duration="150"/>
    <frame tileid="187" duration="150"/>
    <frame tileid="169" duration="150"/>
    <frame tileid="169" duration="150"/>
    <frame tileid="169" duration="150"/>
    <frame tileid="169" duration="150"/>
    <frame tileid="169" duration="150"/>
    <frame tileid="169" duration="150"/>
    <frame tileid="169" duration="150"/>
    <frame tileid="169" duration="150"/>
    <frame tileid="169" duration="150"/>
    <frame tileid="169" duration="150"/>
    <frame tileid="169" duration="150"/>
   </animation>
  </tile>
  <tile id="198">
   <animation>
    <frame tileid="198" duration="150"/>
    <frame tileid="202" duration="150"/>
    <frame tileid="206" duration="150"/>
    <frame tileid="210" duration="150"/>
    <frame tileid="214" duration="150"/>
    <frame tileid="218" duration="150"/>
    <frame tileid="222" duration="150"/>
    <frame tileid="198" duration="150"/>
    <frame tileid="198" duration="150"/>
    <frame tileid="198" duration="150"/>
    <frame tileid="198" duration="150"/>
    <frame tileid="198" duration="150"/>
    <frame tileid="198" duration="150"/>
    <frame tileid="198" duration="150"/>
    <frame tileid="198" duration="150"/>
    <frame tileid="198" duration="150"/>
    <frame tileid="198" duration="150"/>
    <frame tileid="198" duration="150"/>
   </animation>
  </tile>
  <tile id="199">
   <animation>
    <frame tileid="199" duration="150"/>
    <frame tileid="203" duration="150"/>
    <frame tileid="207" duration="150"/>
    <frame tileid="211" duration="150"/>
    <frame tileid="215" duration="150"/>
    <frame tileid="219" duration="150"/>
    <frame tileid="223" duration="150"/>
    <frame tileid="199" duration="150"/>
    <frame tileid="199" duration="150"/>
    <frame tileid="199" duration="150"/>
    <frame tileid="199" duration="150"/>
    <frame tileid="199" duration="150"/>
    <frame tileid="199" duration="150"/>
    <frame tileid="199" duration="150"/>
    <frame tileid="199" duration="150"/>
    <frame tileid="199" duration="150"/>
    <frame tileid="199" duration="150"/>
    <frame tileid="199" duration="150"/>
   </animation>
  </tile>
  <tile id="224">
   <animation>
    <frame tileid="224" duration="150"/>
    <frame tileid="228" duration="150"/>
    <frame tileid="232" duration="150"/>
    <frame tileid="236" duration="150"/>
    <frame tileid="240" duration="150"/>
    <frame tileid="244" duration="150"/>
    <frame tileid="248" duration="150"/>
    <frame tileid="224" duration="150"/>
    <frame tileid="224" duration="150"/>
    <frame tileid="224" duration="150"/>
    <frame tileid="224" duration="150"/>
    <frame tileid="224" duration="150"/>
    <frame tileid="224" duration="150"/>
    <frame tileid="224" duration="150"/>
    <frame tileid="224" duration="150"/>
    <frame tileid="224" duration="150"/>
    <frame tileid="224" duration="150"/>
    <frame tileid="224" duration="150"/>
   </animation>
  </tile>
  <tile id="225">
   <animation>
    <frame tileid="225" duration="150"/>
    <frame tileid="229" duration="150"/>
    <frame tileid="233" duration="150"/>
    <frame tileid="237" duration="150"/>
    <frame tileid="241" duration="150"/>
    <frame tileid="245" duration="150"/>
    <frame tileid="249" duration="150"/>
    <frame tileid="225" duration="150"/>
    <frame tileid="225" duration="150"/>
    <frame tileid="225" duration="150"/>
    <frame tileid="225" duration="150"/>
    <frame tileid="225" duration="150"/>
    <frame tileid="225" duration="150"/>
    <frame tileid="225" duration="150"/>
    <frame tileid="225" duration="150"/>
    <frame tileid="225" duration="150"/>
    <frame tileid="225" duration="150"/>
    <frame tileid="225" duration="150"/>
   </animation>
  </tile>
  <tile id="226">
   <animation>
    <frame tileid="226" duration="150"/>
    <frame tileid="230" duration="150"/>
    <frame tileid="234" duration="150"/>
    <frame tileid="238" duration="150"/>
    <frame tileid="242" duration="150"/>
    <frame tileid="246" duration="150"/>
    <frame tileid="250" duration="150"/>
    <frame tileid="226" duration="150"/>
    <frame tileid="226" duration="150"/>
    <frame tileid="226" duration="150"/>
    <frame tileid="226" duration="150"/>
    <frame tileid="226" duration="150"/>
    <frame tileid="226" duration="150"/>
    <frame tileid="226" duration="150"/>
    <frame tileid="226" duration="150"/>
    <frame tileid="226" duration="150"/>
    <frame tileid="226" duration="150"/>
    <frame tileid="226" duration="150"/>
   </animation>
  </tile>
  <tile id="227">
   <animation>
    <frame tileid="227" duration="150"/>
    <frame tileid="231" duration="150"/>
    <frame tileid="235" duration="150"/>
    <frame tileid="239" duration="150"/>
    <frame tileid="243" duration="150"/>
    <frame tileid="247" duration="150"/>
    <frame tileid="251" duration="150"/>
    <frame tileid="227" duration="150"/>
    <frame tileid="227" duration="150"/>
    <frame tileid="227" duration="150"/>
    <frame tileid="227" duration="150"/>
    <frame tileid="227" duration="150"/>
    <frame tileid="227" duration="150"/>
    <frame tileid="227" duration="150"/>
    <frame tileid="227" duration="150"/>
    <frame tileid="227" duration="150"/>
    <frame tileid="227" duration="150"/>
    <frame tileid="227" duration="150"/>
   </animation>
  </tile>
  <tile id="252">
   <animation>
    <frame tileid="252" duration="150"/>
    <frame tileid="256" duration="150"/>
    <frame tileid="260" duration="150"/>
    <frame tileid="264" duration="150"/>
    <frame tileid="268" duration="150"/>
    <frame tileid="272" duration="150"/>
    <frame tileid="276" duration="150"/>
    <frame tileid="252" duration="150"/>
    <frame tileid="252" duration="150"/>
    <frame tileid="252" duration="150"/>
    <frame tileid="252" duration="150"/>
    <frame tileid="252" duration="150"/>
    <frame tileid="252" duration="150"/>
    <frame tileid="252" duration="150"/>
    <frame tileid="252" duration="150"/>
    <frame tileid="252" duration="150"/>
    <frame tileid="252" duration="150"/>
    <frame tileid="252" duration="150"/>
   </animation>
  </tile>
  <tile id="253">
   <animation>
    <frame tileid="253" duration="150"/>
    <frame tileid="257" duration="150"/>
    <frame tileid="261" duration="150"/>
    <frame tileid="265" duration="150"/>
    <frame tileid="269" duration="150"/>
    <frame tileid="273" duration="150"/>
    <frame tileid="277" duration="150"/>
    <frame tileid="253" duration="150"/>
    <frame tileid="253" duration="150"/>
    <frame tileid="253" duration="150"/>
    <frame tileid="253" duration="150"/>
    <frame tileid="253" duration="150"/>
    <frame tileid="253" duration="150"/>
    <frame tileid="253" duration="150"/>
    <frame tileid="253" duration="150"/>
    <frame tileid="253" duration="150"/>
    <frame tileid="253" duration="150"/>
    <frame tileid="253" duration="150"/>
   </animation>
  </tile>
  <tile id="254">
   <animation>
    <frame tileid="254" duration="150"/>
    <frame tileid="258" duration="150"/>
    <frame tileid="262" duration="150"/>
    <frame tileid="266" duration="150"/>
    <frame tileid="270" duration="150"/>
    <frame tileid="274" duration="150"/>
    <frame tileid="278" duration="150"/>
    <frame tileid="254" duration="150"/>
    <frame tileid="254" duration="150"/>
    <frame tileid="254" duration="150"/>
    <frame tileid="254" duration="150"/>
    <frame tileid="254" duration="150"/>
    <frame tileid="254" duration="150"/>
    <frame tileid="254" duration="150"/>
    <frame tileid="254" duration="150"/>
    <frame tileid="254" duration="150"/>
    <frame tileid="254" duration="150"/>
    <frame tileid="254" duration="150"/>
   </animation>
  </tile>
  <tile id="255">
   <animation>
    <frame tileid="255" duration="150"/>
    <frame tileid="259" duration="150"/>
    <frame tileid="263" duration="150"/>
    <frame tileid="267" duration="150"/>
    <frame tileid="271" duration="150"/>
    <frame tileid="275" duration="150"/>
    <frame tileid="279" duration="150"/>
    <frame tileid="255" duration="150"/>
    <frame tileid="255" duration="150"/>
    <frame tileid="255" duration="150"/>
    <frame tileid="255" duration="150"/>
    <frame tileid="255" duration="150"/>
    <frame tileid="255" duration="150"/>
    <frame tileid="255" duration="150"/>
    <frame tileid="255" duration="150"/>
    <frame tileid="255" duration="150"/>
    <frame tileid="255" duration="150"/>
    <frame tileid="255" duration="150"/>
   </animation>
  </tile>
  <tile id="280">
   <animation>
    <frame tileid="280" duration="150"/>
    <frame tileid="284" duration="150"/>
    <frame tileid="288" duration="150"/>
    <frame tileid="292" duration="150"/>
    <frame tileid="296" duration="150"/>
    <frame tileid="300" duration="150"/>
    <frame tileid="304" duration="150"/>
    <frame tileid="280" duration="150"/>
    <frame tileid="280" duration="150"/>
    <frame tileid="280" duration="150"/>
    <frame tileid="280" duration="150"/>
    <frame tileid="280" duration="150"/>
    <frame tileid="280" duration="150"/>
    <frame tileid="280" duration="150"/>
    <frame tileid="280" duration="150"/>
    <frame tileid="280" duration="150"/>
    <frame tileid="280" duration="150"/>
    <frame tileid="280" duration="150"/>
   </animation>
  </tile>
  <tile id="281">
   <animation>
    <frame tileid="281" duration="150"/>
    <frame tileid="285" duration="150"/>
    <frame tileid="289" duration="150"/>
    <frame tileid="293" duration="150"/>
    <frame tileid="297" duration="150"/>
    <frame tileid="301" duration="150"/>
    <frame tileid="305" duration="150"/>
    <frame tileid="281" duration="150"/>
    <frame tileid="281" duration="150"/>
    <frame tileid="281" duration="150"/>
    <frame tileid="281" duration="150"/>
    <frame tileid="281" duration="150"/>
    <frame tileid="281" duration="150"/>
    <frame tileid="281" duration="150"/>
    <frame tileid="281" duration="150"/>
    <frame tileid="281" duration="150"/>
    <frame tileid="281" duration="150"/>
    <frame tileid="281" duration="150"/>
   </animation>
  </tile>
  <tile id="308">
   <animation>
    <frame tileid="308" duration="150"/>
    <frame tileid="312" duration="150"/>
    <frame tileid="316" duration="150"/>
    <frame tileid="320" duration="150"/>
    <frame tileid="324" duration="150"/>
    <frame tileid="328" duration="150"/>
    <frame tileid="332" duration="150"/>
    <frame tileid="308" duration="150"/>
    <frame tileid="308" duration="150"/>
    <frame tileid="308" duration="150"/>
    <frame tileid="308" duration="150"/>
    <frame tileid="308" duration="150"/>
    <frame tileid="308" duration="150"/>
    <frame tileid="308" duration="150"/>
    <frame tileid="308" duration="150"/>
    <frame tileid="308" duration="150"/>
    <frame tileid="308" duration="150"/>
    <frame tileid="308" duration="150"/>
   </animation>
  </tile>
  <tile id="309">
   <animation>
    <frame tileid="309" duration="150"/>
    <frame tileid="313" duration="150"/>
    <frame tileid="317" duration="150"/>
    <frame tileid="321" duration="150"/>
    <frame tileid="325" duration="150"/>
    <frame tileid="329" duration="150"/>
    <frame tileid="333" duration="150"/>
    <frame tileid="309" duration="150"/>
    <frame tileid="309" duration="150"/>
    <frame tileid="309" duration="150"/>
    <frame tileid="309" duration="150"/>
    <frame tileid="309" duration="150"/>
    <frame tileid="309" duration="150"/>
    <frame tileid="309" duration="150"/>
    <frame tileid="309" duration="150"/>
    <frame tileid="309" duration="150"/>
    <frame tileid="309" duration="150"/>
    <frame tileid="309" duration="150"/>
   </animation>
  </tile>
  <tile id="310">
   <animation>
    <frame tileid="310" duration="150"/>
    <frame tileid="314" duration="150"/>
    <frame tileid="318" duration="150"/>
    <frame tileid="322" duration="150"/>
    <frame tileid="326" duration="150"/>
    <frame tileid="330" duration="150"/>
    <frame tileid="334" duration="150"/>
    <frame tileid="310" duration="150"/>
    <frame tileid="310" duration="150"/>
    <frame tileid="310" duration="150"/>
    <frame tileid="310" duration="150"/>
    <frame tileid="310" duration="150"/>
    <frame tileid="310" duration="150"/>
    <frame tileid="310" duration="150"/>
    <frame tileid="310" duration="150"/>
    <frame tileid="310" duration="150"/>
    <frame tileid="310" duration="150"/>
    <frame tileid="310" duration="150"/>
   </animation>
  </tile>
  <tile id="311">
   <animation>
    <frame tileid="311" duration="150"/>
    <frame tileid="315" duration="150"/>
    <frame tileid="319" duration="150"/>
    <frame tileid="323" duration="150"/>
    <frame tileid="327" duration="150"/>
    <frame tileid="331" duration="150"/>
    <frame tileid="335" duration="150"/>
    <frame tileid="311" duration="150"/>
    <frame tileid="311" duration="150"/>
    <frame tileid="311" duration="150"/>
    <frame tileid="311" duration="150"/>
    <frame tileid="311" duration="150"/>
    <frame tileid="311" duration="150"/>
    <frame tileid="311" duration="150"/>
    <frame tileid="311" duration="150"/>
    <frame tileid="311" duration="150"/>
    <frame tileid="311" duration="150"/>
    <frame tileid="311" duration="150"/>
   </animation>
  </tile>
  <tile id="336">
   <animation>
    <frame tileid="336" duration="150"/>
    <frame tileid="340" duration="150"/>
    <frame tileid="344" duration="150"/>
    <frame tileid="348" duration="150"/>
    <frame tileid="352" duration="150"/>
    <frame tileid="356" duration="150"/>
    <frame tileid="360" duration="150"/>
    <frame tileid="336" duration="150"/>
    <frame tileid="336" duration="150"/>
    <frame tileid="336" duration="150"/>
    <frame tileid="336" duration="150"/>
    <frame tileid="336" duration="150"/>
    <frame tileid="336" duration="150"/>
    <frame tileid="336" duration="150"/>
    <frame tileid="336" duration="150"/>
    <frame tileid="336" duration="150"/>
    <frame tileid="336" duration="150"/>
    <frame tileid="336" duration="150"/>
   </animation>
  </tile>
  <tile id="337">
   <animation>
    <frame tileid="337" duration="150"/>
    <frame tileid="341" duration="150"/>
    <frame tileid="345" duration="150"/>
    <frame tileid="349" duration="150"/>
    <frame tileid="353" duration="150"/>
    <frame tileid="357" duration="150"/>
    <frame tileid="361" duration="150"/>
    <frame tileid="337" duration="150"/>
    <frame tileid="337" duration="150"/>
    <frame tileid="337" duration="150"/>
    <frame tileid="337" duration="150"/>
    <frame tileid="337" duration="150"/>
    <frame tileid="337" duration="150"/>
    <frame tileid="337" duration="150"/>
    <frame tileid="337" duration="150"/>
    <frame tileid="337" duration="150"/>
    <frame tileid="337" duration="150"/>
    <frame tileid="337" duration="150"/>
   </animation>
  </tile>
  <tile id="338">
   <animation>
    <frame tileid="338" duration="150"/>
    <frame tileid="342" duration="150"/>
    <frame tileid="346" duration="150"/>
    <frame tileid="350" duration="150"/>
    <frame tileid="354" duration="150"/>
    <frame tileid="358" duration="150"/>
    <frame tileid="362" duration="150"/>
    <frame tileid="338" duration="150"/>
    <frame tileid="338" duration="150"/>
    <frame tileid="338" duration="150"/>
    <frame tileid="338" duration="150"/>
    <frame tileid="338" duration="150"/>
    <frame tileid="338" duration="150"/>
    <frame tileid="338" duration="150"/>
    <frame tileid="338" duration="150"/>
    <frame tileid="338" duration="150"/>
    <frame tileid="338" duration="150"/>
    <frame tileid="338" duration="150"/>
   </animation>
  </tile>
  <tile id="339">
   <animation>
    <frame tileid="339" duration="150"/>
    <frame tileid="343" duration="150"/>
    <frame tileid="347" duration="150"/>
    <frame tileid="351" duration="150"/>
    <frame tileid="355" duration="150"/>
    <frame tileid="359" duration="150"/>
    <frame tileid="363" duration="150"/>
    <frame tileid="339" duration="150"/>
    <frame tileid="339" duration="150"/>
    <frame tileid="339" duration="150"/>
    <frame tileid="339" duration="150"/>
    <frame tileid="339" duration="150"/>
    <frame tileid="339" duration="150"/>
    <frame tileid="339" duration="150"/>
    <frame tileid="339" duration="150"/>
    <frame tileid="339" duration="150"/>
    <frame tileid="339" duration="150"/>
    <frame tileid="339" duration="150"/>
   </animation>
  </tile>
 </tileset>
 <tileset firstgid="1581" name="Mage3" tilewidth="16" tileheight="16" tilecount="364" columns="28">
  <image source="../../Art/Guild/Mage3.png" width="448" height="208"/>
  <tile id="0">
   <animation>
    <frame tileid="0" duration="150"/>
    <frame tileid="3" duration="150"/>
    <frame tileid="6" duration="150"/>
    <frame tileid="9" duration="150"/>
    <frame tileid="12" duration="150"/>
    <frame tileid="15" duration="150"/>
    <frame tileid="18" duration="150"/>
    <frame tileid="0" duration="150"/>
    <frame tileid="0" duration="150"/>
    <frame tileid="0" duration="150"/>
    <frame tileid="0" duration="150"/>
    <frame tileid="0" duration="150"/>
    <frame tileid="0" duration="150"/>
    <frame tileid="0" duration="150"/>
    <frame tileid="0" duration="150"/>
    <frame tileid="0" duration="150"/>
    <frame tileid="0" duration="150"/>
    <frame tileid="0" duration="150"/>
   </animation>
  </tile>
  <tile id="1">
   <animation>
    <frame tileid="1" duration="150"/>
    <frame tileid="4" duration="150"/>
    <frame tileid="7" duration="150"/>
    <frame tileid="10" duration="150"/>
    <frame tileid="13" duration="150"/>
    <frame tileid="16" duration="150"/>
    <frame tileid="19" duration="150"/>
    <frame tileid="1" duration="150"/>
    <frame tileid="1" duration="150"/>
    <frame tileid="1" duration="150"/>
    <frame tileid="1" duration="150"/>
    <frame tileid="1" duration="150"/>
    <frame tileid="1" duration="150"/>
    <frame tileid="1" duration="150"/>
    <frame tileid="1" duration="150"/>
    <frame tileid="1" duration="150"/>
    <frame tileid="1" duration="150"/>
    <frame tileid="1" duration="150"/>
   </animation>
  </tile>
  <tile id="2">
   <animation>
    <frame tileid="2" duration="150"/>
    <frame tileid="5" duration="150"/>
    <frame tileid="8" duration="150"/>
    <frame tileid="11" duration="150"/>
    <frame tileid="14" duration="150"/>
    <frame tileid="17" duration="150"/>
    <frame tileid="20" duration="150"/>
    <frame tileid="2" duration="150"/>
    <frame tileid="2" duration="150"/>
    <frame tileid="2" duration="150"/>
    <frame tileid="2" duration="150"/>
    <frame tileid="2" duration="150"/>
    <frame tileid="2" duration="150"/>
    <frame tileid="2" duration="150"/>
    <frame tileid="2" duration="150"/>
    <frame tileid="2" duration="150"/>
    <frame tileid="2" duration="150"/>
    <frame tileid="2" duration="150"/>
   </animation>
  </tile>
  <tile id="28">
   <animation>
    <frame tileid="28" duration="150"/>
    <frame tileid="31" duration="150"/>
    <frame tileid="34" duration="150"/>
    <frame tileid="37" duration="150"/>
    <frame tileid="40" duration="150"/>
    <frame tileid="43" duration="150"/>
    <frame tileid="46" duration="150"/>
    <frame tileid="28" duration="150"/>
    <frame tileid="28" duration="150"/>
    <frame tileid="28" duration="150"/>
    <frame tileid="28" duration="150"/>
    <frame tileid="28" duration="150"/>
    <frame tileid="28" duration="150"/>
    <frame tileid="28" duration="150"/>
    <frame tileid="28" duration="150"/>
    <frame tileid="28" duration="150"/>
    <frame tileid="28" duration="150"/>
    <frame tileid="28" duration="150"/>
   </animation>
  </tile>
  <tile id="29">
   <animation>
    <frame tileid="29" duration="150"/>
    <frame tileid="32" duration="150"/>
    <frame tileid="35" duration="150"/>
    <frame tileid="38" duration="150"/>
    <frame tileid="41" duration="150"/>
    <frame tileid="44" duration="150"/>
    <frame tileid="47" duration="150"/>
    <frame tileid="29" duration="150"/>
    <frame tileid="29" duration="150"/>
    <frame tileid="29" duration="150"/>
    <frame tileid="29" duration="150"/>
    <frame tileid="29" duration="150"/>
    <frame tileid="29" duration="150"/>
    <frame tileid="29" duration="150"/>
    <frame tileid="29" duration="150"/>
    <frame tileid="29" duration="150"/>
    <frame tileid="29" duration="150"/>
    <frame tileid="29" duration="150"/>
   </animation>
  </tile>
  <tile id="30">
   <animation>
    <frame tileid="30" duration="150"/>
    <frame tileid="33" duration="150"/>
    <frame tileid="36" duration="150"/>
    <frame tileid="39" duration="150"/>
    <frame tileid="42" duration="150"/>
    <frame tileid="45" duration="150"/>
    <frame tileid="48" duration="150"/>
    <frame tileid="30" duration="150"/>
    <frame tileid="30" duration="150"/>
    <frame tileid="30" duration="150"/>
    <frame tileid="30" duration="150"/>
    <frame tileid="30" duration="150"/>
    <frame tileid="30" duration="150"/>
    <frame tileid="30" duration="150"/>
    <frame tileid="30" duration="150"/>
    <frame tileid="30" duration="150"/>
    <frame tileid="30" duration="150"/>
    <frame tileid="30" duration="150"/>
   </animation>
  </tile>
  <tile id="56">
   <animation>
    <frame tileid="56" duration="150"/>
    <frame tileid="59" duration="150"/>
    <frame tileid="62" duration="150"/>
    <frame tileid="65" duration="150"/>
    <frame tileid="68" duration="150"/>
    <frame tileid="71" duration="150"/>
    <frame tileid="74" duration="150"/>
    <frame tileid="56" duration="150"/>
    <frame tileid="56" duration="150"/>
    <frame tileid="56" duration="150"/>
    <frame tileid="56" duration="150"/>
    <frame tileid="56" duration="150"/>
    <frame tileid="56" duration="150"/>
    <frame tileid="56" duration="150"/>
    <frame tileid="56" duration="150"/>
    <frame tileid="56" duration="150"/>
    <frame tileid="56" duration="150"/>
    <frame tileid="56" duration="150"/>
   </animation>
  </tile>
  <tile id="57">
   <animation>
    <frame tileid="57" duration="150"/>
    <frame tileid="60" duration="150"/>
    <frame tileid="63" duration="150"/>
    <frame tileid="66" duration="150"/>
    <frame tileid="69" duration="150"/>
    <frame tileid="72" duration="150"/>
    <frame tileid="75" duration="150"/>
    <frame tileid="57" duration="150"/>
    <frame tileid="57" duration="150"/>
    <frame tileid="57" duration="150"/>
    <frame tileid="57" duration="150"/>
    <frame tileid="57" duration="150"/>
    <frame tileid="57" duration="150"/>
    <frame tileid="57" duration="150"/>
    <frame tileid="57" duration="150"/>
    <frame tileid="57" duration="150"/>
    <frame tileid="57" duration="150"/>
    <frame tileid="57" duration="150"/>
   </animation>
  </tile>
  <tile id="58">
   <animation>
    <frame tileid="58" duration="150"/>
    <frame tileid="61" duration="150"/>
    <frame tileid="64" duration="150"/>
    <frame tileid="67" duration="150"/>
    <frame tileid="70" duration="150"/>
    <frame tileid="73" duration="150"/>
    <frame tileid="76" duration="150"/>
    <frame tileid="58" duration="150"/>
    <frame tileid="58" duration="150"/>
    <frame tileid="58" duration="150"/>
    <frame tileid="58" duration="150"/>
    <frame tileid="58" duration="150"/>
    <frame tileid="58" duration="150"/>
    <frame tileid="58" duration="150"/>
    <frame tileid="58" duration="150"/>
    <frame tileid="58" duration="150"/>
    <frame tileid="58" duration="150"/>
    <frame tileid="58" duration="150"/>
   </animation>
  </tile>
  <tile id="85">
   <animation>
    <frame tileid="85" duration="150"/>
    <frame tileid="88" duration="150"/>
    <frame tileid="91" duration="150"/>
    <frame tileid="94" duration="150"/>
    <frame tileid="97" duration="150"/>
    <frame tileid="100" duration="150"/>
    <frame tileid="103" duration="150"/>
    <frame tileid="85" duration="150"/>
    <frame tileid="85" duration="150"/>
    <frame tileid="85" duration="150"/>
    <frame tileid="85" duration="150"/>
    <frame tileid="85" duration="150"/>
    <frame tileid="85" duration="150"/>
    <frame tileid="85" duration="150"/>
    <frame tileid="85" duration="150"/>
    <frame tileid="85" duration="150"/>
    <frame tileid="85" duration="150"/>
    <frame tileid="85" duration="150"/>
   </animation>
  </tile>
  <tile id="112">
   <animation>
    <frame tileid="112" duration="150"/>
    <frame tileid="115" duration="150"/>
    <frame tileid="118" duration="150"/>
    <frame tileid="121" duration="150"/>
    <frame tileid="124" duration="150"/>
    <frame tileid="127" duration="150"/>
    <frame tileid="130" duration="150"/>
    <frame tileid="112" duration="150"/>
    <frame tileid="112" duration="150"/>
    <frame tileid="112" duration="150"/>
    <frame tileid="112" duration="150"/>
    <frame tileid="112" duration="150"/>
    <frame tileid="112" duration="150"/>
    <frame tileid="112" duration="150"/>
    <frame tileid="112" duration="150"/>
    <frame tileid="112" duration="150"/>
    <frame tileid="112" duration="150"/>
    <frame tileid="112" duration="150"/>
   </animation>
  </tile>
  <tile id="113">
   <animation>
    <frame tileid="113" duration="150"/>
    <frame tileid="116" duration="150"/>
    <frame tileid="119" duration="150"/>
    <frame tileid="122" duration="150"/>
    <frame tileid="125" duration="150"/>
    <frame tileid="128" duration="150"/>
    <frame tileid="131" duration="150"/>
    <frame tileid="113" duration="150"/>
    <frame tileid="113" duration="150"/>
    <frame tileid="113" duration="150"/>
    <frame tileid="113" duration="150"/>
    <frame tileid="113" duration="150"/>
    <frame tileid="113" duration="150"/>
    <frame tileid="113" duration="150"/>
    <frame tileid="113" duration="150"/>
    <frame tileid="113" duration="150"/>
    <frame tileid="113" duration="150"/>
    <frame tileid="113" duration="150"/>
   </animation>
  </tile>
  <tile id="114">
   <animation>
    <frame tileid="114" duration="150"/>
    <frame tileid="117" duration="150"/>
    <frame tileid="120" duration="150"/>
    <frame tileid="123" duration="150"/>
    <frame tileid="126" duration="150"/>
    <frame tileid="129" duration="150"/>
    <frame tileid="132" duration="150"/>
    <frame tileid="114" duration="150"/>
    <frame tileid="114" duration="150"/>
    <frame tileid="114" duration="150"/>
    <frame tileid="114" duration="150"/>
    <frame tileid="114" duration="150"/>
    <frame tileid="114" duration="150"/>
    <frame tileid="114" duration="150"/>
    <frame tileid="114" duration="150"/>
    <frame tileid="114" duration="150"/>
    <frame tileid="114" duration="150"/>
    <frame tileid="114" duration="150"/>
   </animation>
  </tile>
  <tile id="140">
   <animation>
    <frame tileid="140" duration="150"/>
    <frame tileid="143" duration="150"/>
    <frame tileid="146" duration="150"/>
    <frame tileid="149" duration="150"/>
    <frame tileid="152" duration="150"/>
    <frame tileid="155" duration="150"/>
    <frame tileid="158" duration="150"/>
    <frame tileid="140" duration="150"/>
    <frame tileid="140" duration="150"/>
    <frame tileid="140" duration="150"/>
    <frame tileid="140" duration="150"/>
    <frame tileid="140" duration="150"/>
    <frame tileid="140" duration="150"/>
    <frame tileid="140" duration="150"/>
    <frame tileid="140" duration="150"/>
    <frame tileid="140" duration="150"/>
    <frame tileid="140" duration="150"/>
    <frame tileid="140" duration="150"/>
   </animation>
  </tile>
  <tile id="141">
   <animation>
    <frame tileid="141" duration="150"/>
    <frame tileid="144" duration="150"/>
    <frame tileid="147" duration="150"/>
    <frame tileid="150" duration="150"/>
    <frame tileid="153" duration="150"/>
    <frame tileid="156" duration="150"/>
    <frame tileid="159" duration="150"/>
    <frame tileid="141" duration="150"/>
    <frame tileid="141" duration="150"/>
    <frame tileid="141" duration="150"/>
    <frame tileid="141" duration="150"/>
    <frame tileid="141" duration="150"/>
    <frame tileid="141" duration="150"/>
    <frame tileid="141" duration="150"/>
    <frame tileid="141" duration="150"/>
    <frame tileid="141" duration="150"/>
    <frame tileid="141" duration="150"/>
    <frame tileid="141" duration="150"/>
   </animation>
  </tile>
  <tile id="142">
   <animation>
    <frame tileid="142" duration="150"/>
    <frame tileid="145" duration="150"/>
    <frame tileid="148" duration="150"/>
    <frame tileid="151" duration="150"/>
    <frame tileid="154" duration="150"/>
    <frame tileid="157" duration="150"/>
    <frame tileid="160" duration="150"/>
    <frame tileid="142" duration="150"/>
    <frame tileid="142" duration="150"/>
    <frame tileid="142" duration="150"/>
    <frame tileid="142" duration="150"/>
    <frame tileid="142" duration="150"/>
    <frame tileid="142" duration="150"/>
    <frame tileid="142" duration="150"/>
    <frame tileid="142" duration="150"/>
    <frame tileid="142" duration="150"/>
    <frame tileid="142" duration="150"/>
    <frame tileid="142" duration="150"/>
   </animation>
  </tile>
  <tile id="169">
   <animation>
    <frame tileid="169" duration="150"/>
    <frame tileid="172" duration="150"/>
    <frame tileid="175" duration="150"/>
    <frame tileid="178" duration="150"/>
    <frame tileid="181" duration="150"/>
    <frame tileid="184" duration="150"/>
    <frame tileid="187" duration="150"/>
    <frame tileid="169" duration="150"/>
    <frame tileid="169" duration="150"/>
    <frame tileid="169" duration="150"/>
    <frame tileid="169" duration="150"/>
    <frame tileid="169" duration="150"/>
    <frame tileid="169" duration="150"/>
    <frame tileid="169" duration="150"/>
    <frame tileid="169" duration="150"/>
    <frame tileid="169" duration="150"/>
    <frame tileid="169" duration="150"/>
    <frame tileid="169" duration="150"/>
   </animation>
  </tile>
  <tile id="198">
   <animation>
    <frame tileid="198" duration="150"/>
    <frame tileid="202" duration="150"/>
    <frame tileid="206" duration="150"/>
    <frame tileid="210" duration="150"/>
    <frame tileid="214" duration="150"/>
    <frame tileid="218" duration="150"/>
    <frame tileid="222" duration="150"/>
    <frame tileid="198" duration="150"/>
    <frame tileid="198" duration="150"/>
    <frame tileid="198" duration="150"/>
    <frame tileid="198" duration="150"/>
    <frame tileid="198" duration="150"/>
    <frame tileid="198" duration="150"/>
    <frame tileid="198" duration="150"/>
    <frame tileid="198" duration="150"/>
    <frame tileid="198" duration="150"/>
    <frame tileid="198" duration="150"/>
    <frame tileid="198" duration="150"/>
   </animation>
  </tile>
  <tile id="199">
   <animation>
    <frame tileid="199" duration="150"/>
    <frame tileid="203" duration="150"/>
    <frame tileid="207" duration="150"/>
    <frame tileid="211" duration="150"/>
    <frame tileid="215" duration="150"/>
    <frame tileid="219" duration="150"/>
    <frame tileid="223" duration="150"/>
    <frame tileid="199" duration="150"/>
    <frame tileid="199" duration="150"/>
    <frame tileid="199" duration="150"/>
    <frame tileid="199" duration="150"/>
    <frame tileid="199" duration="150"/>
    <frame tileid="199" duration="150"/>
    <frame tileid="199" duration="150"/>
    <frame tileid="199" duration="150"/>
    <frame tileid="199" duration="150"/>
    <frame tileid="199" duration="150"/>
    <frame tileid="199" duration="150"/>
   </animation>
  </tile>
  <tile id="224">
   <animation>
    <frame tileid="224" duration="150"/>
    <frame tileid="228" duration="150"/>
    <frame tileid="232" duration="150"/>
    <frame tileid="236" duration="150"/>
    <frame tileid="240" duration="150"/>
    <frame tileid="244" duration="150"/>
    <frame tileid="248" duration="150"/>
    <frame tileid="224" duration="150"/>
    <frame tileid="224" duration="150"/>
    <frame tileid="224" duration="150"/>
    <frame tileid="224" duration="150"/>
    <frame tileid="224" duration="150"/>
    <frame tileid="224" duration="150"/>
    <frame tileid="224" duration="150"/>
    <frame tileid="224" duration="150"/>
    <frame tileid="224" duration="150"/>
    <frame tileid="224" duration="150"/>
    <frame tileid="224" duration="150"/>
   </animation>
  </tile>
  <tile id="225">
   <animation>
    <frame tileid="225" duration="150"/>
    <frame tileid="229" duration="150"/>
    <frame tileid="233" duration="150"/>
    <frame tileid="237" duration="150"/>
    <frame tileid="241" duration="150"/>
    <frame tileid="245" duration="150"/>
    <frame tileid="249" duration="150"/>
    <frame tileid="225" duration="150"/>
    <frame tileid="225" duration="150"/>
    <frame tileid="225" duration="150"/>
    <frame tileid="225" duration="150"/>
    <frame tileid="225" duration="150"/>
    <frame tileid="225" duration="150"/>
    <frame tileid="225" duration="150"/>
    <frame tileid="225" duration="150"/>
    <frame tileid="225" duration="150"/>
    <frame tileid="225" duration="150"/>
    <frame tileid="225" duration="150"/>
   </animation>
  </tile>
  <tile id="226">
   <animation>
    <frame tileid="226" duration="150"/>
    <frame tileid="230" duration="150"/>
    <frame tileid="234" duration="150"/>
    <frame tileid="238" duration="150"/>
    <frame tileid="242" duration="150"/>
    <frame tileid="246" duration="150"/>
    <frame tileid="250" duration="150"/>
    <frame tileid="226" duration="150"/>
    <frame tileid="226" duration="150"/>
    <frame tileid="226" duration="150"/>
    <frame tileid="226" duration="150"/>
    <frame tileid="226" duration="150"/>
    <frame tileid="226" duration="150"/>
    <frame tileid="226" duration="150"/>
    <frame tileid="226" duration="150"/>
    <frame tileid="226" duration="150"/>
    <frame tileid="226" duration="150"/>
    <frame tileid="226" duration="150"/>
   </animation>
  </tile>
  <tile id="227">
   <animation>
    <frame tileid="227" duration="150"/>
    <frame tileid="231" duration="150"/>
    <frame tileid="235" duration="150"/>
    <frame tileid="239" duration="150"/>
    <frame tileid="243" duration="150"/>
    <frame tileid="247" duration="150"/>
    <frame tileid="251" duration="150"/>
    <frame tileid="227" duration="150"/>
    <frame tileid="227" duration="150"/>
    <frame tileid="227" duration="150"/>
    <frame tileid="227" duration="150"/>
    <frame tileid="227" duration="150"/>
    <frame tileid="227" duration="150"/>
    <frame tileid="227" duration="150"/>
    <frame tileid="227" duration="150"/>
    <frame tileid="227" duration="150"/>
    <frame tileid="227" duration="150"/>
    <frame tileid="227" duration="150"/>
   </animation>
  </tile>
  <tile id="252">
   <animation>
    <frame tileid="252" duration="150"/>
    <frame tileid="256" duration="150"/>
    <frame tileid="260" duration="150"/>
    <frame tileid="264" duration="150"/>
    <frame tileid="268" duration="150"/>
    <frame tileid="272" duration="150"/>
    <frame tileid="276" duration="150"/>
    <frame tileid="252" duration="150"/>
    <frame tileid="252" duration="150"/>
    <frame tileid="252" duration="150"/>
    <frame tileid="252" duration="150"/>
    <frame tileid="252" duration="150"/>
    <frame tileid="252" duration="150"/>
    <frame tileid="252" duration="150"/>
    <frame tileid="252" duration="150"/>
    <frame tileid="252" duration="150"/>
    <frame tileid="252" duration="150"/>
    <frame tileid="252" duration="150"/>
   </animation>
  </tile>
  <tile id="253">
   <animation>
    <frame tileid="253" duration="150"/>
    <frame tileid="257" duration="150"/>
    <frame tileid="261" duration="150"/>
    <frame tileid="265" duration="150"/>
    <frame tileid="269" duration="150"/>
    <frame tileid="273" duration="150"/>
    <frame tileid="277" duration="150"/>
    <frame tileid="253" duration="150"/>
    <frame tileid="253" duration="150"/>
    <frame tileid="253" duration="150"/>
    <frame tileid="253" duration="150"/>
    <frame tileid="253" duration="150"/>
    <frame tileid="253" duration="150"/>
    <frame tileid="253" duration="150"/>
    <frame tileid="253" duration="150"/>
    <frame tileid="253" duration="150"/>
    <frame tileid="253" duration="150"/>
    <frame tileid="253" duration="150"/>
   </animation>
  </tile>
  <tile id="254">
   <animation>
    <frame tileid="254" duration="150"/>
    <frame tileid="258" duration="150"/>
    <frame tileid="262" duration="150"/>
    <frame tileid="266" duration="150"/>
    <frame tileid="270" duration="150"/>
    <frame tileid="274" duration="150"/>
    <frame tileid="278" duration="150"/>
    <frame tileid="254" duration="150"/>
    <frame tileid="254" duration="150"/>
    <frame tileid="254" duration="150"/>
    <frame tileid="254" duration="150"/>
    <frame tileid="254" duration="150"/>
    <frame tileid="254" duration="150"/>
    <frame tileid="254" duration="150"/>
    <frame tileid="254" duration="150"/>
    <frame tileid="254" duration="150"/>
    <frame tileid="254" duration="150"/>
    <frame tileid="254" duration="150"/>
   </animation>
  </tile>
  <tile id="255">
   <animation>
    <frame tileid="255" duration="150"/>
    <frame tileid="259" duration="150"/>
    <frame tileid="263" duration="150"/>
    <frame tileid="267" duration="150"/>
    <frame tileid="271" duration="150"/>
    <frame tileid="275" duration="150"/>
    <frame tileid="279" duration="150"/>
    <frame tileid="255" duration="150"/>
    <frame tileid="255" duration="150"/>
    <frame tileid="255" duration="150"/>
    <frame tileid="255" duration="150"/>
    <frame tileid="255" duration="150"/>
    <frame tileid="255" duration="150"/>
    <frame tileid="255" duration="150"/>
    <frame tileid="255" duration="150"/>
    <frame tileid="255" duration="150"/>
    <frame tileid="255" duration="150"/>
    <frame tileid="255" duration="150"/>
   </animation>
  </tile>
  <tile id="280">
   <animation>
    <frame tileid="280" duration="150"/>
    <frame tileid="284" duration="150"/>
    <frame tileid="288" duration="150"/>
    <frame tileid="292" duration="150"/>
    <frame tileid="296" duration="150"/>
    <frame tileid="300" duration="150"/>
    <frame tileid="304" duration="150"/>
    <frame tileid="280" duration="150"/>
    <frame tileid="280" duration="150"/>
    <frame tileid="280" duration="150"/>
    <frame tileid="280" duration="150"/>
    <frame tileid="280" duration="150"/>
    <frame tileid="280" duration="150"/>
    <frame tileid="280" duration="150"/>
    <frame tileid="280" duration="150"/>
    <frame tileid="280" duration="150"/>
    <frame tileid="280" duration="150"/>
    <frame tileid="280" duration="150"/>
   </animation>
  </tile>
  <tile id="281">
   <animation>
    <frame tileid="281" duration="150"/>
    <frame tileid="285" duration="150"/>
    <frame tileid="289" duration="150"/>
    <frame tileid="293" duration="150"/>
    <frame tileid="297" duration="150"/>
    <frame tileid="301" duration="150"/>
    <frame tileid="305" duration="150"/>
    <frame tileid="281" duration="150"/>
    <frame tileid="281" duration="150"/>
    <frame tileid="281" duration="150"/>
    <frame tileid="281" duration="150"/>
    <frame tileid="281" duration="150"/>
    <frame tileid="281" duration="150"/>
    <frame tileid="281" duration="150"/>
    <frame tileid="281" duration="150"/>
    <frame tileid="281" duration="150"/>
    <frame tileid="281" duration="150"/>
    <frame tileid="281" duration="150"/>
   </animation>
  </tile>
  <tile id="308">
   <animation>
    <frame tileid="308" duration="150"/>
    <frame tileid="312" duration="150"/>
    <frame tileid="316" duration="150"/>
    <frame tileid="320" duration="150"/>
    <frame tileid="324" duration="150"/>
    <frame tileid="328" duration="150"/>
    <frame tileid="332" duration="150"/>
    <frame tileid="308" duration="150"/>
    <frame tileid="308" duration="150"/>
    <frame tileid="308" duration="150"/>
    <frame tileid="308" duration="150"/>
    <frame tileid="308" duration="150"/>
    <frame tileid="308" duration="150"/>
    <frame tileid="308" duration="150"/>
    <frame tileid="308" duration="150"/>
    <frame tileid="308" duration="150"/>
    <frame tileid="308" duration="150"/>
    <frame tileid="308" duration="150"/>
   </animation>
  </tile>
  <tile id="309">
   <animation>
    <frame tileid="309" duration="150"/>
    <frame tileid="313" duration="150"/>
    <frame tileid="317" duration="150"/>
    <frame tileid="321" duration="150"/>
    <frame tileid="325" duration="150"/>
    <frame tileid="329" duration="150"/>
    <frame tileid="333" duration="150"/>
    <frame tileid="309" duration="150"/>
    <frame tileid="309" duration="150"/>
    <frame tileid="309" duration="150"/>
    <frame tileid="309" duration="150"/>
    <frame tileid="309" duration="150"/>
    <frame tileid="309" duration="150"/>
    <frame tileid="309" duration="150"/>
    <frame tileid="309" duration="150"/>
    <frame tileid="309" duration="150"/>
    <frame tileid="309" duration="150"/>
    <frame tileid="309" duration="150"/>
   </animation>
  </tile>
  <tile id="310">
   <animation>
    <frame tileid="310" duration="150"/>
    <frame tileid="314" duration="150"/>
    <frame tileid="318" duration="150"/>
    <frame tileid="322" duration="150"/>
    <frame tileid="326" duration="150"/>
    <frame tileid="330" duration="150"/>
    <frame tileid="334" duration="150"/>
    <frame tileid="310" duration="150"/>
    <frame tileid="310" duration="150"/>
    <frame tileid="310" duration="150"/>
    <frame tileid="310" duration="150"/>
    <frame tileid="310" duration="150"/>
    <frame tileid="310" duration="150"/>
    <frame tileid="310" duration="150"/>
    <frame tileid="310" duration="150"/>
    <frame tileid="310" duration="150"/>
    <frame tileid="310" duration="150"/>
    <frame tileid="310" duration="150"/>
   </animation>
  </tile>
  <tile id="311">
   <animation>
    <frame tileid="311" duration="150"/>
    <frame tileid="315" duration="150"/>
    <frame tileid="319" duration="150"/>
    <frame tileid="323" duration="150"/>
    <frame tileid="327" duration="150"/>
    <frame tileid="331" duration="150"/>
    <frame tileid="335" duration="150"/>
    <frame tileid="311" duration="150"/>
    <frame tileid="311" duration="150"/>
    <frame tileid="311" duration="150"/>
    <frame tileid="311" duration="150"/>
    <frame tileid="311" duration="150"/>
    <frame tileid="311" duration="150"/>
    <frame tileid="311" duration="150"/>
    <frame tileid="311" duration="150"/>
    <frame tileid="311" duration="150"/>
    <frame tileid="311" duration="150"/>
    <frame tileid="311" duration="150"/>
   </animation>
  </tile>
  <tile id="336">
   <animation>
    <frame tileid="336" duration="150"/>
    <frame tileid="340" duration="150"/>
    <frame tileid="344" duration="150"/>
    <frame tileid="348" duration="150"/>
    <frame tileid="352" duration="150"/>
    <frame tileid="356" duration="150"/>
    <frame tileid="360" duration="150"/>
    <frame tileid="336" duration="150"/>
    <frame tileid="336" duration="150"/>
    <frame tileid="336" duration="150"/>
    <frame tileid="336" duration="150"/>
    <frame tileid="336" duration="150"/>
    <frame tileid="336" duration="150"/>
    <frame tileid="336" duration="150"/>
    <frame tileid="336" duration="150"/>
    <frame tileid="336" duration="150"/>
    <frame tileid="336" duration="150"/>
    <frame tileid="336" duration="150"/>
   </animation>
  </tile>
  <tile id="337">
   <animation>
    <frame tileid="337" duration="150"/>
    <frame tileid="341" duration="150"/>
    <frame tileid="345" duration="150"/>
    <frame tileid="349" duration="150"/>
    <frame tileid="353" duration="150"/>
    <frame tileid="357" duration="150"/>
    <frame tileid="361" duration="150"/>
    <frame tileid="337" duration="150"/>
    <frame tileid="337" duration="150"/>
    <frame tileid="337" duration="150"/>
    <frame tileid="337" duration="150"/>
    <frame tileid="337" duration="150"/>
    <frame tileid="337" duration="150"/>
    <frame tileid="337" duration="150"/>
    <frame tileid="337" duration="150"/>
    <frame tileid="337" duration="150"/>
    <frame tileid="337" duration="150"/>
    <frame tileid="337" duration="150"/>
   </animation>
  </tile>
  <tile id="338">
   <animation>
    <frame tileid="338" duration="150"/>
    <frame tileid="342" duration="150"/>
    <frame tileid="346" duration="150"/>
    <frame tileid="350" duration="150"/>
    <frame tileid="354" duration="150"/>
    <frame tileid="358" duration="150"/>
    <frame tileid="362" duration="150"/>
    <frame tileid="338" duration="150"/>
    <frame tileid="338" duration="150"/>
    <frame tileid="338" duration="150"/>
    <frame tileid="338" duration="150"/>
    <frame tileid="338" duration="150"/>
    <frame tileid="338" duration="150"/>
    <frame tileid="338" duration="150"/>
    <frame tileid="338" duration="150"/>
    <frame tileid="338" duration="150"/>
    <frame tileid="338" duration="150"/>
    <frame tileid="338" duration="150"/>
   </animation>
  </tile>
  <tile id="339">
   <animation>
    <frame tileid="339" duration="150"/>
    <frame tileid="343" duration="150"/>
    <frame tileid="347" duration="150"/>
    <frame tileid="351" duration="150"/>
    <frame tileid="355" duration="150"/>
    <frame tileid="359" duration="150"/>
    <frame tileid="363" duration="150"/>
    <frame tileid="339" duration="150"/>
    <frame tileid="339" duration="150"/>
    <frame tileid="339" duration="150"/>
    <frame tileid="339" duration="150"/>
    <frame tileid="339" duration="150"/>
    <frame tileid="339" duration="150"/>
    <frame tileid="339" duration="150"/>
    <frame tileid="339" duration="150"/>
    <frame tileid="339" duration="150"/>
    <frame tileid="339" duration="150"/>
    <frame tileid="339" duration="150"/>
   </animation>
  </tile>
 </tileset>
 <tileset firstgid="1945" name="Mage3" tilewidth="16" tileheight="16" tilecount="364" columns="28">
  <image source="../../Art/Guild/Mage3.png" width="448" height="208"/>
  <tile id="0">
   <animation>
    <frame tileid="0" duration="150"/>
    <frame tileid="3" duration="150"/>
    <frame tileid="6" duration="150"/>
    <frame tileid="9" duration="150"/>
    <frame tileid="12" duration="150"/>
    <frame tileid="15" duration="150"/>
    <frame tileid="18" duration="150"/>
    <frame tileid="0" duration="150"/>
    <frame tileid="0" duration="150"/>
    <frame tileid="0" duration="150"/>
    <frame tileid="0" duration="150"/>
    <frame tileid="0" duration="150"/>
    <frame tileid="0" duration="150"/>
    <frame tileid="0" duration="150"/>
    <frame tileid="0" duration="150"/>
    <frame tileid="0" duration="150"/>
    <frame tileid="0" duration="150"/>
    <frame tileid="0" duration="150"/>
   </animation>
  </tile>
  <tile id="1">
   <animation>
    <frame tileid="1" duration="150"/>
    <frame tileid="4" duration="150"/>
    <frame tileid="7" duration="150"/>
    <frame tileid="10" duration="150"/>
    <frame tileid="13" duration="150"/>
    <frame tileid="16" duration="150"/>
    <frame tileid="19" duration="150"/>
    <frame tileid="1" duration="150"/>
    <frame tileid="1" duration="150"/>
    <frame tileid="1" duration="150"/>
    <frame tileid="1" duration="150"/>
    <frame tileid="1" duration="150"/>
    <frame tileid="1" duration="150"/>
    <frame tileid="1" duration="150"/>
    <frame tileid="1" duration="150"/>
    <frame tileid="1" duration="150"/>
    <frame tileid="1" duration="150"/>
    <frame tileid="1" duration="150"/>
   </animation>
  </tile>
  <tile id="2">
   <animation>
    <frame tileid="2" duration="150"/>
    <frame tileid="5" duration="150"/>
    <frame tileid="8" duration="150"/>
    <frame tileid="11" duration="150"/>
    <frame tileid="14" duration="150"/>
    <frame tileid="17" duration="150"/>
    <frame tileid="20" duration="150"/>
    <frame tileid="2" duration="150"/>
    <frame tileid="2" duration="150"/>
    <frame tileid="2" duration="150"/>
    <frame tileid="2" duration="150"/>
    <frame tileid="2" duration="150"/>
    <frame tileid="2" duration="150"/>
    <frame tileid="2" duration="150"/>
    <frame tileid="2" duration="150"/>
    <frame tileid="2" duration="150"/>
    <frame tileid="2" duration="150"/>
    <frame tileid="2" duration="150"/>
   </animation>
  </tile>
  <tile id="28">
   <animation>
    <frame tileid="28" duration="150"/>
    <frame tileid="31" duration="150"/>
    <frame tileid="34" duration="150"/>
    <frame tileid="37" duration="150"/>
    <frame tileid="40" duration="150"/>
    <frame tileid="43" duration="150"/>
    <frame tileid="46" duration="150"/>
    <frame tileid="28" duration="150"/>
    <frame tileid="28" duration="150"/>
    <frame tileid="28" duration="150"/>
    <frame tileid="28" duration="150"/>
    <frame tileid="28" duration="150"/>
    <frame tileid="28" duration="150"/>
    <frame tileid="28" duration="150"/>
    <frame tileid="28" duration="150"/>
    <frame tileid="28" duration="150"/>
    <frame tileid="28" duration="150"/>
    <frame tileid="28" duration="150"/>
   </animation>
  </tile>
  <tile id="29">
   <animation>
    <frame tileid="29" duration="150"/>
    <frame tileid="32" duration="150"/>
    <frame tileid="35" duration="150"/>
    <frame tileid="38" duration="150"/>
    <frame tileid="41" duration="150"/>
    <frame tileid="44" duration="150"/>
    <frame tileid="47" duration="150"/>
    <frame tileid="29" duration="150"/>
    <frame tileid="29" duration="150"/>
    <frame tileid="29" duration="150"/>
    <frame tileid="29" duration="150"/>
    <frame tileid="29" duration="150"/>
    <frame tileid="29" duration="150"/>
    <frame tileid="29" duration="150"/>
    <frame tileid="29" duration="150"/>
    <frame tileid="29" duration="150"/>
    <frame tileid="29" duration="150"/>
    <frame tileid="29" duration="150"/>
   </animation>
  </tile>
  <tile id="30">
   <animation>
    <frame tileid="30" duration="150"/>
    <frame tileid="33" duration="150"/>
    <frame tileid="36" duration="150"/>
    <frame tileid="39" duration="150"/>
    <frame tileid="42" duration="150"/>
    <frame tileid="45" duration="150"/>
    <frame tileid="48" duration="150"/>
    <frame tileid="30" duration="150"/>
    <frame tileid="30" duration="150"/>
    <frame tileid="30" duration="150"/>
    <frame tileid="30" duration="150"/>
    <frame tileid="30" duration="150"/>
    <frame tileid="30" duration="150"/>
    <frame tileid="30" duration="150"/>
    <frame tileid="30" duration="150"/>
    <frame tileid="30" duration="150"/>
    <frame tileid="30" duration="150"/>
    <frame tileid="30" duration="150"/>
   </animation>
  </tile>
  <tile id="56">
   <animation>
    <frame tileid="56" duration="150"/>
    <frame tileid="59" duration="150"/>
    <frame tileid="62" duration="150"/>
    <frame tileid="65" duration="150"/>
    <frame tileid="68" duration="150"/>
    <frame tileid="71" duration="150"/>
    <frame tileid="74" duration="150"/>
    <frame tileid="56" duration="150"/>
    <frame tileid="56" duration="150"/>
    <frame tileid="56" duration="150"/>
    <frame tileid="56" duration="150"/>
    <frame tileid="56" duration="150"/>
    <frame tileid="56" duration="150"/>
    <frame tileid="56" duration="150"/>
    <frame tileid="56" duration="150"/>
    <frame tileid="56" duration="150"/>
    <frame tileid="56" duration="150"/>
    <frame tileid="56" duration="150"/>
   </animation>
  </tile>
  <tile id="57">
   <animation>
    <frame tileid="57" duration="150"/>
    <frame tileid="60" duration="150"/>
    <frame tileid="63" duration="150"/>
    <frame tileid="66" duration="150"/>
    <frame tileid="69" duration="150"/>
    <frame tileid="72" duration="150"/>
    <frame tileid="75" duration="150"/>
    <frame tileid="57" duration="150"/>
    <frame tileid="57" duration="150"/>
    <frame tileid="57" duration="150"/>
    <frame tileid="57" duration="150"/>
    <frame tileid="57" duration="150"/>
    <frame tileid="57" duration="150"/>
    <frame tileid="57" duration="150"/>
    <frame tileid="57" duration="150"/>
    <frame tileid="57" duration="150"/>
    <frame tileid="57" duration="150"/>
    <frame tileid="57" duration="150"/>
   </animation>
  </tile>
  <tile id="58">
   <animation>
    <frame tileid="58" duration="150"/>
    <frame tileid="61" duration="150"/>
    <frame tileid="64" duration="150"/>
    <frame tileid="67" duration="150"/>
    <frame tileid="70" duration="150"/>
    <frame tileid="73" duration="150"/>
    <frame tileid="76" duration="150"/>
    <frame tileid="58" duration="150"/>
    <frame tileid="58" duration="150"/>
    <frame tileid="58" duration="150"/>
    <frame tileid="58" duration="150"/>
    <frame tileid="58" duration="150"/>
    <frame tileid="58" duration="150"/>
    <frame tileid="58" duration="150"/>
    <frame tileid="58" duration="150"/>
    <frame tileid="58" duration="150"/>
    <frame tileid="58" duration="150"/>
    <frame tileid="58" duration="150"/>
   </animation>
  </tile>
  <tile id="85">
   <animation>
    <frame tileid="85" duration="150"/>
    <frame tileid="88" duration="150"/>
    <frame tileid="91" duration="150"/>
    <frame tileid="94" duration="150"/>
    <frame tileid="97" duration="150"/>
    <frame tileid="100" duration="150"/>
    <frame tileid="103" duration="150"/>
    <frame tileid="85" duration="150"/>
    <frame tileid="85" duration="150"/>
    <frame tileid="85" duration="150"/>
    <frame tileid="85" duration="150"/>
    <frame tileid="85" duration="150"/>
    <frame tileid="85" duration="150"/>
    <frame tileid="85" duration="150"/>
    <frame tileid="85" duration="150"/>
    <frame tileid="85" duration="150"/>
    <frame tileid="85" duration="150"/>
    <frame tileid="85" duration="150"/>
   </animation>
  </tile>
  <tile id="112">
   <animation>
    <frame tileid="112" duration="150"/>
    <frame tileid="115" duration="150"/>
    <frame tileid="118" duration="150"/>
    <frame tileid="121" duration="150"/>
    <frame tileid="124" duration="150"/>
    <frame tileid="127" duration="150"/>
    <frame tileid="130" duration="150"/>
    <frame tileid="112" duration="150"/>
    <frame tileid="112" duration="150"/>
    <frame tileid="112" duration="150"/>
    <frame tileid="112" duration="150"/>
    <frame tileid="112" duration="150"/>
    <frame tileid="112" duration="150"/>
    <frame tileid="112" duration="150"/>
    <frame tileid="112" duration="150"/>
    <frame tileid="112" duration="150"/>
    <frame tileid="112" duration="150"/>
    <frame tileid="112" duration="150"/>
   </animation>
  </tile>
  <tile id="113">
   <animation>
    <frame tileid="113" duration="150"/>
    <frame tileid="116" duration="150"/>
    <frame tileid="119" duration="150"/>
    <frame tileid="122" duration="150"/>
    <frame tileid="125" duration="150"/>
    <frame tileid="128" duration="150"/>
    <frame tileid="131" duration="150"/>
    <frame tileid="113" duration="150"/>
    <frame tileid="113" duration="150"/>
    <frame tileid="113" duration="150"/>
    <frame tileid="113" duration="150"/>
    <frame tileid="113" duration="150"/>
    <frame tileid="113" duration="150"/>
    <frame tileid="113" duration="150"/>
    <frame tileid="113" duration="150"/>
    <frame tileid="113" duration="150"/>
    <frame tileid="113" duration="150"/>
    <frame tileid="113" duration="150"/>
   </animation>
  </tile>
  <tile id="114">
   <animation>
    <frame tileid="114" duration="150"/>
    <frame tileid="117" duration="150"/>
    <frame tileid="120" duration="150"/>
    <frame tileid="123" duration="150"/>
    <frame tileid="126" duration="150"/>
    <frame tileid="129" duration="150"/>
    <frame tileid="132" duration="150"/>
    <frame tileid="114" duration="150"/>
    <frame tileid="114" duration="150"/>
    <frame tileid="114" duration="150"/>
    <frame tileid="114" duration="150"/>
    <frame tileid="114" duration="150"/>
    <frame tileid="114" duration="150"/>
    <frame tileid="114" duration="150"/>
    <frame tileid="114" duration="150"/>
    <frame tileid="114" duration="150"/>
    <frame tileid="114" duration="150"/>
    <frame tileid="114" duration="150"/>
   </animation>
  </tile>
  <tile id="140">
   <animation>
    <frame tileid="140" duration="150"/>
    <frame tileid="143" duration="150"/>
    <frame tileid="146" duration="150"/>
    <frame tileid="149" duration="150"/>
    <frame tileid="152" duration="150"/>
    <frame tileid="155" duration="150"/>
    <frame tileid="158" duration="150"/>
    <frame tileid="140" duration="150"/>
    <frame tileid="140" duration="150"/>
    <frame tileid="140" duration="150"/>
    <frame tileid="140" duration="150"/>
    <frame tileid="140" duration="150"/>
    <frame tileid="140" duration="150"/>
    <frame tileid="140" duration="150"/>
    <frame tileid="140" duration="150"/>
    <frame tileid="140" duration="150"/>
    <frame tileid="140" duration="150"/>
    <frame tileid="140" duration="150"/>
   </animation>
  </tile>
  <tile id="141">
   <animation>
    <frame tileid="141" duration="150"/>
    <frame tileid="144" duration="150"/>
    <frame tileid="147" duration="150"/>
    <frame tileid="150" duration="150"/>
    <frame tileid="153" duration="150"/>
    <frame tileid="156" duration="150"/>
    <frame tileid="159" duration="150"/>
    <frame tileid="141" duration="150"/>
    <frame tileid="141" duration="150"/>
    <frame tileid="141" duration="150"/>
    <frame tileid="141" duration="150"/>
    <frame tileid="141" duration="150"/>
    <frame tileid="141" duration="150"/>
    <frame tileid="141" duration="150"/>
    <frame tileid="141" duration="150"/>
    <frame tileid="141" duration="150"/>
    <frame tileid="141" duration="150"/>
    <frame tileid="141" duration="150"/>
   </animation>
  </tile>
  <tile id="142">
   <animation>
    <frame tileid="142" duration="150"/>
    <frame tileid="145" duration="150"/>
    <frame tileid="148" duration="150"/>
    <frame tileid="151" duration="150"/>
    <frame tileid="154" duration="150"/>
    <frame tileid="157" duration="150"/>
    <frame tileid="160" duration="150"/>
    <frame tileid="142" duration="150"/>
    <frame tileid="142" duration="150"/>
    <frame tileid="142" duration="150"/>
    <frame tileid="142" duration="150"/>
    <frame tileid="142" duration="150"/>
    <frame tileid="142" duration="150"/>
    <frame tileid="142" duration="150"/>
    <frame tileid="142" duration="150"/>
    <frame tileid="142" duration="150"/>
    <frame tileid="142" duration="150"/>
    <frame tileid="142" duration="150"/>
   </animation>
  </tile>
  <tile id="169">
   <animation>
    <frame tileid="169" duration="150"/>
    <frame tileid="172" duration="150"/>
    <frame tileid="175" duration="150"/>
    <frame tileid="178" duration="150"/>
    <frame tileid="181" duration="150"/>
    <frame tileid="184" duration="150"/>
    <frame tileid="187" duration="150"/>
    <frame tileid="169" duration="150"/>
    <frame tileid="169" duration="150"/>
    <frame tileid="169" duration="150"/>
    <frame tileid="169" duration="150"/>
    <frame tileid="169" duration="150"/>
    <frame tileid="169" duration="150"/>
    <frame tileid="169" duration="150"/>
    <frame tileid="169" duration="150"/>
    <frame tileid="169" duration="150"/>
    <frame tileid="169" duration="150"/>
    <frame tileid="169" duration="150"/>
   </animation>
  </tile>
  <tile id="198">
   <animation>
    <frame tileid="198" duration="150"/>
    <frame tileid="202" duration="150"/>
    <frame tileid="206" duration="150"/>
    <frame tileid="210" duration="150"/>
    <frame tileid="214" duration="150"/>
    <frame tileid="218" duration="150"/>
    <frame tileid="222" duration="150"/>
    <frame tileid="198" duration="150"/>
    <frame tileid="198" duration="150"/>
    <frame tileid="198" duration="150"/>
    <frame tileid="198" duration="150"/>
    <frame tileid="198" duration="150"/>
    <frame tileid="198" duration="150"/>
    <frame tileid="198" duration="150"/>
    <frame tileid="198" duration="150"/>
    <frame tileid="198" duration="150"/>
    <frame tileid="198" duration="150"/>
    <frame tileid="198" duration="150"/>
   </animation>
  </tile>
  <tile id="199">
   <animation>
    <frame tileid="199" duration="150"/>
    <frame tileid="203" duration="150"/>
    <frame tileid="207" duration="150"/>
    <frame tileid="211" duration="150"/>
    <frame tileid="215" duration="150"/>
    <frame tileid="219" duration="150"/>
    <frame tileid="223" duration="150"/>
    <frame tileid="199" duration="150"/>
    <frame tileid="199" duration="150"/>
    <frame tileid="199" duration="150"/>
    <frame tileid="199" duration="150"/>
    <frame tileid="199" duration="150"/>
    <frame tileid="199" duration="150"/>
    <frame tileid="199" duration="150"/>
    <frame tileid="199" duration="150"/>
    <frame tileid="199" duration="150"/>
    <frame tileid="199" duration="150"/>
    <frame tileid="199" duration="150"/>
   </animation>
  </tile>
  <tile id="224">
   <animation>
    <frame tileid="224" duration="150"/>
    <frame tileid="228" duration="150"/>
    <frame tileid="232" duration="150"/>
    <frame tileid="236" duration="150"/>
    <frame tileid="240" duration="150"/>
    <frame tileid="244" duration="150"/>
    <frame tileid="248" duration="150"/>
    <frame tileid="224" duration="150"/>
    <frame tileid="224" duration="150"/>
    <frame tileid="224" duration="150"/>
    <frame tileid="224" duration="150"/>
    <frame tileid="224" duration="150"/>
    <frame tileid="224" duration="150"/>
    <frame tileid="224" duration="150"/>
    <frame tileid="224" duration="150"/>
    <frame tileid="224" duration="150"/>
    <frame tileid="224" duration="150"/>
    <frame tileid="224" duration="150"/>
   </animation>
  </tile>
  <tile id="225">
   <animation>
    <frame tileid="225" duration="150"/>
    <frame tileid="229" duration="150"/>
    <frame tileid="233" duration="150"/>
    <frame tileid="237" duration="150"/>
    <frame tileid="241" duration="150"/>
    <frame tileid="245" duration="150"/>
    <frame tileid="249" duration="150"/>
    <frame tileid="225" duration="150"/>
    <frame tileid="225" duration="150"/>
    <frame tileid="225" duration="150"/>
    <frame tileid="225" duration="150"/>
    <frame tileid="225" duration="150"/>
    <frame tileid="225" duration="150"/>
    <frame tileid="225" duration="150"/>
    <frame tileid="225" duration="150"/>
    <frame tileid="225" duration="150"/>
    <frame tileid="225" duration="150"/>
    <frame tileid="225" duration="150"/>
   </animation>
  </tile>
  <tile id="226">
   <animation>
    <frame tileid="226" duration="150"/>
    <frame tileid="230" duration="150"/>
    <frame tileid="234" duration="150"/>
    <frame tileid="238" duration="150"/>
    <frame tileid="242" duration="150"/>
    <frame tileid="246" duration="150"/>
    <frame tileid="250" duration="150"/>
    <frame tileid="226" duration="150"/>
    <frame tileid="226" duration="150"/>
    <frame tileid="226" duration="150"/>
    <frame tileid="226" duration="150"/>
    <frame tileid="226" duration="150"/>
    <frame tileid="226" duration="150"/>
    <frame tileid="226" duration="150"/>
    <frame tileid="226" duration="150"/>
    <frame tileid="226" duration="150"/>
    <frame tileid="226" duration="150"/>
    <frame tileid="226" duration="150"/>
   </animation>
  </tile>
  <tile id="227">
   <animation>
    <frame tileid="227" duration="150"/>
    <frame tileid="231" duration="150"/>
    <frame tileid="235" duration="150"/>
    <frame tileid="239" duration="150"/>
    <frame tileid="243" duration="150"/>
    <frame tileid="247" duration="150"/>
    <frame tileid="251" duration="150"/>
    <frame tileid="227" duration="150"/>
    <frame tileid="227" duration="150"/>
    <frame tileid="227" duration="150"/>
    <frame tileid="227" duration="150"/>
    <frame tileid="227" duration="150"/>
    <frame tileid="227" duration="150"/>
    <frame tileid="227" duration="150"/>
    <frame tileid="227" duration="150"/>
    <frame tileid="227" duration="150"/>
    <frame tileid="227" duration="150"/>
    <frame tileid="227" duration="150"/>
   </animation>
  </tile>
  <tile id="252">
   <animation>
    <frame tileid="252" duration="150"/>
    <frame tileid="256" duration="150"/>
    <frame tileid="260" duration="150"/>
    <frame tileid="264" duration="150"/>
    <frame tileid="268" duration="150"/>
    <frame tileid="272" duration="150"/>
    <frame tileid="276" duration="150"/>
    <frame tileid="252" duration="150"/>
    <frame tileid="252" duration="150"/>
    <frame tileid="252" duration="150"/>
    <frame tileid="252" duration="150"/>
    <frame tileid="252" duration="150"/>
    <frame tileid="252" duration="150"/>
    <frame tileid="252" duration="150"/>
    <frame tileid="252" duration="150"/>
    <frame tileid="252" duration="150"/>
    <frame tileid="252" duration="150"/>
    <frame tileid="252" duration="150"/>
   </animation>
  </tile>
  <tile id="253">
   <animation>
    <frame tileid="253" duration="150"/>
    <frame tileid="257" duration="150"/>
    <frame tileid="261" duration="150"/>
    <frame tileid="265" duration="150"/>
    <frame tileid="269" duration="150"/>
    <frame tileid="273" duration="150"/>
    <frame tileid="277" duration="150"/>
    <frame tileid="253" duration="150"/>
    <frame tileid="253" duration="150"/>
    <frame tileid="253" duration="150"/>
    <frame tileid="253" duration="150"/>
    <frame tileid="253" duration="150"/>
    <frame tileid="253" duration="150"/>
    <frame tileid="253" duration="150"/>
    <frame tileid="253" duration="150"/>
    <frame tileid="253" duration="150"/>
    <frame tileid="253" duration="150"/>
    <frame tileid="253" duration="150"/>
   </animation>
  </tile>
  <tile id="254">
   <animation>
    <frame tileid="254" duration="150"/>
    <frame tileid="258" duration="150"/>
    <frame tileid="262" duration="150"/>
    <frame tileid="266" duration="150"/>
    <frame tileid="270" duration="150"/>
    <frame tileid="274" duration="150"/>
    <frame tileid="278" duration="150"/>
    <frame tileid="254" duration="150"/>
    <frame tileid="254" duration="150"/>
    <frame tileid="254" duration="150"/>
    <frame tileid="254" duration="150"/>
    <frame tileid="254" duration="150"/>
    <frame tileid="254" duration="150"/>
    <frame tileid="254" duration="150"/>
    <frame tileid="254" duration="150"/>
    <frame tileid="254" duration="150"/>
    <frame tileid="254" duration="150"/>
    <frame tileid="254" duration="150"/>
   </animation>
  </tile>
  <tile id="255">
   <animation>
    <frame tileid="255" duration="150"/>
    <frame tileid="259" duration="150"/>
    <frame tileid="263" duration="150"/>
    <frame tileid="267" duration="150"/>
    <frame tileid="271" duration="150"/>
    <frame tileid="275" duration="150"/>
    <frame tileid="279" duration="150"/>
    <frame tileid="255" duration="150"/>
    <frame tileid="255" duration="150"/>
    <frame tileid="255" duration="150"/>
    <frame tileid="255" duration="150"/>
    <frame tileid="255" duration="150"/>
    <frame tileid="255" duration="150"/>
    <frame tileid="255" duration="150"/>
    <frame tileid="255" duration="150"/>
    <frame tileid="255" duration="150"/>
    <frame tileid="255" duration="150"/>
    <frame tileid="255" duration="150"/>
   </animation>
  </tile>
  <tile id="280">
   <animation>
    <frame tileid="280" duration="150"/>
    <frame tileid="284" duration="150"/>
    <frame tileid="288" duration="150"/>
    <frame tileid="292" duration="150"/>
    <frame tileid="296" duration="150"/>
    <frame tileid="300" duration="150"/>
    <frame tileid="304" duration="150"/>
    <frame tileid="280" duration="150"/>
    <frame tileid="280" duration="150"/>
    <frame tileid="280" duration="150"/>
    <frame tileid="280" duration="150"/>
    <frame tileid="280" duration="150"/>
    <frame tileid="280" duration="150"/>
    <frame tileid="280" duration="150"/>
    <frame tileid="280" duration="150"/>
    <frame tileid="280" duration="150"/>
    <frame tileid="280" duration="150"/>
    <frame tileid="280" duration="150"/>
   </animation>
  </tile>
  <tile id="281">
   <animation>
    <frame tileid="281" duration="150"/>
    <frame tileid="285" duration="150"/>
    <frame tileid="289" duration="150"/>
    <frame tileid="293" duration="150"/>
    <frame tileid="297" duration="150"/>
    <frame tileid="301" duration="150"/>
    <frame tileid="305" duration="150"/>
    <frame tileid="281" duration="150"/>
    <frame tileid="281" duration="150"/>
    <frame tileid="281" duration="150"/>
    <frame tileid="281" duration="150"/>
    <frame tileid="281" duration="150"/>
    <frame tileid="281" duration="150"/>
    <frame tileid="281" duration="150"/>
    <frame tileid="281" duration="150"/>
    <frame tileid="281" duration="150"/>
    <frame tileid="281" duration="150"/>
    <frame tileid="281" duration="150"/>
   </animation>
  </tile>
  <tile id="308">
   <animation>
    <frame tileid="308" duration="150"/>
    <frame tileid="312" duration="150"/>
    <frame tileid="316" duration="150"/>
    <frame tileid="320" duration="150"/>
    <frame tileid="324" duration="150"/>
    <frame tileid="328" duration="150"/>
    <frame tileid="332" duration="150"/>
    <frame tileid="308" duration="150"/>
    <frame tileid="308" duration="150"/>
    <frame tileid="308" duration="150"/>
    <frame tileid="308" duration="150"/>
    <frame tileid="308" duration="150"/>
    <frame tileid="308" duration="150"/>
    <frame tileid="308" duration="150"/>
    <frame tileid="308" duration="150"/>
    <frame tileid="308" duration="150"/>
    <frame tileid="308" duration="150"/>
    <frame tileid="308" duration="150"/>
   </animation>
  </tile>
  <tile id="309">
   <animation>
    <frame tileid="309" duration="150"/>
    <frame tileid="313" duration="150"/>
    <frame tileid="317" duration="150"/>
    <frame tileid="321" duration="150"/>
    <frame tileid="325" duration="150"/>
    <frame tileid="329" duration="150"/>
    <frame tileid="333" duration="150"/>
    <frame tileid="309" duration="150"/>
    <frame tileid="309" duration="150"/>
    <frame tileid="309" duration="150"/>
    <frame tileid="309" duration="150"/>
    <frame tileid="309" duration="150"/>
    <frame tileid="309" duration="150"/>
    <frame tileid="309" duration="150"/>
    <frame tileid="309" duration="150"/>
    <frame tileid="309" duration="150"/>
    <frame tileid="309" duration="150"/>
    <frame tileid="309" duration="150"/>
   </animation>
  </tile>
  <tile id="310">
   <animation>
    <frame tileid="310" duration="150"/>
    <frame tileid="314" duration="150"/>
    <frame tileid="318" duration="150"/>
    <frame tileid="322" duration="150"/>
    <frame tileid="326" duration="150"/>
    <frame tileid="330" duration="150"/>
    <frame tileid="334" duration="150"/>
    <frame tileid="310" duration="150"/>
    <frame tileid="310" duration="150"/>
    <frame tileid="310" duration="150"/>
    <frame tileid="310" duration="150"/>
    <frame tileid="310" duration="150"/>
    <frame tileid="310" duration="150"/>
    <frame tileid="310" duration="150"/>
    <frame tileid="310" duration="150"/>
    <frame tileid="310" duration="150"/>
    <frame tileid="310" duration="150"/>
    <frame tileid="310" duration="150"/>
   </animation>
  </tile>
  <tile id="311">
   <animation>
    <frame tileid="311" duration="150"/>
    <frame tileid="315" duration="150"/>
    <frame tileid="319" duration="150"/>
    <frame tileid="323" duration="150"/>
    <frame tileid="327" duration="150"/>
    <frame tileid="331" duration="150"/>
    <frame tileid="335" duration="150"/>
    <frame tileid="311" duration="150"/>
    <frame tileid="311" duration="150"/>
    <frame tileid="311" duration="150"/>
    <frame tileid="311" duration="150"/>
    <frame tileid="311" duration="150"/>
    <frame tileid="311" duration="150"/>
    <frame tileid="311" duration="150"/>
    <frame tileid="311" duration="150"/>
    <frame tileid="311" duration="150"/>
    <frame tileid="311" duration="150"/>
    <frame tileid="311" duration="150"/>
   </animation>
  </tile>
  <tile id="336">
   <animation>
    <frame tileid="336" duration="150"/>
    <frame tileid="340" duration="150"/>
    <frame tileid="344" duration="150"/>
    <frame tileid="348" duration="150"/>
    <frame tileid="352" duration="150"/>
    <frame tileid="356" duration="150"/>
    <frame tileid="360" duration="150"/>
    <frame tileid="336" duration="150"/>
    <frame tileid="336" duration="150"/>
    <frame tileid="336" duration="150"/>
    <frame tileid="336" duration="150"/>
    <frame tileid="336" duration="150"/>
    <frame tileid="336" duration="150"/>
    <frame tileid="336" duration="150"/>
    <frame tileid="336" duration="150"/>
    <frame tileid="336" duration="150"/>
    <frame tileid="336" duration="150"/>
    <frame tileid="336" duration="150"/>
   </animation>
  </tile>
  <tile id="337">
   <animation>
    <frame tileid="337" duration="150"/>
    <frame tileid="341" duration="150"/>
    <frame tileid="345" duration="150"/>
    <frame tileid="349" duration="150"/>
    <frame tileid="353" duration="150"/>
    <frame tileid="357" duration="150"/>
    <frame tileid="361" duration="150"/>
    <frame tileid="337" duration="150"/>
    <frame tileid="337" duration="150"/>
    <frame tileid="337" duration="150"/>
    <frame tileid="337" duration="150"/>
    <frame tileid="337" duration="150"/>
    <frame tileid="337" duration="150"/>
    <frame tileid="337" duration="150"/>
    <frame tileid="337" duration="150"/>
    <frame tileid="337" duration="150"/>
    <frame tileid="337" duration="150"/>
    <frame tileid="337" duration="150"/>
   </animation>
  </tile>
  <tile id="338">
   <animation>
    <frame tileid="338" duration="150"/>
    <frame tileid="342" duration="150"/>
    <frame tileid="346" duration="150"/>
    <frame tileid="350" duration="150"/>
    <frame tileid="354" duration="150"/>
    <frame tileid="358" duration="150"/>
    <frame tileid="362" duration="150"/>
    <frame tileid="338" duration="150"/>
    <frame tileid="338" duration="150"/>
    <frame tileid="338" duration="150"/>
    <frame tileid="338" duration="150"/>
    <frame tileid="338" duration="150"/>
    <frame tileid="338" duration="150"/>
    <frame tileid="338" duration="150"/>
    <frame tileid="338" duration="150"/>
    <frame tileid="338" duration="150"/>
    <frame tileid="338" duration="150"/>
    <frame tileid="338" duration="150"/>
   </animation>
  </tile>
  <tile id="339">
   <animation>
    <frame tileid="339" duration="150"/>
    <frame tileid="343" duration="150"/>
    <frame tileid="347" duration="150"/>
    <frame tileid="351" duration="150"/>
    <frame tileid="355" duration="150"/>
    <frame tileid="359" duration="150"/>
    <frame tileid="363" duration="150"/>
    <frame tileid="339" duration="150"/>
    <frame tileid="339" duration="150"/>
    <frame tileid="339" duration="150"/>
    <frame tileid="339" duration="150"/>
    <frame tileid="339" duration="150"/>
    <frame tileid="339" duration="150"/>
    <frame tileid="339" duration="150"/>
    <frame tileid="339" duration="150"/>
    <frame tileid="339" duration="150"/>
    <frame tileid="339" duration="150"/>
    <frame tileid="339" duration="150"/>
   </animation>
  </tile>
 </tileset>
 <tileset firstgid="2309" name="Mage3" tilewidth="16" tileheight="16" tilecount="364" columns="28">
  <image source="../../Art/Guild/Mage3.png" width="448" height="208"/>
  <tile id="0">
   <animation>
    <frame tileid="0" duration="150"/>
    <frame tileid="3" duration="150"/>
    <frame tileid="6" duration="150"/>
    <frame tileid="9" duration="150"/>
    <frame tileid="12" duration="150"/>
    <frame tileid="15" duration="150"/>
    <frame tileid="18" duration="150"/>
    <frame tileid="0" duration="150"/>
    <frame tileid="0" duration="150"/>
    <frame tileid="0" duration="150"/>
    <frame tileid="0" duration="150"/>
    <frame tileid="0" duration="150"/>
    <frame tileid="0" duration="150"/>
    <frame tileid="0" duration="150"/>
    <frame tileid="0" duration="150"/>
    <frame tileid="0" duration="150"/>
    <frame tileid="0" duration="150"/>
    <frame tileid="0" duration="150"/>
   </animation>
  </tile>
  <tile id="1">
   <animation>
    <frame tileid="1" duration="150"/>
    <frame tileid="4" duration="150"/>
    <frame tileid="7" duration="150"/>
    <frame tileid="10" duration="150"/>
    <frame tileid="13" duration="150"/>
    <frame tileid="16" duration="150"/>
    <frame tileid="19" duration="150"/>
    <frame tileid="1" duration="150"/>
    <frame tileid="1" duration="150"/>
    <frame tileid="1" duration="150"/>
    <frame tileid="1" duration="150"/>
    <frame tileid="1" duration="150"/>
    <frame tileid="1" duration="150"/>
    <frame tileid="1" duration="150"/>
    <frame tileid="1" duration="150"/>
    <frame tileid="1" duration="150"/>
    <frame tileid="1" duration="150"/>
    <frame tileid="1" duration="150"/>
   </animation>
  </tile>
  <tile id="2">
   <animation>
    <frame tileid="2" duration="150"/>
    <frame tileid="5" duration="150"/>
    <frame tileid="8" duration="150"/>
    <frame tileid="11" duration="150"/>
    <frame tileid="14" duration="150"/>
    <frame tileid="17" duration="150"/>
    <frame tileid="20" duration="150"/>
    <frame tileid="2" duration="150"/>
    <frame tileid="2" duration="150"/>
    <frame tileid="2" duration="150"/>
    <frame tileid="2" duration="150"/>
    <frame tileid="2" duration="150"/>
    <frame tileid="2" duration="150"/>
    <frame tileid="2" duration="150"/>
    <frame tileid="2" duration="150"/>
    <frame tileid="2" duration="150"/>
    <frame tileid="2" duration="150"/>
    <frame tileid="2" duration="150"/>
   </animation>
  </tile>
  <tile id="28">
   <animation>
    <frame tileid="28" duration="150"/>
    <frame tileid="31" duration="150"/>
    <frame tileid="34" duration="150"/>
    <frame tileid="37" duration="150"/>
    <frame tileid="40" duration="150"/>
    <frame tileid="43" duration="150"/>
    <frame tileid="46" duration="150"/>
    <frame tileid="28" duration="150"/>
    <frame tileid="28" duration="150"/>
    <frame tileid="28" duration="150"/>
    <frame tileid="28" duration="150"/>
    <frame tileid="28" duration="150"/>
    <frame tileid="28" duration="150"/>
    <frame tileid="28" duration="150"/>
    <frame tileid="28" duration="150"/>
    <frame tileid="28" duration="150"/>
    <frame tileid="28" duration="150"/>
    <frame tileid="28" duration="150"/>
   </animation>
  </tile>
  <tile id="29">
   <animation>
    <frame tileid="29" duration="150"/>
    <frame tileid="32" duration="150"/>
    <frame tileid="35" duration="150"/>
    <frame tileid="38" duration="150"/>
    <frame tileid="41" duration="150"/>
    <frame tileid="44" duration="150"/>
    <frame tileid="47" duration="150"/>
    <frame tileid="29" duration="150"/>
    <frame tileid="29" duration="150"/>
    <frame tileid="29" duration="150"/>
    <frame tileid="29" duration="150"/>
    <frame tileid="29" duration="150"/>
    <frame tileid="29" duration="150"/>
    <frame tileid="29" duration="150"/>
    <frame tileid="29" duration="150"/>
    <frame tileid="29" duration="150"/>
    <frame tileid="29" duration="150"/>
    <frame tileid="29" duration="150"/>
   </animation>
  </tile>
  <tile id="30">
   <animation>
    <frame tileid="30" duration="150"/>
    <frame tileid="33" duration="150"/>
    <frame tileid="36" duration="150"/>
    <frame tileid="39" duration="150"/>
    <frame tileid="42" duration="150"/>
    <frame tileid="45" duration="150"/>
    <frame tileid="48" duration="150"/>
    <frame tileid="30" duration="150"/>
    <frame tileid="30" duration="150"/>
    <frame tileid="30" duration="150"/>
    <frame tileid="30" duration="150"/>
    <frame tileid="30" duration="150"/>
    <frame tileid="30" duration="150"/>
    <frame tileid="30" duration="150"/>
    <frame tileid="30" duration="150"/>
    <frame tileid="30" duration="150"/>
    <frame tileid="30" duration="150"/>
    <frame tileid="30" duration="150"/>
   </animation>
  </tile>
  <tile id="56">
   <animation>
    <frame tileid="56" duration="150"/>
    <frame tileid="59" duration="150"/>
    <frame tileid="62" duration="150"/>
    <frame tileid="65" duration="150"/>
    <frame tileid="68" duration="150"/>
    <frame tileid="71" duration="150"/>
    <frame tileid="74" duration="150"/>
    <frame tileid="56" duration="150"/>
    <frame tileid="56" duration="150"/>
    <frame tileid="56" duration="150"/>
    <frame tileid="56" duration="150"/>
    <frame tileid="56" duration="150"/>
    <frame tileid="56" duration="150"/>
    <frame tileid="56" duration="150"/>
    <frame tileid="56" duration="150"/>
    <frame tileid="56" duration="150"/>
    <frame tileid="56" duration="150"/>
    <frame tileid="56" duration="150"/>
   </animation>
  </tile>
  <tile id="57">
   <animation>
    <frame tileid="57" duration="150"/>
    <frame tileid="60" duration="150"/>
    <frame tileid="63" duration="150"/>
    <frame tileid="66" duration="150"/>
    <frame tileid="69" duration="150"/>
    <frame tileid="72" duration="150"/>
    <frame tileid="75" duration="150"/>
    <frame tileid="57" duration="150"/>
    <frame tileid="57" duration="150"/>
    <frame tileid="57" duration="150"/>
    <frame tileid="57" duration="150"/>
    <frame tileid="57" duration="150"/>
    <frame tileid="57" duration="150"/>
    <frame tileid="57" duration="150"/>
    <frame tileid="57" duration="150"/>
    <frame tileid="57" duration="150"/>
    <frame tileid="57" duration="150"/>
    <frame tileid="57" duration="150"/>
   </animation>
  </tile>
  <tile id="58">
   <animation>
    <frame tileid="58" duration="150"/>
    <frame tileid="61" duration="150"/>
    <frame tileid="64" duration="150"/>
    <frame tileid="67" duration="150"/>
    <frame tileid="70" duration="150"/>
    <frame tileid="73" duration="150"/>
    <frame tileid="76" duration="150"/>
    <frame tileid="58" duration="150"/>
    <frame tileid="58" duration="150"/>
    <frame tileid="58" duration="150"/>
    <frame tileid="58" duration="150"/>
    <frame tileid="58" duration="150"/>
    <frame tileid="58" duration="150"/>
    <frame tileid="58" duration="150"/>
    <frame tileid="58" duration="150"/>
    <frame tileid="58" duration="150"/>
    <frame tileid="58" duration="150"/>
    <frame tileid="58" duration="150"/>
   </animation>
  </tile>
  <tile id="85">
   <animation>
    <frame tileid="85" duration="150"/>
    <frame tileid="88" duration="150"/>
    <frame tileid="91" duration="150"/>
    <frame tileid="94" duration="150"/>
    <frame tileid="97" duration="150"/>
    <frame tileid="100" duration="150"/>
    <frame tileid="103" duration="150"/>
    <frame tileid="85" duration="150"/>
    <frame tileid="85" duration="150"/>
    <frame tileid="85" duration="150"/>
    <frame tileid="85" duration="150"/>
    <frame tileid="85" duration="150"/>
    <frame tileid="85" duration="150"/>
    <frame tileid="85" duration="150"/>
    <frame tileid="85" duration="150"/>
    <frame tileid="85" duration="150"/>
    <frame tileid="85" duration="150"/>
    <frame tileid="85" duration="150"/>
   </animation>
  </tile>
  <tile id="112">
   <animation>
    <frame tileid="112" duration="150"/>
    <frame tileid="115" duration="150"/>
    <frame tileid="118" duration="150"/>
    <frame tileid="121" duration="150"/>
    <frame tileid="124" duration="150"/>
    <frame tileid="127" duration="150"/>
    <frame tileid="130" duration="150"/>
    <frame tileid="112" duration="150"/>
    <frame tileid="112" duration="150"/>
    <frame tileid="112" duration="150"/>
    <frame tileid="112" duration="150"/>
    <frame tileid="112" duration="150"/>
    <frame tileid="112" duration="150"/>
    <frame tileid="112" duration="150"/>
    <frame tileid="112" duration="150"/>
    <frame tileid="112" duration="150"/>
    <frame tileid="112" duration="150"/>
    <frame tileid="112" duration="150"/>
   </animation>
  </tile>
  <tile id="113">
   <animation>
    <frame tileid="113" duration="150"/>
    <frame tileid="116" duration="150"/>
    <frame tileid="119" duration="150"/>
    <frame tileid="122" duration="150"/>
    <frame tileid="125" duration="150"/>
    <frame tileid="128" duration="150"/>
    <frame tileid="131" duration="150"/>
    <frame tileid="113" duration="150"/>
    <frame tileid="113" duration="150"/>
    <frame tileid="113" duration="150"/>
    <frame tileid="113" duration="150"/>
    <frame tileid="113" duration="150"/>
    <frame tileid="113" duration="150"/>
    <frame tileid="113" duration="150"/>
    <frame tileid="113" duration="150"/>
    <frame tileid="113" duration="150"/>
    <frame tileid="113" duration="150"/>
    <frame tileid="113" duration="150"/>
   </animation>
  </tile>
  <tile id="114">
   <animation>
    <frame tileid="114" duration="150"/>
    <frame tileid="117" duration="150"/>
    <frame tileid="120" duration="150"/>
    <frame tileid="123" duration="150"/>
    <frame tileid="126" duration="150"/>
    <frame tileid="129" duration="150"/>
    <frame tileid="132" duration="150"/>
    <frame tileid="114" duration="150"/>
    <frame tileid="114" duration="150"/>
    <frame tileid="114" duration="150"/>
    <frame tileid="114" duration="150"/>
    <frame tileid="114" duration="150"/>
    <frame tileid="114" duration="150"/>
    <frame tileid="114" duration="150"/>
    <frame tileid="114" duration="150"/>
    <frame tileid="114" duration="150"/>
    <frame tileid="114" duration="150"/>
    <frame tileid="114" duration="150"/>
   </animation>
  </tile>
  <tile id="140">
   <animation>
    <frame tileid="140" duration="150"/>
    <frame tileid="143" duration="150"/>
    <frame tileid="146" duration="150"/>
    <frame tileid="149" duration="150"/>
    <frame tileid="152" duration="150"/>
    <frame tileid="155" duration="150"/>
    <frame tileid="158" duration="150"/>
    <frame tileid="140" duration="150"/>
    <frame tileid="140" duration="150"/>
    <frame tileid="140" duration="150"/>
    <frame tileid="140" duration="150"/>
    <frame tileid="140" duration="150"/>
    <frame tileid="140" duration="150"/>
    <frame tileid="140" duration="150"/>
    <frame tileid="140" duration="150"/>
    <frame tileid="140" duration="150"/>
    <frame tileid="140" duration="150"/>
    <frame tileid="140" duration="150"/>
   </animation>
  </tile>
  <tile id="141">
   <animation>
    <frame tileid="141" duration="150"/>
    <frame tileid="144" duration="150"/>
    <frame tileid="147" duration="150"/>
    <frame tileid="150" duration="150"/>
    <frame tileid="153" duration="150"/>
    <frame tileid="156" duration="150"/>
    <frame tileid="159" duration="150"/>
    <frame tileid="141" duration="150"/>
    <frame tileid="141" duration="150"/>
    <frame tileid="141" duration="150"/>
    <frame tileid="141" duration="150"/>
    <frame tileid="141" duration="150"/>
    <frame tileid="141" duration="150"/>
    <frame tileid="141" duration="150"/>
    <frame tileid="141" duration="150"/>
    <frame tileid="141" duration="150"/>
    <frame tileid="141" duration="150"/>
    <frame tileid="141" duration="150"/>
   </animation>
  </tile>
  <tile id="142">
   <animation>
    <frame tileid="142" duration="150"/>
    <frame tileid="145" duration="150"/>
    <frame tileid="148" duration="150"/>
    <frame tileid="151" duration="150"/>
    <frame tileid="154" duration="150"/>
    <frame tileid="157" duration="150"/>
    <frame tileid="160" duration="150"/>
    <frame tileid="142" duration="150"/>
    <frame tileid="142" duration="150"/>
    <frame tileid="142" duration="150"/>
    <frame tileid="142" duration="150"/>
    <frame tileid="142" duration="150"/>
    <frame tileid="142" duration="150"/>
    <frame tileid="142" duration="150"/>
    <frame tileid="142" duration="150"/>
    <frame tileid="142" duration="150"/>
    <frame tileid="142" duration="150"/>
    <frame tileid="142" duration="150"/>
   </animation>
  </tile>
  <tile id="169">
   <animation>
    <frame tileid="169" duration="150"/>
    <frame tileid="172" duration="150"/>
    <frame tileid="175" duration="150"/>
    <frame tileid="178" duration="150"/>
    <frame tileid="181" duration="150"/>
    <frame tileid="184" duration="150"/>
    <frame tileid="187" duration="150"/>
    <frame tileid="169" duration="150"/>
    <frame tileid="169" duration="150"/>
    <frame tileid="169" duration="150"/>
    <frame tileid="169" duration="150"/>
    <frame tileid="169" duration="150"/>
    <frame tileid="169" duration="150"/>
    <frame tileid="169" duration="150"/>
    <frame tileid="169" duration="150"/>
    <frame tileid="169" duration="150"/>
    <frame tileid="169" duration="150"/>
    <frame tileid="169" duration="150"/>
   </animation>
  </tile>
  <tile id="198">
   <animation>
    <frame tileid="198" duration="150"/>
    <frame tileid="202" duration="150"/>
    <frame tileid="206" duration="150"/>
    <frame tileid="210" duration="150"/>
    <frame tileid="214" duration="150"/>
    <frame tileid="218" duration="150"/>
    <frame tileid="222" duration="150"/>
    <frame tileid="198" duration="150"/>
    <frame tileid="198" duration="150"/>
    <frame tileid="198" duration="150"/>
    <frame tileid="198" duration="150"/>
    <frame tileid="198" duration="150"/>
    <frame tileid="198" duration="150"/>
    <frame tileid="198" duration="150"/>
    <frame tileid="198" duration="150"/>
    <frame tileid="198" duration="150"/>
    <frame tileid="198" duration="150"/>
    <frame tileid="198" duration="150"/>
   </animation>
  </tile>
  <tile id="199">
   <animation>
    <frame tileid="199" duration="150"/>
    <frame tileid="203" duration="150"/>
    <frame tileid="207" duration="150"/>
    <frame tileid="211" duration="150"/>
    <frame tileid="215" duration="150"/>
    <frame tileid="219" duration="150"/>
    <frame tileid="223" duration="150"/>
    <frame tileid="199" duration="150"/>
    <frame tileid="199" duration="150"/>
    <frame tileid="199" duration="150"/>
    <frame tileid="199" duration="150"/>
    <frame tileid="199" duration="150"/>
    <frame tileid="199" duration="150"/>
    <frame tileid="199" duration="150"/>
    <frame tileid="199" duration="150"/>
    <frame tileid="199" duration="150"/>
    <frame tileid="199" duration="150"/>
    <frame tileid="199" duration="150"/>
   </animation>
  </tile>
  <tile id="224">
   <animation>
    <frame tileid="224" duration="150"/>
    <frame tileid="228" duration="150"/>
    <frame tileid="232" duration="150"/>
    <frame tileid="236" duration="150"/>
    <frame tileid="240" duration="150"/>
    <frame tileid="244" duration="150"/>
    <frame tileid="248" duration="150"/>
    <frame tileid="224" duration="150"/>
    <frame tileid="224" duration="150"/>
    <frame tileid="224" duration="150"/>
    <frame tileid="224" duration="150"/>
    <frame tileid="224" duration="150"/>
    <frame tileid="224" duration="150"/>
    <frame tileid="224" duration="150"/>
    <frame tileid="224" duration="150"/>
    <frame tileid="224" duration="150"/>
    <frame tileid="224" duration="150"/>
    <frame tileid="224" duration="150"/>
   </animation>
  </tile>
  <tile id="225">
   <animation>
    <frame tileid="225" duration="150"/>
    <frame tileid="229" duration="150"/>
    <frame tileid="233" duration="150"/>
    <frame tileid="237" duration="150"/>
    <frame tileid="241" duration="150"/>
    <frame tileid="245" duration="150"/>
    <frame tileid="249" duration="150"/>
    <frame tileid="225" duration="150"/>
    <frame tileid="225" duration="150"/>
    <frame tileid="225" duration="150"/>
    <frame tileid="225" duration="150"/>
    <frame tileid="225" duration="150"/>
    <frame tileid="225" duration="150"/>
    <frame tileid="225" duration="150"/>
    <frame tileid="225" duration="150"/>
    <frame tileid="225" duration="150"/>
    <frame tileid="225" duration="150"/>
    <frame tileid="225" duration="150"/>
   </animation>
  </tile>
  <tile id="226">
   <animation>
    <frame tileid="226" duration="150"/>
    <frame tileid="230" duration="150"/>
    <frame tileid="234" duration="150"/>
    <frame tileid="238" duration="150"/>
    <frame tileid="242" duration="150"/>
    <frame tileid="246" duration="150"/>
    <frame tileid="250" duration="150"/>
    <frame tileid="226" duration="150"/>
    <frame tileid="226" duration="150"/>
    <frame tileid="226" duration="150"/>
    <frame tileid="226" duration="150"/>
    <frame tileid="226" duration="150"/>
    <frame tileid="226" duration="150"/>
    <frame tileid="226" duration="150"/>
    <frame tileid="226" duration="150"/>
    <frame tileid="226" duration="150"/>
    <frame tileid="226" duration="150"/>
    <frame tileid="226" duration="150"/>
   </animation>
  </tile>
  <tile id="227">
   <animation>
    <frame tileid="227" duration="150"/>
    <frame tileid="231" duration="150"/>
    <frame tileid="235" duration="150"/>
    <frame tileid="239" duration="150"/>
    <frame tileid="243" duration="150"/>
    <frame tileid="247" duration="150"/>
    <frame tileid="251" duration="150"/>
    <frame tileid="227" duration="150"/>
    <frame tileid="227" duration="150"/>
    <frame tileid="227" duration="150"/>
    <frame tileid="227" duration="150"/>
    <frame tileid="227" duration="150"/>
    <frame tileid="227" duration="150"/>
    <frame tileid="227" duration="150"/>
    <frame tileid="227" duration="150"/>
    <frame tileid="227" duration="150"/>
    <frame tileid="227" duration="150"/>
    <frame tileid="227" duration="150"/>
   </animation>
  </tile>
  <tile id="252">
   <animation>
    <frame tileid="252" duration="150"/>
    <frame tileid="256" duration="150"/>
    <frame tileid="260" duration="150"/>
    <frame tileid="264" duration="150"/>
    <frame tileid="268" duration="150"/>
    <frame tileid="272" duration="150"/>
    <frame tileid="276" duration="150"/>
    <frame tileid="252" duration="150"/>
    <frame tileid="252" duration="150"/>
    <frame tileid="252" duration="150"/>
    <frame tileid="252" duration="150"/>
    <frame tileid="252" duration="150"/>
    <frame tileid="252" duration="150"/>
    <frame tileid="252" duration="150"/>
    <frame tileid="252" duration="150"/>
    <frame tileid="252" duration="150"/>
    <frame tileid="252" duration="150"/>
    <frame tileid="252" duration="150"/>
   </animation>
  </tile>
  <tile id="253">
   <animation>
    <frame tileid="253" duration="150"/>
    <frame tileid="257" duration="150"/>
    <frame tileid="261" duration="150"/>
    <frame tileid="265" duration="150"/>
    <frame tileid="269" duration="150"/>
    <frame tileid="273" duration="150"/>
    <frame tileid="277" duration="150"/>
    <frame tileid="253" duration="150"/>
    <frame tileid="253" duration="150"/>
    <frame tileid="253" duration="150"/>
    <frame tileid="253" duration="150"/>
    <frame tileid="253" duration="150"/>
    <frame tileid="253" duration="150"/>
    <frame tileid="253" duration="150"/>
    <frame tileid="253" duration="150"/>
    <frame tileid="253" duration="150"/>
    <frame tileid="253" duration="150"/>
    <frame tileid="253" duration="150"/>
   </animation>
  </tile>
  <tile id="254">
   <animation>
    <frame tileid="254" duration="150"/>
    <frame tileid="258" duration="150"/>
    <frame tileid="262" duration="150"/>
    <frame tileid="266" duration="150"/>
    <frame tileid="270" duration="150"/>
    <frame tileid="274" duration="150"/>
    <frame tileid="278" duration="150"/>
    <frame tileid="254" duration="150"/>
    <frame tileid="254" duration="150"/>
    <frame tileid="254" duration="150"/>
    <frame tileid="254" duration="150"/>
    <frame tileid="254" duration="150"/>
    <frame tileid="254" duration="150"/>
    <frame tileid="254" duration="150"/>
    <frame tileid="254" duration="150"/>
    <frame tileid="254" duration="150"/>
    <frame tileid="254" duration="150"/>
    <frame tileid="254" duration="150"/>
   </animation>
  </tile>
  <tile id="255">
   <animation>
    <frame tileid="255" duration="150"/>
    <frame tileid="259" duration="150"/>
    <frame tileid="263" duration="150"/>
    <frame tileid="267" duration="150"/>
    <frame tileid="271" duration="150"/>
    <frame tileid="275" duration="150"/>
    <frame tileid="279" duration="150"/>
    <frame tileid="255" duration="150"/>
    <frame tileid="255" duration="150"/>
    <frame tileid="255" duration="150"/>
    <frame tileid="255" duration="150"/>
    <frame tileid="255" duration="150"/>
    <frame tileid="255" duration="150"/>
    <frame tileid="255" duration="150"/>
    <frame tileid="255" duration="150"/>
    <frame tileid="255" duration="150"/>
    <frame tileid="255" duration="150"/>
    <frame tileid="255" duration="150"/>
   </animation>
  </tile>
  <tile id="280">
   <animation>
    <frame tileid="280" duration="150"/>
    <frame tileid="284" duration="150"/>
    <frame tileid="288" duration="150"/>
    <frame tileid="292" duration="150"/>
    <frame tileid="296" duration="150"/>
    <frame tileid="300" duration="150"/>
    <frame tileid="304" duration="150"/>
    <frame tileid="280" duration="150"/>
    <frame tileid="280" duration="150"/>
    <frame tileid="280" duration="150"/>
    <frame tileid="280" duration="150"/>
    <frame tileid="280" duration="150"/>
    <frame tileid="280" duration="150"/>
    <frame tileid="280" duration="150"/>
    <frame tileid="280" duration="150"/>
    <frame tileid="280" duration="150"/>
    <frame tileid="280" duration="150"/>
    <frame tileid="280" duration="150"/>
   </animation>
  </tile>
  <tile id="281">
   <animation>
    <frame tileid="281" duration="150"/>
    <frame tileid="285" duration="150"/>
    <frame tileid="289" duration="150"/>
    <frame tileid="293" duration="150"/>
    <frame tileid="297" duration="150"/>
    <frame tileid="301" duration="150"/>
    <frame tileid="305" duration="150"/>
    <frame tileid="281" duration="150"/>
    <frame tileid="281" duration="150"/>
    <frame tileid="281" duration="150"/>
    <frame tileid="281" duration="150"/>
    <frame tileid="281" duration="150"/>
    <frame tileid="281" duration="150"/>
    <frame tileid="281" duration="150"/>
    <frame tileid="281" duration="150"/>
    <frame tileid="281" duration="150"/>
    <frame tileid="281" duration="150"/>
    <frame tileid="281" duration="150"/>
   </animation>
  </tile>
  <tile id="308">
   <animation>
    <frame tileid="308" duration="150"/>
    <frame tileid="312" duration="150"/>
    <frame tileid="316" duration="150"/>
    <frame tileid="320" duration="150"/>
    <frame tileid="324" duration="150"/>
    <frame tileid="328" duration="150"/>
    <frame tileid="332" duration="150"/>
    <frame tileid="308" duration="150"/>
    <frame tileid="308" duration="150"/>
    <frame tileid="308" duration="150"/>
    <frame tileid="308" duration="150"/>
    <frame tileid="308" duration="150"/>
    <frame tileid="308" duration="150"/>
    <frame tileid="308" duration="150"/>
    <frame tileid="308" duration="150"/>
    <frame tileid="308" duration="150"/>
    <frame tileid="308" duration="150"/>
    <frame tileid="308" duration="150"/>
   </animation>
  </tile>
  <tile id="309">
   <animation>
    <frame tileid="309" duration="150"/>
    <frame tileid="313" duration="150"/>
    <frame tileid="317" duration="150"/>
    <frame tileid="321" duration="150"/>
    <frame tileid="325" duration="150"/>
    <frame tileid="329" duration="150"/>
    <frame tileid="333" duration="150"/>
    <frame tileid="309" duration="150"/>
    <frame tileid="309" duration="150"/>
    <frame tileid="309" duration="150"/>
    <frame tileid="309" duration="150"/>
    <frame tileid="309" duration="150"/>
    <frame tileid="309" duration="150"/>
    <frame tileid="309" duration="150"/>
    <frame tileid="309" duration="150"/>
    <frame tileid="309" duration="150"/>
    <frame tileid="309" duration="150"/>
    <frame tileid="309" duration="150"/>
   </animation>
  </tile>
  <tile id="310">
   <animation>
    <frame tileid="310" duration="150"/>
    <frame tileid="314" duration="150"/>
    <frame tileid="318" duration="150"/>
    <frame tileid="322" duration="150"/>
    <frame tileid="326" duration="150"/>
    <frame tileid="330" duration="150"/>
    <frame tileid="334" duration="150"/>
    <frame tileid="310" duration="150"/>
    <frame tileid="310" duration="150"/>
    <frame tileid="310" duration="150"/>
    <frame tileid="310" duration="150"/>
    <frame tileid="310" duration="150"/>
    <frame tileid="310" duration="150"/>
    <frame tileid="310" duration="150"/>
    <frame tileid="310" duration="150"/>
    <frame tileid="310" duration="150"/>
    <frame tileid="310" duration="150"/>
    <frame tileid="310" duration="150"/>
   </animation>
  </tile>
  <tile id="311">
   <animation>
    <frame tileid="311" duration="150"/>
    <frame tileid="315" duration="150"/>
    <frame tileid="319" duration="150"/>
    <frame tileid="323" duration="150"/>
    <frame tileid="327" duration="150"/>
    <frame tileid="331" duration="150"/>
    <frame tileid="335" duration="150"/>
    <frame tileid="311" duration="150"/>
    <frame tileid="311" duration="150"/>
    <frame tileid="311" duration="150"/>
    <frame tileid="311" duration="150"/>
    <frame tileid="311" duration="150"/>
    <frame tileid="311" duration="150"/>
    <frame tileid="311" duration="150"/>
    <frame tileid="311" duration="150"/>
    <frame tileid="311" duration="150"/>
    <frame tileid="311" duration="150"/>
    <frame tileid="311" duration="150"/>
   </animation>
  </tile>
  <tile id="336">
   <animation>
    <frame tileid="336" duration="150"/>
    <frame tileid="340" duration="150"/>
    <frame tileid="344" duration="150"/>
    <frame tileid="348" duration="150"/>
    <frame tileid="352" duration="150"/>
    <frame tileid="356" duration="150"/>
    <frame tileid="360" duration="150"/>
    <frame tileid="336" duration="150"/>
    <frame tileid="336" duration="150"/>
    <frame tileid="336" duration="150"/>
    <frame tileid="336" duration="150"/>
    <frame tileid="336" duration="150"/>
    <frame tileid="336" duration="150"/>
    <frame tileid="336" duration="150"/>
    <frame tileid="336" duration="150"/>
    <frame tileid="336" duration="150"/>
    <frame tileid="336" duration="150"/>
    <frame tileid="336" duration="150"/>
   </animation>
  </tile>
  <tile id="337">
   <animation>
    <frame tileid="337" duration="150"/>
    <frame tileid="341" duration="150"/>
    <frame tileid="345" duration="150"/>
    <frame tileid="349" duration="150"/>
    <frame tileid="353" duration="150"/>
    <frame tileid="357" duration="150"/>
    <frame tileid="361" duration="150"/>
    <frame tileid="337" duration="150"/>
    <frame tileid="337" duration="150"/>
    <frame tileid="337" duration="150"/>
    <frame tileid="337" duration="150"/>
    <frame tileid="337" duration="150"/>
    <frame tileid="337" duration="150"/>
    <frame tileid="337" duration="150"/>
    <frame tileid="337" duration="150"/>
    <frame tileid="337" duration="150"/>
    <frame tileid="337" duration="150"/>
    <frame tileid="337" duration="150"/>
   </animation>
  </tile>
  <tile id="338">
   <animation>
    <frame tileid="338" duration="150"/>
    <frame tileid="342" duration="150"/>
    <frame tileid="346" duration="150"/>
    <frame tileid="350" duration="150"/>
    <frame tileid="354" duration="150"/>
    <frame tileid="358" duration="150"/>
    <frame tileid="362" duration="150"/>
    <frame tileid="338" duration="150"/>
    <frame tileid="338" duration="150"/>
    <frame tileid="338" duration="150"/>
    <frame tileid="338" duration="150"/>
    <frame tileid="338" duration="150"/>
    <frame tileid="338" duration="150"/>
    <frame tileid="338" duration="150"/>
    <frame tileid="338" duration="150"/>
    <frame tileid="338" duration="150"/>
    <frame tileid="338" duration="150"/>
    <frame tileid="338" duration="150"/>
   </animation>
  </tile>
  <tile id="339">
   <animation>
    <frame tileid="339" duration="150"/>
    <frame tileid="343" duration="150"/>
    <frame tileid="347" duration="150"/>
    <frame tileid="351" duration="150"/>
    <frame tileid="355" duration="150"/>
    <frame tileid="359" duration="150"/>
    <frame tileid="363" duration="150"/>
    <frame tileid="339" duration="150"/>
    <frame tileid="339" duration="150"/>
    <frame tileid="339" duration="150"/>
    <frame tileid="339" duration="150"/>
    <frame tileid="339" duration="150"/>
    <frame tileid="339" duration="150"/>
    <frame tileid="339" duration="150"/>
    <frame tileid="339" duration="150"/>
    <frame tileid="339" duration="150"/>
    <frame tileid="339" duration="150"/>
    <frame tileid="339" duration="150"/>
   </animation>
  </tile>
 </tileset>
 <tileset firstgid="2673" name="Fire" tilewidth="16" tileheight="16" tilecount="72" columns="24">
  <image source="../../Art/Guild/Fire.png" width="384" height="48"/>
  <tile id="0">
   <animation>
    <frame tileid="0" duration="150"/>
    <frame tileid="0" duration="150"/>
    <frame tileid="0" duration="150"/>
    <frame tileid="0" duration="150"/>
    <frame tileid="0" duration="150"/>
    <frame tileid="0" duration="150"/>
    <frame tileid="0" duration="150"/>
    <frame tileid="0" duration="150"/>
    <frame tileid="3" duration="150"/>
    <frame tileid="6" duration="150"/>
    <frame tileid="9" duration="150"/>
    <frame tileid="12" duration="150"/>
    <frame tileid="15" duration="150"/>
    <frame tileid="18" duration="150"/>
    <frame tileid="21" duration="150"/>
    <frame tileid="0" duration="150"/>
    <frame tileid="0" duration="150"/>
    <frame tileid="0" duration="150"/>
   </animation>
  </tile>
  <tile id="1">
   <animation>
    <frame tileid="0" duration="150"/>
    <frame tileid="0" duration="150"/>
    <frame tileid="0" duration="150"/>
    <frame tileid="0" duration="150"/>
    <frame tileid="0" duration="150"/>
    <frame tileid="0" duration="150"/>
    <frame tileid="0" duration="150"/>
    <frame tileid="1" duration="150"/>
    <frame tileid="4" duration="150"/>
    <frame tileid="7" duration="150"/>
    <frame tileid="10" duration="150"/>
    <frame tileid="13" duration="150"/>
    <frame tileid="16" duration="150"/>
    <frame tileid="19" duration="150"/>
    <frame tileid="22" duration="150"/>
    <frame tileid="1" duration="150"/>
    <frame tileid="1" duration="150"/>
    <frame tileid="1" duration="150"/>
   </animation>
  </tile>
  <tile id="2">
   <animation>
    <frame tileid="0" duration="150"/>
    <frame tileid="0" duration="150"/>
    <frame tileid="0" duration="150"/>
    <frame tileid="0" duration="150"/>
    <frame tileid="0" duration="150"/>
    <frame tileid="0" duration="150"/>
    <frame tileid="0" duration="150"/>
    <frame tileid="2" duration="150"/>
    <frame tileid="5" duration="150"/>
    <frame tileid="8" duration="150"/>
    <frame tileid="11" duration="150"/>
    <frame tileid="14" duration="150"/>
    <frame tileid="17" duration="150"/>
    <frame tileid="20" duration="150"/>
    <frame tileid="23" duration="150"/>
    <frame tileid="0" duration="150"/>
    <frame tileid="0" duration="150"/>
    <frame tileid="0" duration="150"/>
   </animation>
  </tile>
  <tile id="24">
   <animation>
    <frame tileid="0" duration="150"/>
    <frame tileid="0" duration="150"/>
    <frame tileid="0" duration="150"/>
    <frame tileid="0" duration="150"/>
    <frame tileid="0" duration="150"/>
    <frame tileid="0" duration="150"/>
    <frame tileid="0" duration="150"/>
    <frame tileid="24" duration="150"/>
    <frame tileid="27" duration="150"/>
    <frame tileid="30" duration="150"/>
    <frame tileid="33" duration="150"/>
    <frame tileid="36" duration="150"/>
    <frame tileid="39" duration="150"/>
    <frame tileid="42" duration="150"/>
    <frame tileid="45" duration="150"/>
    <frame tileid="0" duration="150"/>
    <frame tileid="0" duration="150"/>
    <frame tileid="0" duration="150"/>
   </animation>
  </tile>
  <tile id="25">
   <animation>
    <frame tileid="0" duration="150"/>
    <frame tileid="0" duration="150"/>
    <frame tileid="0" duration="150"/>
    <frame tileid="0" duration="150"/>
    <frame tileid="0" duration="150"/>
    <frame tileid="0" duration="150"/>
    <frame tileid="0" duration="150"/>
    <frame tileid="25" duration="150"/>
    <frame tileid="28" duration="150"/>
    <frame tileid="31" duration="150"/>
    <frame tileid="34" duration="150"/>
    <frame tileid="37" duration="150"/>
    <frame tileid="40" duration="150"/>
    <frame tileid="43" duration="150"/>
    <frame tileid="46" duration="150"/>
    <frame tileid="0" duration="150"/>
    <frame tileid="0" duration="150"/>
    <frame tileid="0" duration="150"/>
   </animation>
  </tile>
  <tile id="26">
   <animation>
    <frame tileid="0" duration="150"/>
    <frame tileid="0" duration="150"/>
    <frame tileid="0" duration="150"/>
    <frame tileid="0" duration="150"/>
    <frame tileid="0" duration="150"/>
    <frame tileid="0" duration="150"/>
    <frame tileid="0" duration="150"/>
    <frame tileid="26" duration="150"/>
    <frame tileid="29" duration="150"/>
    <frame tileid="32" duration="150"/>
    <frame tileid="35" duration="150"/>
    <frame tileid="38" duration="150"/>
    <frame tileid="41" duration="150"/>
    <frame tileid="44" duration="150"/>
    <frame tileid="47" duration="150"/>
    <frame tileid="0" duration="150"/>
    <frame tileid="0" duration="150"/>
    <frame tileid="0" duration="150"/>
   </animation>
  </tile>
  <tile id="48">
   <animation>
    <frame tileid="0" duration="150"/>
    <frame tileid="0" duration="150"/>
    <frame tileid="0" duration="150"/>
    <frame tileid="0" duration="150"/>
    <frame tileid="0" duration="150"/>
    <frame tileid="0" duration="150"/>
    <frame tileid="0" duration="150"/>
    <frame tileid="48" duration="150"/>
    <frame tileid="51" duration="150"/>
    <frame tileid="54" duration="150"/>
    <frame tileid="57" duration="150"/>
    <frame tileid="60" duration="150"/>
    <frame tileid="63" duration="150"/>
    <frame tileid="66" duration="150"/>
    <frame tileid="69" duration="150"/>
    <frame tileid="0" duration="150"/>
    <frame tileid="0" duration="150"/>
    <frame tileid="0" duration="150"/>
   </animation>
  </tile>
  <tile id="49">
   <animation>
    <frame tileid="0" duration="150"/>
    <frame tileid="0" duration="150"/>
    <frame tileid="0" duration="150"/>
    <frame tileid="0" duration="150"/>
    <frame tileid="0" duration="150"/>
    <frame tileid="0" duration="150"/>
    <frame tileid="0" duration="150"/>
    <frame tileid="49" duration="150"/>
    <frame tileid="52" duration="150"/>
    <frame tileid="55" duration="150"/>
    <frame tileid="58" duration="150"/>
    <frame tileid="61" duration="150"/>
    <frame tileid="64" duration="150"/>
    <frame tileid="67" duration="150"/>
    <frame tileid="70" duration="150"/>
    <frame tileid="0" duration="150"/>
    <frame tileid="0" duration="150"/>
    <frame tileid="0" duration="150"/>
   </animation>
  </tile>
  <tile id="50">
   <animation>
    <frame tileid="0" duration="150"/>
    <frame tileid="0" duration="150"/>
    <frame tileid="0" duration="150"/>
    <frame tileid="0" duration="150"/>
    <frame tileid="0" duration="150"/>
    <frame tileid="0" duration="150"/>
    <frame tileid="0" duration="150"/>
    <frame tileid="50" duration="150"/>
    <frame tileid="53" duration="150"/>
    <frame tileid="56" duration="150"/>
    <frame tileid="59" duration="150"/>
    <frame tileid="62" duration="150"/>
    <frame tileid="65" duration="150"/>
    <frame tileid="68" duration="150"/>
    <frame tileid="71" duration="150"/>
    <frame tileid="0" duration="150"/>
    <frame tileid="0" duration="150"/>
    <frame tileid="0" duration="150"/>
   </animation>
  </tile>
 </tileset>
 <tileset firstgid="2745" name="Reader2" tilewidth="16" tileheight="16" tilecount="4" columns="2">
  <image source="../../Art/Guild/Reader2.png" width="32" height="32"/>
  <tile id="0">
   <animation>
    <frame tileid="0" duration="150"/>
    <frame tileid="0" duration="150"/>
    <frame tileid="0" duration="150"/>
    <frame tileid="0" duration="150"/>
    <frame tileid="0" duration="150"/>
    <frame tileid="0" duration="150"/>
    <frame tileid="1" duration="150"/>
    <frame tileid="1" duration="150"/>
    <frame tileid="1" duration="150"/>
    <frame tileid="1" duration="150"/>
    <frame tileid="1" duration="150"/>
    <frame tileid="1" duration="150"/>
   </animation>
  </tile>
  <tile id="2">
   <animation>
    <frame tileid="2" duration="150"/>
    <frame tileid="2" duration="150"/>
    <frame tileid="2" duration="150"/>
    <frame tileid="2" duration="150"/>
    <frame tileid="2" duration="150"/>
    <frame tileid="2" duration="150"/>
    <frame tileid="3" duration="150"/>
    <frame tileid="3" duration="150"/>
    <frame tileid="3" duration="150"/>
    <frame tileid="3" duration="150"/>
    <frame tileid="3" duration="150"/>
    <frame tileid="3" duration="150"/>
   </animation>
  </tile>
 </tileset>
 <tileset firstgid="2749" name="Reader1" tilewidth="16" tileheight="16" tilecount="66" columns="22">
  <image source="../../Art/Guild/Reader1.png" width="352" height="48"/>
  <tile id="0">
   <animation>
    <frame tileid="0" duration="150"/>
    <frame tileid="0" duration="150"/>
    <frame tileid="0" duration="150"/>
    <frame tileid="0" duration="150"/>
    <frame tileid="0" duration="150"/>
    <frame tileid="2" duration="150"/>
    <frame tileid="4" duration="150"/>
    <frame tileid="4" duration="150"/>
    <frame tileid="4" duration="150"/>
    <frame tileid="4" duration="150"/>
    <frame tileid="6" duration="150"/>
    <frame tileid="8" duration="150"/>
    <frame tileid="10" duration="150"/>
    <frame tileid="12" duration="150"/>
    <frame tileid="14" duration="150"/>
    <frame tileid="16" duration="150"/>
    <frame tileid="18" duration="150"/>
    <frame tileid="20" duration="150"/>
   </animation>
  </tile>
  <tile id="1">
   <animation>
    <frame tileid="1" duration="150"/>
    <frame tileid="1" duration="150"/>
    <frame tileid="1" duration="150"/>
    <frame tileid="1" duration="150"/>
    <frame tileid="1" duration="150"/>
    <frame tileid="3" duration="150"/>
    <frame tileid="5" duration="150"/>
    <frame tileid="5" duration="150"/>
    <frame tileid="5" duration="150"/>
    <frame tileid="5" duration="150"/>
    <frame tileid="7" duration="150"/>
    <frame tileid="9" duration="150"/>
    <frame tileid="11" duration="150"/>
    <frame tileid="13" duration="150"/>
    <frame tileid="15" duration="150"/>
    <frame tileid="17" duration="150"/>
    <frame tileid="19" duration="150"/>
    <frame tileid="21" duration="150"/>
   </animation>
  </tile>
  <tile id="22">
   <animation>
    <frame tileid="22" duration="150"/>
    <frame tileid="22" duration="150"/>
    <frame tileid="22" duration="150"/>
    <frame tileid="22" duration="150"/>
    <frame tileid="22" duration="150"/>
    <frame tileid="24" duration="150"/>
    <frame tileid="26" duration="150"/>
    <frame tileid="26" duration="150"/>
    <frame tileid="26" duration="150"/>
    <frame tileid="26" duration="150"/>
    <frame tileid="28" duration="150"/>
    <frame tileid="30" duration="150"/>
    <frame tileid="32" duration="150"/>
    <frame tileid="34" duration="150"/>
    <frame tileid="36" duration="150"/>
    <frame tileid="38" duration="150"/>
    <frame tileid="40" duration="150"/>
    <frame tileid="42" duration="150"/>
   </animation>
  </tile>
  <tile id="23">
   <animation>
    <frame tileid="23" duration="150"/>
    <frame tileid="23" duration="150"/>
    <frame tileid="23" duration="150"/>
    <frame tileid="23" duration="150"/>
    <frame tileid="23" duration="150"/>
    <frame tileid="25" duration="150"/>
    <frame tileid="27" duration="150"/>
    <frame tileid="27" duration="150"/>
    <frame tileid="27" duration="150"/>
    <frame tileid="27" duration="150"/>
    <frame tileid="29" duration="150"/>
    <frame tileid="31" duration="150"/>
    <frame tileid="33" duration="150"/>
    <frame tileid="35" duration="150"/>
    <frame tileid="37" duration="150"/>
    <frame tileid="39" duration="150"/>
    <frame tileid="41" duration="150"/>
    <frame tileid="43" duration="150"/>
   </animation>
  </tile>
  <tile id="44">
   <animation>
    <frame tileid="44" duration="150"/>
    <frame tileid="44" duration="150"/>
    <frame tileid="44" duration="150"/>
    <frame tileid="44" duration="150"/>
    <frame tileid="44" duration="150"/>
    <frame tileid="46" duration="150"/>
    <frame tileid="48" duration="150"/>
    <frame tileid="48" duration="150"/>
    <frame tileid="48" duration="150"/>
    <frame tileid="48" duration="150"/>
    <frame tileid="50" duration="150"/>
    <frame tileid="52" duration="150"/>
    <frame tileid="54" duration="150"/>
    <frame tileid="56" duration="150"/>
    <frame tileid="58" duration="150"/>
    <frame tileid="60" duration="150"/>
    <frame tileid="62" duration="150"/>
    <frame tileid="64" duration="150"/>
   </animation>
  </tile>
  <tile id="45">
   <animation>
    <frame tileid="45" duration="150"/>
    <frame tileid="45" duration="150"/>
    <frame tileid="45" duration="150"/>
    <frame tileid="45" duration="150"/>
    <frame tileid="45" duration="150"/>
    <frame tileid="47" duration="150"/>
    <frame tileid="49" duration="150"/>
    <frame tileid="49" duration="150"/>
    <frame tileid="49" duration="150"/>
    <frame tileid="49" duration="150"/>
    <frame tileid="51" duration="150"/>
    <frame tileid="53" duration="150"/>
    <frame tileid="55" duration="150"/>
    <frame tileid="57" duration="150"/>
    <frame tileid="59" duration="150"/>
    <frame tileid="61" duration="150"/>
    <frame tileid="63" duration="150"/>
    <frame tileid="65" duration="150"/>
   </animation>
  </tile>
 </tileset>
 <tileset firstgid="2815" name="Attacked_Manequin1_with_shadow" tilewidth="16" tileheight="16" tilecount="64" columns="8">
  <image source="../../Art/Guild/Attacked_Manequin1_with_shadow.png" width="128" height="128"/>
 </tileset>
 <tileset firstgid="2879" name="Attacked_Manequin3_with_shadow" tilewidth="16" tileheight="16" tilecount="64" columns="8">
  <image source="../../Art/Guild/Attacked_Manequin3_with_shadow.png" width="128" height="128"/>
 </tileset>
 <tileset firstgid="2943" name="Fighter_sword1_with_shadow" tilewidth="16" tileheight="16" tilecount="384" columns="24">
  <image source="../../Art/Guild/Fighter_sword_with_shadow.png" width="384" height="256"/>
  <tile id="24">
   <animation>
    <frame tileid="24" duration="150"/>
    <frame tileid="24" duration="150"/>
    <frame tileid="24" duration="150"/>
    <frame tileid="24" duration="150"/>
    <frame tileid="24" duration="150"/>
    <frame tileid="24" duration="150"/>
    <frame tileid="24" duration="150"/>
    <frame tileid="28" duration="150"/>
    <frame tileid="32" duration="150"/>
    <frame tileid="36" duration="150"/>
    <frame tileid="40" duration="150"/>
    <frame tileid="44" duration="150"/>
   </animation>
  </tile>
  <tile id="25">
   <animation>
    <frame tileid="25" duration="150"/>
    <frame tileid="25" duration="150"/>
    <frame tileid="25" duration="150"/>
    <frame tileid="25" duration="150"/>
    <frame tileid="25" duration="150"/>
    <frame tileid="25" duration="150"/>
    <frame tileid="25" duration="150"/>
    <frame tileid="29" duration="150"/>
    <frame tileid="33" duration="150"/>
    <frame tileid="37" duration="150"/>
    <frame tileid="41" duration="150"/>
    <frame tileid="45" duration="150"/>
   </animation>
  </tile>
  <tile id="26">
   <animation>
    <frame tileid="26" duration="150"/>
    <frame tileid="26" duration="150"/>
    <frame tileid="26" duration="150"/>
    <frame tileid="26" duration="150"/>
    <frame tileid="26" duration="150"/>
    <frame tileid="26" duration="150"/>
    <frame tileid="26" duration="150"/>
    <frame tileid="30" duration="150"/>
    <frame tileid="34" duration="150"/>
    <frame tileid="38" duration="150"/>
    <frame tileid="42" duration="150"/>
    <frame tileid="46" duration="150"/>
   </animation>
  </tile>
  <tile id="48">
   <animation>
    <frame tileid="48" duration="150"/>
    <frame tileid="48" duration="150"/>
    <frame tileid="48" duration="150"/>
    <frame tileid="48" duration="150"/>
    <frame tileid="48" duration="150"/>
    <frame tileid="48" duration="150"/>
    <frame tileid="48" duration="150"/>
    <frame tileid="52" duration="150"/>
    <frame tileid="56" duration="150"/>
    <frame tileid="60" duration="150"/>
    <frame tileid="64" duration="150"/>
    <frame tileid="68" duration="150"/>
   </animation>
  </tile>
  <tile id="49">
   <animation>
    <frame tileid="49" duration="150"/>
    <frame tileid="49" duration="150"/>
    <frame tileid="49" duration="150"/>
    <frame tileid="49" duration="150"/>
    <frame tileid="49" duration="150"/>
    <frame tileid="49" duration="150"/>
    <frame tileid="49" duration="150"/>
    <frame tileid="53" duration="150"/>
    <frame tileid="57" duration="150"/>
    <frame tileid="61" duration="150"/>
    <frame tileid="65" duration="150"/>
    <frame tileid="69" duration="150"/>
   </animation>
  </tile>
  <tile id="50">
   <animation>
    <frame tileid="50" duration="150"/>
    <frame tileid="50" duration="150"/>
    <frame tileid="50" duration="150"/>
    <frame tileid="50" duration="150"/>
    <frame tileid="50" duration="150"/>
    <frame tileid="50" duration="150"/>
    <frame tileid="50" duration="150"/>
    <frame tileid="54" duration="150"/>
    <frame tileid="58" duration="150"/>
    <frame tileid="62" duration="150"/>
    <frame tileid="66" duration="150"/>
    <frame tileid="70" duration="150"/>
   </animation>
  </tile>
  <tile id="97">
   <animation>
    <frame tileid="97" duration="150"/>
    <frame tileid="97" duration="150"/>
    <frame tileid="97" duration="150"/>
    <frame tileid="97" duration="150"/>
    <frame tileid="97" duration="150"/>
    <frame tileid="97" duration="150"/>
    <frame tileid="97" duration="150"/>
    <frame tileid="101" duration="150"/>
    <frame tileid="105" duration="150"/>
    <frame tileid="109" duration="150"/>
    <frame tileid="113" duration="150"/>
    <frame tileid="117" duration="150"/>
   </animation>
  </tile>
  <tile id="98">
   <animation>
    <frame tileid="98" duration="150"/>
    <frame tileid="98" duration="150"/>
    <frame tileid="98" duration="150"/>
    <frame tileid="98" duration="150"/>
    <frame tileid="98" duration="150"/>
    <frame tileid="98" duration="150"/>
    <frame tileid="98" duration="150"/>
    <frame tileid="102" duration="150"/>
    <frame tileid="106" duration="150"/>
    <frame tileid="110" duration="150"/>
    <frame tileid="114" duration="150"/>
    <frame tileid="118" duration="150"/>
   </animation>
  </tile>
  <tile id="121">
   <animation>
    <frame tileid="121" duration="150"/>
    <frame tileid="121" duration="150"/>
    <frame tileid="121" duration="150"/>
    <frame tileid="121" duration="150"/>
    <frame tileid="121" duration="150"/>
    <frame tileid="121" duration="150"/>
    <frame tileid="121" duration="150"/>
    <frame tileid="125" duration="150"/>
    <frame tileid="129" duration="150"/>
    <frame tileid="133" duration="150"/>
    <frame tileid="137" duration="150"/>
    <frame tileid="141" duration="150"/>
   </animation>
  </tile>
  <tile id="122">
   <animation>
    <frame tileid="122" duration="150"/>
    <frame tileid="122" duration="150"/>
    <frame tileid="122" duration="150"/>
    <frame tileid="122" duration="150"/>
    <frame tileid="122" duration="150"/>
    <frame tileid="122" duration="150"/>
    <frame tileid="122" duration="150"/>
    <frame tileid="126" duration="150"/>
    <frame tileid="130" duration="150"/>
    <frame tileid="134" duration="150"/>
    <frame tileid="138" duration="150"/>
    <frame tileid="142" duration="150"/>
   </animation>
  </tile>
  <tile id="145">
   <animation>
    <frame tileid="145" duration="150"/>
    <frame tileid="145" duration="150"/>
    <frame tileid="145" duration="150"/>
    <frame tileid="145" duration="150"/>
    <frame tileid="145" duration="150"/>
    <frame tileid="145" duration="150"/>
    <frame tileid="145" duration="150"/>
    <frame tileid="149" duration="150"/>
    <frame tileid="153" duration="150"/>
    <frame tileid="157" duration="150"/>
    <frame tileid="161" duration="150"/>
    <frame tileid="165" duration="150"/>
   </animation>
  </tile>
  <tile id="146">
   <animation>
    <frame tileid="146" duration="150"/>
    <frame tileid="146" duration="150"/>
    <frame tileid="146" duration="150"/>
    <frame tileid="146" duration="150"/>
    <frame tileid="146" duration="150"/>
    <frame tileid="146" duration="150"/>
    <frame tileid="146" duration="150"/>
    <frame tileid="150" duration="150"/>
    <frame tileid="154" duration="150"/>
    <frame tileid="158" duration="150"/>
    <frame tileid="162" duration="150"/>
    <frame tileid="166" duration="150"/>
   </animation>
  </tile>
  <tile id="193">
   <animation>
    <frame tileid="193" duration="150"/>
    <frame tileid="193" duration="150"/>
    <frame tileid="193" duration="150"/>
    <frame tileid="193" duration="150"/>
    <frame tileid="193" duration="150"/>
    <frame tileid="193" duration="150"/>
    <frame tileid="193" duration="150"/>
    <frame tileid="197" duration="150"/>
    <frame tileid="201" duration="150"/>
    <frame tileid="205" duration="150"/>
    <frame tileid="209" duration="150"/>
    <frame tileid="213" duration="150"/>
   </animation>
  </tile>
  <tile id="194">
   <animation>
    <frame tileid="194" duration="150"/>
    <frame tileid="194" duration="150"/>
    <frame tileid="194" duration="150"/>
    <frame tileid="194" duration="150"/>
    <frame tileid="194" duration="150"/>
    <frame tileid="194" duration="150"/>
    <frame tileid="194" duration="150"/>
    <frame tileid="198" duration="150"/>
    <frame tileid="202" duration="150"/>
    <frame tileid="206" duration="150"/>
    <frame tileid="210" duration="150"/>
    <frame tileid="214" duration="150"/>
   </animation>
  </tile>
  <tile id="217">
   <animation>
    <frame tileid="217" duration="150"/>
    <frame tileid="217" duration="150"/>
    <frame tileid="217" duration="150"/>
    <frame tileid="217" duration="150"/>
    <frame tileid="217" duration="150"/>
    <frame tileid="217" duration="150"/>
    <frame tileid="217" duration="150"/>
    <frame tileid="221" duration="150"/>
    <frame tileid="225" duration="150"/>
    <frame tileid="229" duration="150"/>
    <frame tileid="233" duration="150"/>
    <frame tileid="237" duration="150"/>
   </animation>
  </tile>
  <tile id="218">
   <animation>
    <frame tileid="218" duration="150"/>
    <frame tileid="218" duration="150"/>
    <frame tileid="218" duration="150"/>
    <frame tileid="218" duration="150"/>
    <frame tileid="218" duration="150"/>
    <frame tileid="218" duration="150"/>
    <frame tileid="218" duration="150"/>
    <frame tileid="222" duration="150"/>
    <frame tileid="226" duration="150"/>
    <frame tileid="230" duration="150"/>
    <frame tileid="234" duration="150"/>
    <frame tileid="238" duration="150"/>
   </animation>
  </tile>
  <tile id="241">
   <animation>
    <frame tileid="241" duration="150"/>
    <frame tileid="241" duration="150"/>
    <frame tileid="241" duration="150"/>
    <frame tileid="241" duration="150"/>
    <frame tileid="241" duration="150"/>
    <frame tileid="241" duration="150"/>
    <frame tileid="241" duration="150"/>
    <frame tileid="245" duration="150"/>
    <frame tileid="249" duration="150"/>
    <frame tileid="253" duration="150"/>
    <frame tileid="257" duration="150"/>
    <frame tileid="261" duration="150"/>
   </animation>
  </tile>
  <tile id="242">
   <animation>
    <frame tileid="242" duration="150"/>
    <frame tileid="242" duration="150"/>
    <frame tileid="242" duration="150"/>
    <frame tileid="242" duration="150"/>
    <frame tileid="242" duration="150"/>
    <frame tileid="242" duration="150"/>
    <frame tileid="242" duration="150"/>
    <frame tileid="246" duration="150"/>
    <frame tileid="250" duration="150"/>
    <frame tileid="254" duration="150"/>
    <frame tileid="258" duration="150"/>
    <frame tileid="262" duration="150"/>
   </animation>
  </tile>
  <tile id="312">
   <animation>
    <frame tileid="312" duration="150"/>
    <frame tileid="312" duration="150"/>
    <frame tileid="312" duration="150"/>
    <frame tileid="312" duration="150"/>
    <frame tileid="312" duration="150"/>
    <frame tileid="312" duration="150"/>
    <frame tileid="312" duration="150"/>
    <frame tileid="316" duration="150"/>
    <frame tileid="320" duration="150"/>
    <frame tileid="324" duration="150"/>
    <frame tileid="328" duration="150"/>
    <frame tileid="332" duration="150"/>
   </animation>
  </tile>
  <tile id="313">
   <animation>
    <frame tileid="313" duration="150"/>
    <frame tileid="313" duration="150"/>
    <frame tileid="313" duration="150"/>
    <frame tileid="313" duration="150"/>
    <frame tileid="313" duration="150"/>
    <frame tileid="313" duration="150"/>
    <frame tileid="313" duration="150"/>
    <frame tileid="317" duration="150"/>
    <frame tileid="321" duration="150"/>
    <frame tileid="325" duration="150"/>
    <frame tileid="329" duration="150"/>
    <frame tileid="333" duration="150"/>
   </animation>
  </tile>
  <tile id="314">
   <animation>
    <frame tileid="314" duration="150"/>
    <frame tileid="314" duration="150"/>
    <frame tileid="314" duration="150"/>
    <frame tileid="314" duration="150"/>
    <frame tileid="314" duration="150"/>
    <frame tileid="314" duration="150"/>
    <frame tileid="314" duration="150"/>
    <frame tileid="318" duration="150"/>
    <frame tileid="322" duration="150"/>
    <frame tileid="326" duration="150"/>
    <frame tileid="330" duration="150"/>
    <frame tileid="334" duration="150"/>
   </animation>
  </tile>
  <tile id="315">
   <animation>
    <frame tileid="315" duration="150"/>
    <frame tileid="315" duration="150"/>
    <frame tileid="315" duration="150"/>
    <frame tileid="315" duration="150"/>
    <frame tileid="315" duration="150"/>
    <frame tileid="315" duration="150"/>
    <frame tileid="315" duration="150"/>
    <frame tileid="319" duration="150"/>
    <frame tileid="323" duration="150"/>
    <frame tileid="327" duration="150"/>
    <frame tileid="331" duration="150"/>
    <frame tileid="335" duration="150"/>
   </animation>
  </tile>
  <tile id="336">
   <animation>
    <frame tileid="336" duration="150"/>
    <frame tileid="336" duration="150"/>
    <frame tileid="336" duration="150"/>
    <frame tileid="336" duration="150"/>
    <frame tileid="336" duration="150"/>
    <frame tileid="336" duration="150"/>
    <frame tileid="336" duration="150"/>
    <frame tileid="340" duration="150"/>
    <frame tileid="344" duration="150"/>
    <frame tileid="348" duration="150"/>
    <frame tileid="352" duration="150"/>
    <frame tileid="356" duration="150"/>
   </animation>
  </tile>
  <tile id="337">
   <animation>
    <frame tileid="337" duration="150"/>
    <frame tileid="337" duration="150"/>
    <frame tileid="337" duration="150"/>
    <frame tileid="337" duration="150"/>
    <frame tileid="337" duration="150"/>
    <frame tileid="337" duration="150"/>
    <frame tileid="337" duration="150"/>
    <frame tileid="341" duration="150"/>
    <frame tileid="345" duration="150"/>
    <frame tileid="349" duration="150"/>
    <frame tileid="353" duration="150"/>
    <frame tileid="357" duration="150"/>
   </animation>
  </tile>
  <tile id="338">
   <animation>
    <frame tileid="338" duration="150"/>
    <frame tileid="338" duration="150"/>
    <frame tileid="338" duration="150"/>
    <frame tileid="338" duration="150"/>
    <frame tileid="338" duration="150"/>
    <frame tileid="338" duration="150"/>
    <frame tileid="338" duration="150"/>
    <frame tileid="342" duration="150"/>
    <frame tileid="346" duration="150"/>
    <frame tileid="350" duration="150"/>
    <frame tileid="354" duration="150"/>
    <frame tileid="358" duration="150"/>
   </animation>
  </tile>
  <tile id="339">
   <animation>
    <frame tileid="339" duration="150"/>
    <frame tileid="339" duration="150"/>
    <frame tileid="339" duration="150"/>
    <frame tileid="339" duration="150"/>
    <frame tileid="339" duration="150"/>
    <frame tileid="339" duration="150"/>
    <frame tileid="339" duration="150"/>
    <frame tileid="343" duration="150"/>
    <frame tileid="347" duration="150"/>
    <frame tileid="351" duration="150"/>
    <frame tileid="355" duration="150"/>
    <frame tileid="359" duration="150"/>
   </animation>
  </tile>
 </tileset>
 <layer id="3" name="Floor" width="16" height="24">
  <data encoding="csv">
   <chunk x="-16" y="-16" width="16" height="16">
0,0,0,0,0,0,0,0,0,0,0,0,0,0,0,0,
0,0,0,0,0,0,0,0,0,0,0,0,0,0,0,0,
0,0,0,0,0,0,0,0,0,0,0,0,0,0,0,0,
0,0,0,0,0,0,0,0,0,0,0,0,0,0,0,0,
0,0,0,0,0,0,0,0,0,0,0,0,0,0,0,0,
0,0,0,0,0,0,0,0,0,0,0,0,0,0,0,0,
0,0,0,0,0,0,0,0,0,0,0,0,0,0,0,0,
0,0,0,0,0,0,0,0,0,0,0,0,0,0,0,0,
0,0,0,0,0,0,0,0,0,0,0,0,0,0,0,0,
0,0,0,0,0,0,0,0,0,0,0,0,0,0,0,0,
0,0,0,0,0,0,0,0,0,0,0,0,0,0,0,0,
0,0,0,0,188,188,188,188,188,188,188,188,188,188,188,188,
0,0,0,0,188,188,188,188,188,188,188,188,188,188,188,188,
0,0,0,0,188,188,188,139,188,163,188,188,188,187,188,140,
0,0,0,0,188,188,188,188,188,164,188,139,188,188,163,188,
0,0,0,0,188,188,141,188,163,188,187,188,188,139,188,188
</chunk>
   <chunk x="0" y="-16" width="16" height="16">
0,0,0,0,0,0,0,0,0,0,0,0,0,0,0,0,
0,0,0,0,0,0,0,0,0,0,0,0,0,0,0,0,
0,0,0,0,0,0,0,0,0,0,0,0,0,0,0,0,
0,0,0,0,0,0,0,0,0,0,0,0,0,0,0,0,
0,0,0,0,0,0,0,0,0,0,0,0,0,0,0,0,
0,0,0,0,0,0,0,0,0,0,0,0,0,0,0,0,
0,0,0,0,0,0,0,0,0,0,0,0,0,0,0,0,
0,0,0,0,0,0,0,0,0,0,0,0,0,0,0,0,
0,0,0,0,0,0,0,0,0,0,0,0,0,0,0,0,
0,0,0,0,0,0,0,0,0,0,0,0,0,0,0,0,
0,0,0,0,0,0,0,0,0,0,0,0,0,0,0,0,
188,188,188,188,188,188,188,0,0,0,0,0,0,0,0,0,
188,188,188,188,188,188,188,0,0,0,0,0,0,0,0,0,
188,141,163,188,188,188,188,0,0,0,0,0,0,0,0,0,
188,187,188,188,188,188,188,0,0,0,0,0,0,0,0,0,
141,188,187,188,139,188,188,0,0,0,0,0,0,0,0,0
</chunk>
   <chunk x="-16" y="0" width="16" height="16">
0,0,0,0,188,188,188,187,188,164,188,140,188,188,188,139,
0,0,0,0,188,188,188,188,139,188,139,188,188,163,188,187,
0,0,0,0,188,188,188,188,188,187,188,163,188,188,188,188,
0,0,0,0,188,188,188,188,188,188,141,188,188,165,188,163,
0,0,0,0,188,188,188,188,188,188,188,188,188,188,188,188,
0,0,0,0,0,0,0,0,0,0,0,0,0,0,0,0,
0,0,0,0,0,0,0,0,0,0,0,0,0,0,0,0,
0,0,0,0,0,0,0,0,0,0,0,0,0,0,0,0,
0,0,0,0,0,0,0,0,0,0,0,0,0,0,0,0,
0,0,0,0,0,0,0,0,0,0,0,0,0,0,0,0,
0,0,0,0,0,0,0,0,0,0,0,0,0,0,0,0,
0,0,0,0,0,0,0,0,0,0,0,0,0,0,0,0,
0,0,0,0,0,0,0,0,0,0,0,0,0,0,0,0,
0,0,0,0,0,0,0,0,0,0,0,0,0,0,0,0,
0,0,0,0,0,0,0,0,0,0,0,0,0,0,0,0,
0,0,0,0,0,0,0,0,0,0,0,0,0,0,0,0
</chunk>
   <chunk x="0" y="0" width="16" height="16">
188,163,188,187,188,165,188,0,0,0,0,0,0,0,0,0,
188,188,165,188,188,188,188,0,0,0,0,0,0,0,0,0,
188,187,188,139,188,188,188,0,0,0,0,0,0,0,0,0,
188,163,188,188,188,188,188,0,0,0,0,0,0,0,0,0,
188,188,188,188,188,188,188,0,0,0,0,0,0,0,0,0,
0,0,0,0,0,0,0,0,0,0,0,0,0,0,0,0,
0,0,0,0,0,0,0,0,0,0,0,0,0,0,0,0,
0,0,0,0,0,0,0,0,0,0,0,0,0,0,0,0,
0,0,0,0,0,0,0,0,0,0,0,0,0,0,0,0,
0,0,0,0,0,0,0,0,0,0,0,0,0,0,0,0,
0,0,0,0,0,0,0,0,0,0,0,0,0,0,0,0,
0,0,0,0,0,0,0,0,0,0,0,0,0,0,0,0,
0,0,0,0,0,0,0,0,0,0,0,0,0,0,0,0,
0,0,0,0,0,0,0,0,0,0,0,0,0,0,0,0,
0,0,0,0,0,0,0,0,0,0,0,0,0,0,0,0,
0,0,0,0,0,0,0,0,0,0,0,0,0,0,0,0
</chunk>
  </data>
 </layer>
 <layer id="2" name="Walls" width="16" height="24">
  <data encoding="csv">
   <chunk x="-16" y="-16" width="16" height="16">
0,0,0,0,0,0,0,0,0,0,0,0,0,0,0,0,
0,0,0,0,0,0,0,0,0,0,0,0,0,0,0,0,
0,0,0,0,0,0,0,0,0,0,0,0,0,0,0,0,
0,0,0,0,0,0,0,0,0,0,0,0,0,0,0,0,
0,0,0,0,0,0,0,0,0,0,0,0,0,0,0,0,
0,0,0,0,0,0,0,0,0,0,0,0,0,0,0,0,
0,0,0,0,0,0,0,0,0,0,0,0,0,0,0,0,
0,0,0,0,0,0,0,0,0,0,0,0,0,0,0,0,
0,0,0,26,26,26,26,26,26,26,26,26,26,26,26,26,
0,0,0,26,26,22,23,23,23,23,23,23,23,23,23,23,
0,0,0,26,26,46,12,125,50,123,124,50,131,132,50,129,
0,0,0,26,26,46,36,148,74,147,148,74,155,156,74,153,
0,0,0,26,26,46,60,172,98,171,172,98,179,180,98,177,
0,0,0,26,26,46,27,0,0,0,0,0,0,0,0,0,
0,0,0,26,26,46,27,0,0,0,0,0,0,0,0,0,
0,0,0,0,0,0,27,0,0,0,0,0,0,0,0,0
</chunk>
   <chunk x="0" y="-16" width="16" height="16">
0,0,0,0,0,0,0,0,0,0,0,0,0,0,0,0,
0,0,0,0,0,0,0,0,0,0,0,0,0,0,0,0,
0,0,0,0,0,0,0,0,0,0,0,0,0,0,0,0,
0,0,0,0,0,0,0,0,0,0,0,0,0,0,0,0,
0,0,0,0,0,0,0,0,0,0,0,0,0,0,0,0,
0,0,0,0,0,0,0,0,0,0,0,0,0,0,0,0,
0,0,0,0,0,0,0,0,0,0,0,0,0,0,0,0,
0,0,0,0,0,0,0,0,0,0,0,0,0,0,0,0,
26,26,26,26,26,26,26,26,0,0,0,0,0,0,0,0,
23,23,23,23,23,24,26,26,0,0,0,0,0,0,0,0,
130,131,132,50,13,48,26,26,0,0,0,0,0,0,0,0,
154,155,156,74,37,48,26,26,0,0,0,0,0,0,0,0,
178,179,180,98,61,48,26,26,0,0,0,0,0,0,0,0,
0,0,0,0,25,48,26,26,0,0,0,0,0,0,0,0,
0,0,0,0,25,48,26,26,0,0,0,0,0,0,0,0,
0,0,0,0,0,0,25,48,0,0,0,0,0,0,0,0
</chunk>
  </data>
 </layer>
 <layer id="4" name="Walls_top" width="16" height="24">
  <data encoding="csv">
   <chunk x="-16" y="-16" width="16" height="16">
0,0,0,0,0,0,0,0,0,0,0,0,0,0,0,0,
0,0,0,0,0,0,0,0,0,0,0,0,0,0,0,0,
0,0,0,0,0,0,0,0,0,0,0,0,0,0,0,0,
0,0,0,0,0,0,0,0,0,0,0,0,0,0,0,0,
0,0,0,0,0,0,0,0,0,0,0,0,0,0,0,0,
0,0,0,0,0,0,0,0,0,0,0,0,0,0,0,0,
0,0,0,0,0,0,0,0,0,0,0,0,0,0,0,0,
0,0,0,0,0,0,0,0,0,0,0,0,0,0,0,0,
0,0,0,0,0,0,0,0,0,0,0,0,0,0,0,0,
0,0,0,0,0,0,0,0,0,0,0,0,0,0,0,0,
0,0,0,0,0,0,0,0,0,0,0,0,0,0,0,0,
0,0,0,0,0,0,0,0,0,0,0,0,0,0,0,0,
0,0,0,0,0,0,0,0,0,0,0,0,0,0,0,0,
0,0,0,0,0,0,0,0,0,0,0,0,0,0,0,0,
0,0,0,0,0,0,0,0,0,0,0,0,0,0,0,0,
0,0,0,26,26,46,0,0,0,0,0,0,0,0,0,0
</chunk>
   <chunk x="0" y="-16" width="16" height="16">
0,0,0,0,0,0,0,0,0,0,0,0,0,0,0,0,
0,0,0,0,0,0,0,0,0,0,0,0,0,0,0,0,
0,0,0,0,0,0,0,0,0,0,0,0,0,0,0,0,
0,0,0,0,0,0,0,0,0,0,0,0,0,0,0,0,
0,0,0,0,0,0,0,0,0,0,0,0,0,0,0,0,
0,0,0,0,0,0,0,0,0,0,0,0,0,0,0,0,
0,0,0,0,0,0,0,0,0,0,0,0,0,0,0,0,
0,0,0,0,0,0,0,0,0,0,0,0,0,0,0,0,
0,0,0,0,0,0,0,0,0,0,0,0,0,0,0,0,
0,0,0,0,0,0,0,0,0,0,0,0,0,0,0,0,
0,0,0,0,0,0,0,0,0,0,0,0,0,0,0,0,
0,0,0,0,0,0,0,0,0,0,0,0,0,0,0,0,
0,0,0,0,0,0,0,0,0,0,0,0,0,0,0,0,
0,0,0,0,0,0,0,0,0,0,0,0,0,0,0,0,
0,0,0,0,0,0,0,0,0,0,0,0,0,0,0,0,
0,0,0,0,25,48,26,26,0,0,0,0,0,0,0,0
</chunk>
   <chunk x="-16" y="0" width="16" height="16">
0,0,0,26,26,46,27,0,0,0,0,0,0,0,0,0,
0,0,0,26,26,46,27,0,0,0,0,0,0,0,0,0,
0,0,0,26,26,46,27,0,0,0,0,0,0,0,0,0,
0,0,0,26,26,46,100,2,2,2,2,2,2,2,2,2,
0,0,0,26,26,70,71,71,71,71,71,71,71,71,71,71,
0,0,0,26,26,26,26,26,26,26,26,26,26,26,26,26,
0,0,0,0,0,0,0,0,0,0,0,0,0,0,0,0,
0,0,0,0,0,0,0,0,0,0,0,0,0,0,0,0,
0,0,0,0,0,0,0,0,0,0,0,0,0,0,0,0,
0,0,0,0,0,0,0,0,0,0,0,0,0,0,0,0,
0,0,0,0,0,0,0,0,0,0,0,0,0,0,0,0,
0,0,0,0,0,0,0,0,0,0,0,0,0,0,0,0,
0,0,0,0,0,0,0,0,0,0,0,0,0,0,0,0,
0,0,0,0,0,0,0,0,0,0,0,0,0,0,0,0,
0,0,0,0,0,0,0,0,0,0,0,0,0,0,0,0,
0,0,0,0,0,0,0,0,0,0,0,0,0,0,0,0
</chunk>
   <chunk x="0" y="0" width="16" height="16">
0,0,0,0,25,48,26,26,0,0,0,0,0,0,0,0,
0,0,0,0,25,48,26,26,0,0,0,0,0,0,0,0,
0,0,0,0,25,48,26,26,0,0,0,0,0,0,0,0,
2,2,2,2,101,48,26,26,0,0,0,0,0,0,0,0,
71,71,71,71,71,72,26,26,0,0,0,0,0,0,0,0,
26,26,26,26,26,26,26,26,0,0,0,0,0,0,0,0,
0,0,0,0,0,0,0,0,0,0,0,0,0,0,0,0,
0,0,0,0,0,0,0,0,0,0,0,0,0,0,0,0,
0,0,0,0,0,0,0,0,0,0,0,0,0,0,0,0,
0,0,0,0,0,0,0,0,0,0,0,0,0,0,0,0,
0,0,0,0,0,0,0,0,0,0,0,0,0,0,0,0,
0,0,0,0,0,0,0,0,0,0,0,0,0,0,0,0,
0,0,0,0,0,0,0,0,0,0,0,0,0,0,0,0,
0,0,0,0,0,0,0,0,0,0,0,0,0,0,0,0,
0,0,0,0,0,0,0,0,0,0,0,0,0,0,0,0,
0,0,0,0,0,0,0,0,0,0,0,0,0,0,0,0
</chunk>
  </data>
 </layer>
 <layer id="11" name="Objects1" width="16" height="24">
  <data encoding="csv">
   <chunk x="-16" y="-16" width="16" height="16">
0,0,0,0,0,0,0,0,0,0,0,0,0,0,0,0,
0,0,0,0,0,0,0,0,0,0,0,0,0,0,0,0,
0,0,0,0,0,0,0,0,0,0,0,0,0,0,0,0,
0,0,0,0,0,0,0,0,0,0,0,0,0,0,0,0,
0,0,0,0,0,0,0,0,0,0,0,0,0,0,0,0,
0,0,0,0,0,0,0,0,0,0,0,0,0,0,0,0,
0,0,0,0,0,0,0,0,0,0,0,0,0,0,0,0,
0,0,0,0,0,0,0,0,0,0,0,0,0,0,0,0,
0,0,0,0,0,0,0,0,0,0,0,0,0,0,0,0,
0,0,0,0,0,0,0,0,0,0,0,0,0,0,0,0,
0,0,0,0,0,0,0,0,0,0,0,0,0,0,0,0,
0,0,0,0,0,0,0,701,702,703,0,0,0,0,0,0,
0,0,0,0,0,0,0,725,726,727,0,0,0,0,0,0,
0,0,0,0,0,0,0,749,750,751,0,0,0,0,0,0,
0,0,0,0,0,0,0,0,0,0,0,0,0,0,0,0,
0,0,0,0,0,0,0,721,722,723,0,0,0,0,0,0
</chunk>
   <chunk x="-16" y="0" width="16" height="16">
0,0,0,0,0,0,0,745,746,747,0,0,0,0,0,0,
0,0,0,0,0,0,0,0,0,0,0,0,0,0,0,0,
0,0,0,0,0,0,0,0,0,0,0,0,0,0,0,0,
0,0,0,0,0,0,0,0,0,0,0,0,0,0,0,0,
0,0,0,0,0,0,0,0,0,0,0,0,0,0,0,0,
0,0,0,0,0,0,0,0,0,0,0,0,0,0,0,0,
0,0,0,0,0,0,0,0,0,0,0,0,0,0,0,0,
0,0,0,0,0,0,0,0,0,0,0,0,0,0,0,0,
0,0,0,0,0,0,0,0,0,0,0,0,0,0,0,0,
0,0,0,0,0,0,0,0,0,0,0,0,0,0,0,0,
0,0,0,0,0,0,0,0,0,0,0,0,0,0,0,0,
0,0,0,0,0,0,0,0,0,0,0,0,0,0,0,0,
0,0,0,0,0,0,0,0,0,0,0,0,0,0,0,0,
0,0,0,0,0,0,0,0,0,0,0,0,0,0,0,0,
0,0,0,0,0,0,0,0,0,0,0,0,0,0,0,0,
0,0,0,0,0,0,0,0,0,0,0,0,0,0,0,0
</chunk>
  </data>
 </layer>
 <layer id="10" name="Objects2" width="16" height="24">
  <data encoding="csv">
   <chunk x="-16" y="-16" width="16" height="16">
0,0,0,0,0,0,0,0,0,0,0,0,0,0,0,0,
0,0,0,0,0,0,0,0,0,0,0,0,0,0,0,0,
0,0,0,0,0,0,0,0,0,0,0,0,0,0,0,0,
0,0,0,0,0,0,0,0,0,0,0,0,0,0,0,0,
0,0,0,0,0,0,0,0,0,0,0,0,0,0,0,0,
0,0,0,0,0,0,0,0,0,0,0,0,0,0,0,0,
0,0,0,0,0,0,0,0,0,0,0,0,0,0,0,0,
0,0,0,0,0,0,0,0,0,0,0,0,0,0,0,0,
0,0,0,0,0,0,0,0,0,0,0,0,0,0,0,0,
0,0,0,0,0,0,0,0,0,0,0,0,0,0,0,0,
0,0,0,0,0,0,0,0,0,0,452,453,454,455,0,0,
0,0,0,0,0,0,0,0,0,0,476,477,478,479,649,650,
0,0,0,0,0,0,534,535,536,537,500,501,502,503,673,674,
0,0,0,0,0,0,558,559,560,561,524,525,526,527,697,698,
0,0,0,0,0,0,582,583,584,585,0,0,0,0,0,0,
0,0,0,0,0,0,0,587,0,0,0,0,0,0,0,196
</chunk>
   <chunk x="0" y="-16" width="16" height="16">
0,0,0,0,0,0,0,0,0,0,0,0,0,0,0,0,
0,0,0,0,0,0,0,0,0,0,0,0,0,0,0,0,
0,0,0,0,0,0,0,0,0,0,0,0,0,0,0,0,
0,0,0,0,0,0,0,0,0,0,0,0,0,0,0,0,
0,0,0,0,0,0,0,0,0,0,0,0,0,0,0,0,
0,0,0,0,0,0,0,0,0,0,0,0,0,0,0,0,
0,0,0,0,0,0,0,0,0,0,0,0,0,0,0,0,
0,0,0,0,0,0,0,0,0,0,0,0,0,0,0,0,
0,0,0,0,0,0,0,0,0,0,0,0,0,0,0,0,
0,0,0,0,0,0,0,0,0,0,0,0,0,0,0,0,
0,353,354,355,356,0,0,0,0,0,0,0,0,0,0,0,
651,377,378,379,380,0,0,0,0,0,0,0,0,0,0,0,
675,401,402,403,404,0,0,0,0,0,0,0,0,0,0,0,
699,425,426,427,428,0,0,0,0,0,0,0,0,0,0,0,
0,0,0,0,0,0,0,0,0,0,0,0,0,0,0,0,
197,198,199,200,0,0,0,0,0,0,0,0,0,0,0,0
</chunk>
   <chunk x="-16" y="0" width="16" height="16">
0,0,0,0,0,0,610,611,612,613,0,0,0,0,0,220,
0,0,0,0,0,0,634,635,636,637,0,0,0,0,0,244,
0,0,0,0,0,0,0,0,0,0,0,0,0,0,0,0,
0,0,0,0,0,0,0,0,0,0,0,0,0,0,0,0,
0,0,0,0,0,0,0,0,0,0,0,0,0,0,0,0,
0,0,0,0,0,0,0,0,0,0,0,0,0,0,0,0,
0,0,0,0,0,0,0,0,0,0,0,0,0,0,0,0,
0,0,0,0,0,0,0,0,0,0,0,0,0,0,0,0,
0,0,0,0,0,0,0,0,0,0,0,0,0,0,0,0,
0,0,0,0,0,0,0,0,0,0,0,0,0,0,0,0,
0,0,0,0,0,0,0,0,0,0,0,0,0,0,0,0,
0,0,0,0,0,0,0,0,0,0,0,0,0,0,0,0,
0,0,0,0,0,0,0,0,0,0,0,0,0,0,0,0,
0,0,0,0,0,0,0,0,0,0,0,0,0,0,0,0,
0,0,0,0,0,0,0,0,0,0,0,0,0,0,0,0,
0,0,0,0,0,0,0,0,0,0,0,0,0,0,0,0
</chunk>
   <chunk x="0" y="0" width="16" height="16">
221,222,223,224,0,0,0,0,0,0,0,0,0,0,0,0,
245,246,247,248,0,0,0,0,0,0,0,0,0,0,0,0,
269,270,271,272,0,0,0,0,0,0,0,0,0,0,0,0,
0,0,0,0,0,0,0,0,0,0,0,0,0,0,0,0,
0,0,0,0,0,0,0,0,0,0,0,0,0,0,0,0,
0,0,0,0,0,0,0,0,0,0,0,0,0,0,0,0,
0,0,0,0,0,0,0,0,0,0,0,0,0,0,0,0,
0,0,0,0,0,0,0,0,0,0,0,0,0,0,0,0,
0,0,0,0,0,0,0,0,0,0,0,0,0,0,0,0,
0,0,0,0,0,0,0,0,0,0,0,0,0,0,0,0,
0,0,0,0,0,0,0,0,0,0,0,0,0,0,0,0,
0,0,0,0,0,0,0,0,0,0,0,0,0,0,0,0,
0,0,0,0,0,0,0,0,0,0,0,0,0,0,0,0,
0,0,0,0,0,0,0,0,0,0,0,0,0,0,0,0,
0,0,0,0,0,0,0,0,0,0,0,0,0,0,0,0,
0,0,0,0,0,0,0,0,0,0,0,0,0,0,0,0
</chunk>
  </data>
 </layer>
 <layer id="19" name="Reader" width="16" height="24">
  <data encoding="csv">
   <chunk x="-16" y="0" width="16" height="16">
0,0,0,0,0,0,0,2745,0,0,0,0,0,0,0,0,
0,0,0,0,0,0,0,2747,0,0,0,0,0,0,0,0,
0,0,0,0,0,0,0,0,0,0,0,0,0,0,0,0,
0,0,0,0,0,0,0,0,0,0,0,0,0,0,0,0,
0,0,0,0,0,0,0,0,0,0,0,0,0,0,0,0,
0,0,0,0,0,0,0,0,0,0,0,0,0,0,0,0,
0,0,0,0,0,0,0,0,0,0,0,0,0,0,0,0,
0,0,0,0,0,0,0,0,0,0,0,0,0,0,0,0,
0,0,0,0,0,0,0,0,0,0,0,0,0,0,0,0,
0,0,0,0,0,0,0,0,0,0,0,0,0,0,0,0,
0,0,0,0,0,0,0,0,0,0,0,0,0,0,0,0,
0,0,0,0,0,0,0,0,0,0,0,0,0,0,0,0,
0,0,0,0,0,0,0,0,0,0,0,0,0,0,0,0,
0,0,0,0,0,0,0,0,0,0,0,0,0,0,0,0,
0,0,0,0,0,0,0,0,0,0,0,0,0,0,0,0,
0,0,0,0,0,0,0,0,0,0,0,0,0,0,0,0
</chunk>
  </data>
 </layer>
 <layer id="20" name="Reader2" width="16" height="24">
  <data encoding="csv">
   <chunk x="-16" y="-16" width="16" height="16">
0,0,0,0,0,0,0,0,0,0,0,0,0,0,0,0,
0,0,0,0,0,0,0,0,0,0,0,0,0,0,0,0,
0,0,0,0,0,0,0,0,0,0,0,0,0,0,0,0,
0,0,0,0,0,0,0,0,0,0,0,0,0,0,0,0,
0,0,0,0,0,0,0,0,0,0,0,0,0,0,0,0,
0,0,0,0,0,0,0,0,0,0,0,0,0,0,0,0,
0,0,0,0,0,0,0,0,0,0,0,0,0,0,0,0,
0,0,0,0,0,0,0,0,0,0,0,0,0,0,0,0,
0,0,0,0,0,0,0,0,0,0,0,0,0,0,0,0,
0,0,0,0,0,0,0,0,0,0,0,0,0,0,0,0,
0,0,0,0,0,0,0,0,0,0,0,0,0,0,0,0,
0,0,0,0,0,0,0,0,2749,2750,0,0,0,0,0,0,
0,0,0,0,0,0,0,0,2771,2772,0,0,0,0,0,0,
0,0,0,0,0,0,0,0,2793,2794,0,0,0,0,0,0,
0,0,0,0,0,0,0,0,0,0,0,0,0,0,0,0,
0,0,0,0,0,0,0,0,0,0,0,0,0,0,0,0
</chunk>
  </data>
 </layer>
 <layer id="12" name="Objects3" width="16" height="24">
  <data encoding="csv">
   <chunk x="-16" y="-16" width="16" height="16">
0,0,0,0,0,0,0,0,0,0,0,0,0,0,0,0,
0,0,0,0,0,0,0,0,0,0,0,0,0,0,0,0,
0,0,0,0,0,0,0,0,0,0,0,0,0,0,0,0,
0,0,0,0,0,0,0,0,0,0,0,0,0,0,0,0,
0,0,0,0,0,0,0,0,0,0,0,0,0,0,0,0,
0,0,0,0,0,0,0,0,0,0,0,0,0,0,0,0,
0,0,0,0,0,0,0,0,0,0,0,0,0,0,0,0,
0,0,0,0,0,0,0,0,0,0,0,0,0,0,0,0,
0,0,0,0,0,0,0,0,0,0,0,0,0,0,0,0,
0,0,0,0,0,0,0,0,0,0,0,0,0,0,0,0,
0,0,0,0,0,0,0,0,0,0,0,0,0,0,0,0,
0,0,0,0,0,0,0,0,0,0,0,0,0,0,0,0,
0,0,0,0,0,0,0,0,0,0,0,0,0,0,0,0,
0,0,0,0,0,0,0,731,732,733,0,0,0,0,0,0,
0,0,0,0,0,0,0,755,756,757,0,0,0,0,0,0,
0,0,0,0,0,0,0,0,0,0,0,0,0,0,0,0
</chunk>
   <chunk x="0" y="-16" width="16" height="16">
0,0,0,0,0,0,0,0,0,0,0,0,0,0,0,0,
0,0,0,0,0,0,0,0,0,0,0,0,0,0,0,0,
0,0,0,0,0,0,0,0,0,0,0,0,0,0,0,0,
0,0,0,0,0,0,0,0,0,0,0,0,0,0,0,0,
0,0,0,0,0,0,0,0,0,0,0,0,0,0,0,0,
0,0,0,0,0,0,0,0,0,0,0,0,0,0,0,0,
0,0,0,0,0,0,0,0,0,0,0,0,0,0,0,0,
0,0,0,0,0,0,0,0,0,0,0,0,0,0,0,0,
0,0,0,0,0,0,0,0,0,0,0,0,0,0,0,0,
0,0,0,0,0,0,0,0,0,0,0,0,0,0,0,0,
0,0,0,0,0,0,0,0,0,0,0,0,0,0,0,0,
0,215,216,0,0,0,0,0,0,0,0,0,0,0,0,0,
0,239,240,0,0,0,0,0,0,0,0,0,0,0,0,0,
0,263,264,0,0,0,0,0,0,0,0,0,0,0,0,0,
0,0,0,0,0,0,0,0,0,0,0,0,0,0,0,0,
0,0,0,0,0,0,0,0,0,0,0,0,0,0,0,0
</chunk>
   <chunk x="-16" y="0" width="16" height="16">
0,0,0,0,0,0,0,728,729,730,0,0,0,0,0,0,
0,0,0,0,0,0,0,752,753,754,0,0,0,0,0,0,
0,0,0,0,0,0,313,314,315,316,0,0,0,0,0,0,
0,0,0,0,0,0,337,338,339,340,0,0,0,0,0,0,
0,0,0,0,0,0,0,0,0,0,0,0,0,0,0,0,
0,0,0,0,0,0,0,0,0,0,0,0,0,0,0,0,
0,0,0,0,0,0,0,0,0,0,0,0,0,0,0,0,
0,0,0,0,0,0,0,0,0,0,0,0,0,0,0,0,
0,0,0,0,0,0,0,0,0,0,0,0,0,0,0,0,
0,0,0,0,0,0,0,0,0,0,0,0,0,0,0,0,
0,0,0,0,0,0,0,0,0,0,0,0,0,0,0,0,
0,0,0,0,0,0,0,0,0,0,0,0,0,0,0,0,
0,0,0,0,0,0,0,0,0,0,0,0,0,0,0,0,
0,0,0,0,0,0,0,0,0,0,0,0,0,0,0,0,
0,0,0,0,0,0,0,0,0,0,0,0,0,0,0,0,
0,0,0,0,0,0,0,0,0,0,0,0,0,0,0,0
</chunk>
  </data>
 </layer>
 <layer id="9" name="Manequins" width="16" height="24">
  <data encoding="csv">
   <chunk x="-16" y="-16" width="16" height="16">
0,0,0,0,0,0,0,0,0,0,0,0,0,0,0,0,
0,0,0,0,0,0,0,0,0,0,0,0,0,0,0,0,
0,0,0,0,0,0,0,0,0,0,0,0,0,0,0,0,
0,0,0,0,0,0,0,0,0,0,0,0,0,0,0,0,
0,0,0,0,0,0,0,0,0,0,0,0,0,0,0,0,
0,0,0,0,0,0,0,0,0,0,0,0,0,0,0,0,
0,0,0,0,0,0,0,0,0,0,0,0,0,0,0,0,
0,0,0,0,0,0,0,0,0,0,0,0,0,0,0,0,
0,0,0,0,0,0,0,0,0,0,0,0,0,0,0,0,
0,0,0,0,0,0,0,0,0,0,0,0,0,0,0,0,
0,0,0,0,0,0,0,0,0,0,0,0,0,0,0,0,
0,0,0,0,0,0,0,0,0,0,0,0,0,0,0,0,
0,0,0,0,0,0,0,0,0,0,0,0,0,0,0,0,
0,0,0,0,0,0,0,0,0,0,0,0,0,0,0,0,
0,0,0,0,0,0,0,0,0,0,0,2815,2816,0,0,0,
0,0,0,0,0,0,0,0,0,0,0,2823,2824,0,0,0
</chunk>
   <chunk x="-16" y="0" width="16" height="16">
0,0,0,0,0,0,0,0,0,0,0,1169,1170,0,0,0,
0,0,0,0,0,0,0,0,0,0,0,1177,1178,0,0,0,
0,0,0,0,0,0,0,0,0,0,0,2879,2880,0,0,0,
0,0,0,0,0,0,0,0,0,0,0,2887,2888,0,0,0,
0,0,0,0,0,0,0,0,0,0,0,0,0,0,0,0,
0,0,0,0,0,0,0,0,0,0,0,0,0,0,0,0,
0,0,0,0,0,0,0,0,0,0,0,0,0,0,0,0,
0,0,0,0,0,0,0,0,0,0,0,0,0,0,0,0,
0,0,0,0,0,0,0,0,0,0,0,0,0,0,0,0,
0,0,0,0,0,0,0,0,0,0,0,0,0,0,0,0,
0,0,0,0,0,0,0,0,0,0,0,0,0,0,0,0,
0,0,0,0,0,0,0,0,0,0,0,0,0,0,0,0,
0,0,0,0,0,0,0,0,0,0,0,0,0,0,0,0,
0,0,0,0,0,0,0,0,0,0,0,0,0,0,0,0,
0,0,0,0,0,0,0,0,0,0,0,0,0,0,0,0,
0,0,0,0,0,0,0,0,0,0,0,0,0,0,0,0
</chunk>
  </data>
 </layer>
 <layer id="13" name="Fighter" width="16" height="24">
  <data encoding="csv">
   <chunk x="-16" y="-16" width="16" height="16">
0,0,0,0,0,0,0,0,0,0,0,0,0,0,0,0,
0,0,0,0,0,0,0,0,0,0,0,0,0,0,0,0,
0,0,0,0,0,0,0,0,0,0,0,0,0,0,0,0,
0,0,0,0,0,0,0,0,0,0,0,0,0,0,0,0,
0,0,0,0,0,0,0,0,0,0,0,0,0,0,0,0,
0,0,0,0,0,0,0,0,0,0,0,0,0,0,0,0,
0,0,0,0,0,0,0,0,0,0,0,0,0,0,0,0,
0,0,0,0,0,0,0,0,0,0,0,0,0,0,0,0,
0,0,0,0,0,0,0,0,0,0,0,0,0,0,0,0,
0,0,0,0,0,0,0,0,0,0,0,0,0,0,0,0,
0,0,0,0,0,0,0,0,0,0,0,0,0,0,0,0,
0,0,0,0,0,0,0,0,0,0,0,0,0,0,0,0,
0,0,0,0,0,0,0,0,0,0,0,0,0,0,0,0,
0,0,0,0,0,0,0,0,0,0,0,0,0,0,0,0,
0,0,0,0,0,0,0,0,0,0,0,0,0,0,0,0,
0,0,0,0,0,0,0,0,0,0,3136,3137,0,0,0,0
</chunk>
   <chunk x="-16" y="0" width="16" height="16">
0,0,0,0,0,0,0,0,0,0,3160,3161,0,0,0,0,
0,0,0,0,0,0,0,0,0,0,3184,3185,0,0,0,0,
0,0,0,0,0,0,0,0,0,0,0,0,0,0,0,0,
0,0,0,0,0,0,0,0,0,0,0,0,0,0,0,0,
0,0,0,0,0,0,0,0,0,0,0,0,0,0,0,0,
0,0,0,0,0,0,0,0,0,0,0,0,0,0,0,0,
0,0,0,0,0,0,0,0,0,0,0,0,0,0,0,0,
0,0,0,0,0,0,0,0,0,0,0,0,0,0,0,0,
0,0,0,0,0,0,0,0,0,0,0,0,0,0,0,0,
0,0,0,0,0,0,0,0,0,0,0,0,0,0,0,0,
0,0,0,0,0,0,0,0,0,0,0,0,0,0,0,0,
0,0,0,0,0,0,0,0,0,0,0,0,0,0,0,0,
0,0,0,0,0,0,0,0,0,0,0,0,0,0,0,0,
0,0,0,0,0,0,0,0,0,0,0,0,0,0,0,0,
0,0,0,0,0,0,0,0,0,0,0,0,0,0,0,0,
0,0,0,0,0,0,0,0,0,0,0,0,0,0,0,0
</chunk>
  </data>
 </layer>
 <layer id="14" name="Mage1" width="16" height="24">
  <data encoding="csv">
   <chunk x="0" y="-16" width="16" height="16">
0,0,0,0,0,0,0,0,0,0,0,0,0,0,0,0,
0,0,0,0,0,0,0,0,0,0,0,0,0,0,0,0,
0,0,0,0,0,0,0,0,0,0,0,0,0,0,0,0,
0,0,0,0,0,0,0,0,0,0,0,0,0,0,0,0,
0,0,0,0,0,0,0,0,0,0,0,0,0,0,0,0,
0,0,0,0,0,0,0,0,0,0,0,0,0,0,0,0,
0,0,0,0,0,0,0,0,0,0,0,0,0,0,0,0,
0,0,0,0,0,0,0,0,0,0,0,0,0,0,0,0,
0,0,0,0,0,0,0,0,0,0,0,0,0,0,0,0,
0,0,0,0,0,0,0,0,0,0,0,0,0,0,0,0,
0,0,0,0,0,0,0,0,0,0,0,0,0,0,0,0,
0,0,0,0,0,0,0,0,0,0,0,0,0,0,0,0,
0,0,0,0,0,0,0,0,0,0,0,0,0,0,0,0,
1217,1218,1219,0,0,0,0,0,0,0,0,0,0,0,0,0,
1245,1246,1247,0,0,0,0,0,0,0,0,0,0,0,0,0,
1273,1274,1275,0,0,0,0,0,0,0,0,0,0,0,0,0
</chunk>
   <chunk x="0" y="0" width="16" height="16">
1301,1302,1303,0,0,0,0,0,0,0,0,0,0,0,0,0,
0,0,0,0,0,0,0,0,0,0,0,0,0,0,0,0,
0,0,0,0,0,0,0,0,0,0,0,0,0,0,0,0,
0,0,0,0,0,0,0,0,0,0,0,0,0,0,0,0,
0,0,0,0,0,0,0,0,0,0,0,0,0,0,0,0,
0,0,0,0,0,0,0,0,0,0,0,0,0,0,0,0,
0,0,0,0,0,0,0,0,0,0,0,0,0,0,0,0,
0,0,0,0,0,0,0,0,0,0,0,0,0,0,0,0,
0,0,0,0,0,0,0,0,0,0,0,0,0,0,0,0,
0,0,0,0,0,0,0,0,0,0,0,0,0,0,0,0,
0,0,0,0,0,0,0,0,0,0,0,0,0,0,0,0,
0,0,0,0,0,0,0,0,0,0,0,0,0,0,0,0,
0,0,0,0,0,0,0,0,0,0,0,0,0,0,0,0,
0,0,0,0,0,0,0,0,0,0,0,0,0,0,0,0,
0,0,0,0,0,0,0,0,0,0,0,0,0,0,0,0,
0,0,0,0,0,0,0,0,0,0,0,0,0,0,0,0
</chunk>
  </data>
 </layer>
 <layer id="15" name="Mage2" width="16" height="24">
  <data encoding="csv">
   <chunk x="0" y="0" width="16" height="16">
0,0,0,0,0,0,0,0,0,0,0,0,0,0,0,0,
1693,1694,1695,0,0,0,0,0,0,0,0,0,0,0,0,0,
1721,1722,1723,0,0,0,0,0,0,0,0,0,0,0,0,0,
1749,1750,1751,0,0,0,0,0,0,0,0,0,0,0,0,0,
0,0,0,0,0,0,0,0,0,0,0,0,0,0,0,0,
0,0,0,0,0,0,0,0,0,0,0,0,0,0,0,0,
0,0,0,0,0,0,0,0,0,0,0,0,0,0,0,0,
0,0,0,0,0,0,0,0,0,0,0,0,0,0,0,0,
0,0,0,0,0,0,0,0,0,0,0,0,0,0,0,0,
0,0,0,0,0,0,0,0,0,0,0,0,0,0,0,0,
0,0,0,0,0,0,0,0,0,0,0,0,0,0,0,0,
0,0,0,0,0,0,0,0,0,0,0,0,0,0,0,0,
0,0,0,0,0,0,0,0,0,0,0,0,0,0,0,0,
0,0,0,0,0,0,0,0,0,0,0,0,0,0,0,0,
0,0,0,0,0,0,0,0,0,0,0,0,0,0,0,0,
0,0,0,0,0,0,0,0,0,0,0,0,0,0,0,0
</chunk>
  </data>
 </layer>
 <layer id="16" name="Mage3" width="16" height="24">
  <data encoding="csv">
   <chunk x="0" y="-16" width="16" height="16">
0,0,0,0,0,0,0,0,0,0,0,0,0,0,0,0,
0,0,0,0,0,0,0,0,0,0,0,0,0,0,0,0,
0,0,0,0,0,0,0,0,0,0,0,0,0,0,0,0,
0,0,0,0,0,0,0,0,0,0,0,0,0,0,0,0,
0,0,0,0,0,0,0,0,0,0,0,0,0,0,0,0,
0,0,0,0,0,0,0,0,0,0,0,0,0,0,0,0,
0,0,0,0,0,0,0,0,0,0,0,0,0,0,0,0,
0,0,0,0,0,0,0,0,0,0,0,0,0,0,0,0,
0,0,0,0,0,0,0,0,0,0,0,0,0,0,0,0,
0,0,0,0,0,0,0,0,0,0,0,0,0,0,0,0,
0,0,0,0,0,0,0,0,0,0,0,0,0,0,0,0,
0,0,0,0,0,0,0,0,0,0,0,0,0,0,0,0,
0,0,0,0,0,0,0,0,0,0,0,0,0,0,0,0,
0,0,0,0,0,0,0,0,0,0,0,0,0,0,0,0,
0,0,0,0,0,0,0,0,0,0,0,0,0,0,0,0,
0,2141,2142,2143,2144,0,0,0,0,0,0,0,0,0,0,0
</chunk>
   <chunk x="0" y="0" width="16" height="16">
0,2169,2170,2171,2172,0,0,0,0,0,0,0,0,0,0,0,
0,2197,2198,2199,2200,0,0,0,0,0,0,0,0,0,0,0,
0,0,0,0,0,0,0,0,0,0,0,0,0,0,0,0,
0,0,0,0,0,0,0,0,0,0,0,0,0,0,0,0,
0,0,0,0,0,0,0,0,0,0,0,0,0,0,0,0,
0,0,0,0,0,0,0,0,0,0,0,0,0,0,0,0,
0,0,0,0,0,0,0,0,0,0,0,0,0,0,0,0,
0,0,0,0,0,0,0,0,0,0,0,0,0,0,0,0,
0,0,0,0,0,0,0,0,0,0,0,0,0,0,0,0,
0,0,0,0,0,0,0,0,0,0,0,0,0,0,0,0,
0,0,0,0,0,0,0,0,0,0,0,0,0,0,0,0,
0,0,0,0,0,0,0,0,0,0,0,0,0,0,0,0,
0,0,0,0,0,0,0,0,0,0,0,0,0,0,0,0,
0,0,0,0,0,0,0,0,0,0,0,0,0,0,0,0,
0,0,0,0,0,0,0,0,0,0,0,0,0,0,0,0,
0,0,0,0,0,0,0,0,0,0,0,0,0,0,0,0
</chunk>
  </data>
 </layer>
 <layer id="17" name="Mage4" width="16" height="24">
  <data encoding="csv">
   <chunk x="-16" y="-16" width="16" height="16">
0,0,0,0,0,0,0,0,0,0,0,0,0,0,0,0,
0,0,0,0,0,0,0,0,0,0,0,0,0,0,0,0,
0,0,0,0,0,0,0,0,0,0,0,0,0,0,0,0,
0,0,0,0,0,0,0,0,0,0,0,0,0,0,0,0,
0,0,0,0,0,0,0,0,0,0,0,0,0,0,0,0,
0,0,0,0,0,0,0,0,0,0,0,0,0,0,0,0,
0,0,0,0,0,0,0,0,0,0,0,0,0,0,0,0,
0,0,0,0,0,0,0,0,0,0,0,0,0,0,0,0,
0,0,0,0,0,0,0,0,0,0,0,0,0,0,0,0,
0,0,0,0,0,0,0,0,0,0,0,0,0,0,0,0,
0,0,0,0,0,0,0,0,0,0,0,0,0,0,0,0,
0,0,0,0,0,0,0,0,0,0,0,0,0,0,0,0,
0,0,0,0,0,0,0,0,0,0,0,0,0,0,0,0,
0,0,0,0,0,0,0,0,0,0,0,0,0,0,0,0,
0,0,0,0,0,0,0,0,0,0,0,0,0,0,0,0,
0,0,0,0,0,0,0,0,0,0,0,0,0,0,2589,2590
</chunk>
   <chunk x="0" y="-16" width="16" height="16">
0,0,0,0,0,0,0,0,0,0,0,0,0,0,0,0,
0,0,0,0,0,0,0,0,0,0,0,0,0,0,0,0,
0,0,0,0,0,0,0,0,0,0,0,0,0,0,0,0,
0,0,0,0,0,0,0,0,0,0,0,0,0,0,0,0,
0,0,0,0,0,0,0,0,0,0,0,0,0,0,0,0,
0,0,0,0,0,0,0,0,0,0,0,0,0,0,0,0,
0,0,0,0,0,0,0,0,0,0,0,0,0,0,0,0,
0,0,0,0,0,0,0,0,0,0,0,0,0,0,0,0,
0,0,0,0,0,0,0,0,0,0,0,0,0,0,0,0,
0,0,0,0,0,0,0,0,0,0,0,0,0,0,0,0,
0,0,0,0,0,0,0,0,0,0,0,0,0,0,0,0,
0,0,0,0,0,0,0,0,0,0,0,0,0,0,0,0,
0,0,0,0,0,0,0,0,0,0,0,0,0,0,0,0,
0,0,0,0,0,0,0,0,0,0,0,0,0,0,0,0,
0,0,0,0,0,0,0,0,0,0,0,0,0,0,0,0,
2591,2592,0,0,0,0,0,0,0,0,0,0,0,0,0,0
</chunk>
   <chunk x="-16" y="0" width="16" height="16">
0,0,0,0,0,0,0,0,0,0,0,0,0,0,2617,2618,
0,0,0,0,0,0,0,0,0,0,0,0,0,0,2645,2646,
0,0,0,0,0,0,0,0,0,0,0,0,0,0,0,0,
0,0,0,0,0,0,0,0,0,0,0,0,0,0,0,0,
0,0,0,0,0,0,0,0,0,0,0,0,0,0,0,0,
0,0,0,0,0,0,0,0,0,0,0,0,0,0,0,0,
0,0,0,0,0,0,0,0,0,0,0,0,0,0,0,0,
0,0,0,0,0,0,0,0,0,0,0,0,0,0,0,0,
0,0,0,0,0,0,0,0,0,0,0,0,0,0,0,0,
0,0,0,0,0,0,0,0,0,0,0,0,0,0,0,0,
0,0,0,0,0,0,0,0,0,0,0,0,0,0,0,0,
0,0,0,0,0,0,0,0,0,0,0,0,0,0,0,0,
0,0,0,0,0,0,0,0,0,0,0,0,0,0,0,0,
0,0,0,0,0,0,0,0,0,0,0,0,0,0,0,0,
0,0,0,0,0,0,0,0,0,0,0,0,0,0,0,0,
0,0,0,0,0,0,0,0,0,0,0,0,0,0,0,0
</chunk>
   <chunk x="0" y="0" width="16" height="16">
2619,2620,0,0,0,0,0,0,0,0,0,0,0,0,0,0,
2647,2648,0,0,0,0,0,0,0,0,0,0,0,0,0,0,
0,0,0,0,0,0,0,0,0,0,0,0,0,0,0,0,
0,0,0,0,0,0,0,0,0,0,0,0,0,0,0,0,
0,0,0,0,0,0,0,0,0,0,0,0,0,0,0,0,
0,0,0,0,0,0,0,0,0,0,0,0,0,0,0,0,
0,0,0,0,0,0,0,0,0,0,0,0,0,0,0,0,
0,0,0,0,0,0,0,0,0,0,0,0,0,0,0,0,
0,0,0,0,0,0,0,0,0,0,0,0,0,0,0,0,
0,0,0,0,0,0,0,0,0,0,0,0,0,0,0,0,
0,0,0,0,0,0,0,0,0,0,0,0,0,0,0,0,
0,0,0,0,0,0,0,0,0,0,0,0,0,0,0,0,
0,0,0,0,0,0,0,0,0,0,0,0,0,0,0,0,
0,0,0,0,0,0,0,0,0,0,0,0,0,0,0,0,
0,0,0,0,0,0,0,0,0,0,0,0,0,0,0,0,
0,0,0,0,0,0,0,0,0,0,0,0,0,0,0,0
</chunk>
  </data>
 </layer>
 <layer id="18" name="Fire" width="16" height="24">
  <data encoding="csv">
   <chunk x="0" y="-16" width="16" height="16">
0,0,0,0,0,0,0,0,0,0,0,0,0,0,0,0,
0,0,0,0,0,0,0,0,0,0,0,0,0,0,0,0,
0,0,0,0,0,0,0,0,0,0,0,0,0,0,0,0,
0,0,0,0,0,0,0,0,0,0,0,0,0,0,0,0,
0,0,0,0,0,0,0,0,0,0,0,0,0,0,0,0,
0,0,0,0,0,0,0,0,0,0,0,0,0,0,0,0,
0,0,0,0,0,0,0,0,0,0,0,0,0,0,0,0,
0,0,0,0,0,0,0,0,0,0,0,0,0,0,0,0,
0,0,0,0,0,0,0,0,0,0,0,0,0,0,0,0,
0,0,0,0,0,0,0,0,0,0,0,0,0,0,0,0,
0,0,0,0,0,0,0,0,0,0,0,0,0,0,0,0,
0,0,0,0,0,0,0,0,0,0,0,0,0,0,0,0,
0,0,0,0,0,0,0,0,0,0,0,0,0,0,0,0,
0,0,0,0,0,0,0,0,0,0,0,0,0,0,0,0,
0,0,0,0,0,0,0,0,0,0,0,0,0,0,0,0,
2673,2674,2675,0,0,0,0,0,0,0,0,0,0,0,0,0
</chunk>
   <chunk x="0" y="0" width="16" height="16">
2697,2698,2699,0,0,0,0,0,0,0,0,0,0,0,0,0,
2721,2722,2723,0,0,0,0,0,0,0,0,0,0,0,0,0,
0,0,0,0,0,0,0,0,0,0,0,0,0,0,0,0,
0,0,0,0,0,0,0,0,0,0,0,0,0,0,0,0,
0,0,0,0,0,0,0,0,0,0,0,0,0,0,0,0,
0,0,0,0,0,0,0,0,0,0,0,0,0,0,0,0,
0,0,0,0,0,0,0,0,0,0,0,0,0,0,0,0,
0,0,0,0,0,0,0,0,0,0,0,0,0,0,0,0,
0,0,0,0,0,0,0,0,0,0,0,0,0,0,0,0,
0,0,0,0,0,0,0,0,0,0,0,0,0,0,0,0,
0,0,0,0,0,0,0,0,0,0,0,0,0,0,0,0,
0,0,0,0,0,0,0,0,0,0,0,0,0,0,0,0,
0,0,0,0,0,0,0,0,0,0,0,0,0,0,0,0,
0,0,0,0,0,0,0,0,0,0,0,0,0,0,0,0,
0,0,0,0,0,0,0,0,0,0,0,0,0,0,0,0,
0,0,0,0,0,0,0,0,0,0,0,0,0,0,0,0
</chunk>
  </data>
 </layer>
</map>
