<?xml version="1.0" encoding="UTF-8"?>
<map version="1.10" tiledversion="1.12.1" orientation="orthogonal" renderorder="right-down" width="16" height="24" tilewidth="16" tileheight="16" infinite="1" nextlayerid="94" nextobjectid="193">
 <tileset firstgid="1" name="Water_coasts_animation" tilewidth="16" tileheight="16" tilecount="928" columns="29">
  <image source="../Art/Dungeon/Water_coasts_animation.png" width="464" height="512"/>
  <tile id="30">
   <animation>
    <frame tileid="30" duration="150"/>
    <frame tileid="44" duration="150"/>
    <frame tileid="320" duration="150"/>
    <frame tileid="334" duration="150"/>
    <frame tileid="610" duration="150"/>
    <frame tileid="624" duration="150"/>
   </animation>
  </tile>
  <tile id="32">
   <animation>
    <frame tileid="32" duration="150"/>
    <frame tileid="46" duration="150"/>
    <frame tileid="322" duration="150"/>
    <frame tileid="336" duration="150"/>
    <frame tileid="612" duration="150"/>
    <frame tileid="626" duration="150"/>
   </animation>
  </tile>
  <tile id="59">
   <animation>
    <frame tileid="59" duration="150"/>
    <frame tileid="73" duration="150"/>
    <frame tileid="349" duration="150"/>
    <frame tileid="363" duration="150"/>
    <frame tileid="639" duration="150"/>
    <frame tileid="653" duration="150"/>
   </animation>
  </tile>
  <tile id="61">
   <animation>
    <frame tileid="61" duration="150"/>
    <frame tileid="75" duration="150"/>
    <frame tileid="351" duration="150"/>
    <frame tileid="365" duration="150"/>
    <frame tileid="641" duration="150"/>
    <frame tileid="655" duration="150"/>
   </animation>
  </tile>
  <tile id="66">
   <animation>
    <frame tileid="66" duration="150"/>
    <frame tileid="80" duration="150"/>
    <frame tileid="356" duration="150"/>
    <frame tileid="370" duration="150"/>
    <frame tileid="646" duration="150"/>
    <frame tileid="660" duration="150"/>
   </animation>
  </tile>
  <tile id="67">
   <animation>
    <frame tileid="67" duration="150"/>
    <frame tileid="81" duration="150"/>
    <frame tileid="357" duration="150"/>
    <frame tileid="371" duration="150"/>
    <frame tileid="647" duration="150"/>
    <frame tileid="661" duration="150"/>
   </animation>
  </tile>
  <tile id="68">
   <animation>
    <frame tileid="68" duration="150"/>
    <frame tileid="82" duration="150"/>
    <frame tileid="358" duration="150"/>
    <frame tileid="372" duration="150"/>
    <frame tileid="648" duration="150"/>
    <frame tileid="662" duration="150"/>
   </animation>
  </tile>
  <tile id="70">
   <animation>
    <frame tileid="70" duration="150"/>
    <frame tileid="84" duration="150"/>
    <frame tileid="360" duration="150"/>
    <frame tileid="374" duration="150"/>
    <frame tileid="650" duration="150"/>
    <frame tileid="664" duration="150"/>
   </animation>
  </tile>
  <tile id="71">
   <animation>
    <frame tileid="71" duration="150"/>
    <frame tileid="85" duration="150"/>
    <frame tileid="361" duration="150"/>
    <frame tileid="375" duration="150"/>
    <frame tileid="651" duration="150"/>
    <frame tileid="665" duration="150"/>
   </animation>
  </tile>
  <tile id="88">
   <animation>
    <frame tileid="88" duration="150"/>
    <frame tileid="102" duration="150"/>
    <frame tileid="378" duration="150"/>
    <frame tileid="392" duration="150"/>
    <frame tileid="668" duration="150"/>
    <frame tileid="682" duration="150"/>
   </animation>
  </tile>
  <tile id="90">
   <animation>
    <frame tileid="90" duration="150"/>
    <frame tileid="104" duration="150"/>
    <frame tileid="380" duration="150"/>
    <frame tileid="394" duration="150"/>
    <frame tileid="670" duration="150"/>
    <frame tileid="684" duration="150"/>
   </animation>
  </tile>
  <tile id="92">
   <animation>
    <frame tileid="92" duration="150"/>
    <frame tileid="106" duration="150"/>
    <frame tileid="382" duration="150"/>
    <frame tileid="396" duration="150"/>
    <frame tileid="672" duration="150"/>
    <frame tileid="686" duration="150"/>
   </animation>
  </tile>
  <tile id="93">
   <animation>
    <frame tileid="93" duration="150"/>
    <frame tileid="107" duration="150"/>
    <frame tileid="383" duration="150"/>
    <frame tileid="397" duration="150"/>
    <frame tileid="673" duration="150"/>
    <frame tileid="687" duration="150"/>
   </animation>
  </tile>
  <tile id="94">
   <animation>
    <frame tileid="94" duration="150"/>
    <frame tileid="108" duration="150"/>
    <frame tileid="384" duration="150"/>
    <frame tileid="398" duration="150"/>
    <frame tileid="674" duration="150"/>
    <frame tileid="688" duration="150"/>
   </animation>
  </tile>
  <tile id="95">
   <animation>
    <frame tileid="95" duration="150"/>
    <frame tileid="109" duration="150"/>
    <frame tileid="385" duration="150"/>
    <frame tileid="399" duration="150"/>
    <frame tileid="675" duration="150"/>
    <frame tileid="689" duration="150"/>
   </animation>
  </tile>
  <tile id="97">
   <animation>
    <frame tileid="97" duration="150"/>
    <frame tileid="111" duration="150"/>
    <frame tileid="387" duration="150"/>
    <frame tileid="401" duration="150"/>
    <frame tileid="677" duration="150"/>
    <frame tileid="691" duration="150"/>
   </animation>
  </tile>
  <tile id="117">
   <animation>
    <frame tileid="117" duration="150"/>
    <frame tileid="131" duration="150"/>
    <frame tileid="407" duration="150"/>
    <frame tileid="421" duration="150"/>
    <frame tileid="697" duration="150"/>
    <frame tileid="711" duration="150"/>
   </animation>
  </tile>
  <tile id="119">
   <animation>
    <frame tileid="119" duration="150"/>
    <frame tileid="133" duration="150"/>
    <frame tileid="409" duration="150"/>
    <frame tileid="423" duration="150"/>
    <frame tileid="699" duration="150"/>
    <frame tileid="713" duration="150"/>
   </animation>
  </tile>
  <tile id="121">
   <animation>
    <frame tileid="121" duration="150"/>
    <frame tileid="135" duration="150"/>
    <frame tileid="411" duration="150"/>
    <frame tileid="425" duration="150"/>
    <frame tileid="701" duration="150"/>
    <frame tileid="715" duration="150"/>
   </animation>
  </tile>
  <tile id="123">
   <animation>
    <frame tileid="123" duration="150"/>
    <frame tileid="137" duration="150"/>
    <frame tileid="413" duration="150"/>
    <frame tileid="427" duration="150"/>
    <frame tileid="703" duration="150"/>
    <frame tileid="717" duration="150"/>
   </animation>
  </tile>
  <tile id="124">
   <animation>
    <frame tileid="124" duration="150"/>
    <frame tileid="135" duration="150"/>
    <frame tileid="414" duration="150"/>
    <frame tileid="425" duration="150"/>
    <frame tileid="704" duration="150"/>
    <frame tileid="715" duration="150"/>
   </animation>
  </tile>
  <tile id="126">
   <animation>
    <frame tileid="126" duration="150"/>
    <frame tileid="140" duration="150"/>
    <frame tileid="416" duration="150"/>
    <frame tileid="430" duration="150"/>
    <frame tileid="706" duration="150"/>
    <frame tileid="720" duration="150"/>
   </animation>
  </tile>
  <tile id="146">
   <animation>
    <frame tileid="146" duration="150"/>
    <frame tileid="160" duration="150"/>
    <frame tileid="436" duration="150"/>
    <frame tileid="450" duration="150"/>
    <frame tileid="726" duration="150"/>
    <frame tileid="740" duration="150"/>
   </animation>
  </tile>
  <tile id="147">
   <animation>
    <frame tileid="147" duration="150"/>
    <frame tileid="161" duration="150"/>
    <frame tileid="437" duration="150"/>
    <frame tileid="451" duration="150"/>
    <frame tileid="727" duration="150"/>
    <frame tileid="741" duration="150"/>
   </animation>
  </tile>
  <tile id="148">
   <animation>
    <frame tileid="148" duration="150"/>
    <frame tileid="162" duration="150"/>
    <frame tileid="438" duration="150"/>
    <frame tileid="452" duration="150"/>
    <frame tileid="728" duration="150"/>
    <frame tileid="742" duration="150"/>
   </animation>
  </tile>
  <tile id="153">
   <animation>
    <frame tileid="153" duration="150"/>
    <frame tileid="167" duration="150"/>
    <frame tileid="443" duration="150"/>
    <frame tileid="457" duration="150"/>
    <frame tileid="733" duration="150"/>
    <frame tileid="747" duration="150"/>
   </animation>
  </tile>
  <tile id="154">
   <animation>
    <frame tileid="154" duration="150"/>
    <frame tileid="168" duration="150"/>
    <frame tileid="444" duration="150"/>
    <frame tileid="458" duration="150"/>
    <frame tileid="734" duration="150"/>
    <frame tileid="748" duration="150"/>
   </animation>
  </tile>
  <tile id="155">
   <animation>
    <frame tileid="155" duration="150"/>
    <frame tileid="169" duration="150"/>
    <frame tileid="445" duration="150"/>
    <frame tileid="459" duration="150"/>
    <frame tileid="735" duration="150"/>
    <frame tileid="749" duration="150"/>
   </animation>
  </tile>
  <tile id="157">
   <animation>
    <frame tileid="157" duration="150"/>
    <frame tileid="171" duration="150"/>
    <frame tileid="447" duration="150"/>
    <frame tileid="461" duration="150"/>
    <frame tileid="737" duration="150"/>
    <frame tileid="751" duration="150"/>
   </animation>
  </tile>
  <tile id="158">
   <animation>
    <frame tileid="158" duration="150"/>
    <frame tileid="172" duration="150"/>
    <frame tileid="448" duration="150"/>
    <frame tileid="462" duration="150"/>
    <frame tileid="738" duration="150"/>
    <frame tileid="752" duration="150"/>
   </animation>
  </tile>
  <tile id="175">
   <animation>
    <frame tileid="175" duration="150"/>
    <frame tileid="189" duration="150"/>
    <frame tileid="465" duration="150"/>
    <frame tileid="479" duration="150"/>
    <frame tileid="755" duration="150"/>
    <frame tileid="769" duration="150"/>
   </animation>
  </tile>
  <tile id="177">
   <animation>
    <frame tileid="177" duration="150"/>
    <frame tileid="191" duration="150"/>
    <frame tileid="467" duration="150"/>
    <frame tileid="481" duration="150"/>
    <frame tileid="757" duration="150"/>
    <frame tileid="771" duration="150"/>
   </animation>
  </tile>
  <tile id="179">
   <animation>
    <frame tileid="179" duration="150"/>
    <frame tileid="193" duration="150"/>
    <frame tileid="469" duration="150"/>
    <frame tileid="483" duration="150"/>
    <frame tileid="759" duration="150"/>
    <frame tileid="773" duration="150"/>
   </animation>
  </tile>
  <tile id="180">
   <animation>
    <frame tileid="180" duration="150"/>
    <frame tileid="194" duration="150"/>
    <frame tileid="470" duration="150"/>
    <frame tileid="484" duration="150"/>
    <frame tileid="673" duration="150"/>
    <frame tileid="774" duration="150"/>
   </animation>
  </tile>
  <tile id="181">
   <animation>
    <frame tileid="181" duration="150"/>
    <frame tileid="195" duration="150"/>
    <frame tileid="471" duration="150"/>
    <frame tileid="485" duration="150"/>
    <frame tileid="761" duration="150"/>
    <frame tileid="775" duration="150"/>
   </animation>
  </tile>
  <tile id="182">
   <animation>
    <frame tileid="182" duration="150"/>
    <frame tileid="196" duration="150"/>
    <frame tileid="472" duration="150"/>
    <frame tileid="486" duration="150"/>
    <frame tileid="762" duration="150"/>
    <frame tileid="776" duration="150"/>
   </animation>
  </tile>
  <tile id="183">
   <animation>
    <frame tileid="183" duration="150"/>
    <frame tileid="197" duration="150"/>
    <frame tileid="473" duration="150"/>
    <frame tileid="487" duration="150"/>
    <frame tileid="763" duration="150"/>
    <frame tileid="777" duration="150"/>
   </animation>
  </tile>
  <tile id="184">
   <animation>
    <frame tileid="184" duration="150"/>
    <frame tileid="198" duration="150"/>
    <frame tileid="474" duration="150"/>
    <frame tileid="488" duration="150"/>
    <frame tileid="764" duration="150"/>
    <frame tileid="778" duration="150"/>
   </animation>
  </tile>
  <tile id="204">
   <animation>
    <frame tileid="204" duration="150"/>
    <frame tileid="218" duration="150"/>
    <frame tileid="494" duration="150"/>
    <frame tileid="508" duration="150"/>
    <frame tileid="784" duration="150"/>
    <frame tileid="798" duration="150"/>
   </animation>
  </tile>
  <tile id="206">
   <animation>
    <frame tileid="206" duration="150"/>
    <frame tileid="220" duration="150"/>
    <frame tileid="496" duration="150"/>
    <frame tileid="510" duration="150"/>
    <frame tileid="786" duration="150"/>
    <frame tileid="800" duration="150"/>
   </animation>
  </tile>
  <tile id="208">
   <animation>
    <frame tileid="208" duration="150"/>
    <frame tileid="222" duration="150"/>
    <frame tileid="498" duration="150"/>
    <frame tileid="512" duration="150"/>
    <frame tileid="788" duration="150"/>
    <frame tileid="802" duration="150"/>
   </animation>
  </tile>
  <tile id="210">
   <animation>
    <frame tileid="210" duration="150"/>
    <frame tileid="224" duration="150"/>
    <frame tileid="500" duration="150"/>
    <frame tileid="514" duration="150"/>
    <frame tileid="790" duration="150"/>
    <frame tileid="804" duration="150"/>
   </animation>
  </tile>
  <tile id="211">
   <animation>
    <frame tileid="211" duration="150"/>
    <frame tileid="225" duration="150"/>
    <frame tileid="501" duration="150"/>
    <frame tileid="515" duration="150"/>
    <frame tileid="791" duration="150"/>
    <frame tileid="805" duration="150"/>
   </animation>
  </tile>
  <tile id="213">
   <animation>
    <frame tileid="213" duration="150"/>
    <frame tileid="227" duration="150"/>
    <frame tileid="503" duration="150"/>
    <frame tileid="517" duration="150"/>
    <frame tileid="793" duration="150"/>
    <frame tileid="807" duration="150"/>
   </animation>
  </tile>
  <tile id="233">
   <animation>
    <frame tileid="233" duration="150"/>
    <frame tileid="247" duration="150"/>
    <frame tileid="523" duration="150"/>
    <frame tileid="537" duration="150"/>
    <frame tileid="813" duration="150"/>
    <frame tileid="827" duration="150"/>
   </animation>
  </tile>
  <tile id="235">
   <animation>
    <frame tileid="235" duration="150"/>
    <frame tileid="249" duration="150"/>
    <frame tileid="525" duration="150"/>
    <frame tileid="539" duration="150"/>
    <frame tileid="815" duration="150"/>
    <frame tileid="829" duration="150"/>
   </animation>
  </tile>
  <tile id="237">
   <animation>
    <frame tileid="237" duration="150"/>
    <frame tileid="251" duration="150"/>
    <frame tileid="527" duration="150"/>
    <frame tileid="541" duration="150"/>
    <frame tileid="817" duration="150"/>
    <frame tileid="831" duration="150"/>
   </animation>
  </tile>
  <tile id="239">
   <animation>
    <frame tileid="239" duration="150"/>
    <frame tileid="253" duration="150"/>
    <frame tileid="529" duration="150"/>
    <frame tileid="543" duration="150"/>
    <frame tileid="819" duration="150"/>
    <frame tileid="833" duration="150"/>
   </animation>
  </tile>
  <tile id="240">
   <animation>
    <frame tileid="240" duration="150"/>
    <frame tileid="254" duration="150"/>
    <frame tileid="530" duration="150"/>
    <frame tileid="544" duration="150"/>
    <frame tileid="820" duration="150"/>
    <frame tileid="834" duration="150"/>
   </animation>
  </tile>
  <tile id="242">
   <animation>
    <frame tileid="242" duration="150"/>
    <frame tileid="256" duration="150"/>
    <frame tileid="532" duration="150"/>
    <frame tileid="546" duration="150"/>
    <frame tileid="822" duration="150"/>
    <frame tileid="836" duration="150"/>
   </animation>
  </tile>
  <tile id="244">
   <animation>
    <frame tileid="244" duration="150"/>
    <frame tileid="258" duration="150"/>
    <frame tileid="534" duration="150"/>
    <frame tileid="548" duration="150"/>
    <frame tileid="824" duration="150"/>
    <frame tileid="838" duration="150"/>
   </animation>
  </tile>
  <tile id="245">
   <animation>
    <frame tileid="245" duration="150"/>
    <frame tileid="259" duration="150"/>
    <frame tileid="535" duration="150"/>
    <frame tileid="549" duration="150"/>
    <frame tileid="825" duration="150"/>
    <frame tileid="839" duration="150"/>
   </animation>
  </tile>
  <tile id="262">
   <animation>
    <frame tileid="262" duration="150"/>
    <frame tileid="276" duration="150"/>
    <frame tileid="552" duration="150"/>
    <frame tileid="566" duration="150"/>
    <frame tileid="842" duration="150"/>
    <frame tileid="856" duration="150"/>
   </animation>
  </tile>
  <tile id="263">
   <animation>
    <frame tileid="263" duration="150"/>
    <frame tileid="277" duration="150"/>
    <frame tileid="553" duration="150"/>
    <frame tileid="567" duration="150"/>
    <frame tileid="727" duration="150"/>
    <frame tileid="741" duration="150"/>
   </animation>
  </tile>
  <tile id="264">
   <animation>
    <frame tileid="264" duration="150"/>
    <frame tileid="278" duration="150"/>
    <frame tileid="554" duration="150"/>
    <frame tileid="568" duration="150"/>
    <frame tileid="844" duration="150"/>
    <frame tileid="858" duration="150"/>
   </animation>
  </tile>
  <tile id="273">
   <animation>
    <frame tileid="273" duration="150"/>
    <frame tileid="287" duration="150"/>
    <frame tileid="563" duration="150"/>
    <frame tileid="577" duration="150"/>
    <frame tileid="853" duration="150"/>
    <frame tileid="867" duration="150"/>
   </animation>
  </tile>
  <tile id="274">
   <animation>
    <frame tileid="274" duration="150"/>
    <frame tileid="288" duration="150"/>
    <frame tileid="564" duration="150"/>
    <frame tileid="578" duration="150"/>
    <frame tileid="854" duration="150"/>
    <frame tileid="868" duration="150"/>
   </animation>
  </tile>
 </tileset>
 <tileset firstgid="929" name="Water_detilazation" tilewidth="16" tileheight="16" tilecount="2886" columns="37">
  <image source="../Art/Dungeon/water_details_animation.png" width="592" height="1248"/>
  <tile id="40">
   <animation>
    <frame tileid="40" duration="150"/>
    <frame tileid="521" duration="150"/>
    <frame tileid="1002" duration="150"/>
    <frame tileid="1483" duration="150"/>
    <frame tileid="1964" duration="150"/>
    <frame tileid="2445" duration="150"/>
   </animation>
  </tile>
  <tile id="41">
   <animation>
    <frame tileid="41" duration="150"/>
    <frame tileid="522" duration="150"/>
    <frame tileid="1003" duration="150"/>
    <frame tileid="1484" duration="150"/>
    <frame tileid="1965" duration="150"/>
    <frame tileid="2446" duration="150"/>
   </animation>
  </tile>
  <tile id="42">
   <animation>
    <frame tileid="42" duration="150"/>
    <frame tileid="523" duration="150"/>
    <frame tileid="1004" duration="150"/>
    <frame tileid="1485" duration="150"/>
    <frame tileid="1966" duration="150"/>
    <frame tileid="2447" duration="150"/>
   </animation>
  </tile>
  <tile id="43">
   <animation>
    <frame tileid="43" duration="150"/>
    <frame tileid="524" duration="150"/>
    <frame tileid="1005" duration="150"/>
    <frame tileid="1486" duration="150"/>
    <frame tileid="1967" duration="150"/>
    <frame tileid="2448" duration="150"/>
   </animation>
  </tile>
  <tile id="44">
   <animation>
    <frame tileid="44" duration="150"/>
    <frame tileid="525" duration="150"/>
    <frame tileid="1006" duration="150"/>
    <frame tileid="1487" duration="150"/>
    <frame tileid="1968" duration="150"/>
    <frame tileid="2449" duration="150"/>
   </animation>
  </tile>
  <tile id="45">
   <animation>
    <frame tileid="45" duration="150"/>
    <frame tileid="526" duration="150"/>
    <frame tileid="1007" duration="150"/>
    <frame tileid="1488" duration="150"/>
    <frame tileid="1969" duration="150"/>
    <frame tileid="2450" duration="150"/>
   </animation>
  </tile>
  <tile id="46">
   <animation>
    <frame tileid="46" duration="150"/>
    <frame tileid="527" duration="150"/>
    <frame tileid="1008" duration="150"/>
    <frame tileid="1489" duration="150"/>
    <frame tileid="1970" duration="150"/>
    <frame tileid="2451" duration="150"/>
   </animation>
  </tile>
  <tile id="47">
   <animation>
    <frame tileid="47" duration="150"/>
    <frame tileid="528" duration="150"/>
    <frame tileid="1009" duration="150"/>
    <frame tileid="1490" duration="150"/>
    <frame tileid="1971" duration="150"/>
    <frame tileid="2452" duration="150"/>
   </animation>
  </tile>
  <tile id="48">
   <animation>
    <frame tileid="48" duration="150"/>
    <frame tileid="529" duration="150"/>
    <frame tileid="1010" duration="150"/>
    <frame tileid="1491" duration="150"/>
    <frame tileid="1972" duration="150"/>
    <frame tileid="2453" duration="150"/>
   </animation>
  </tile>
  <tile id="49">
   <animation>
    <frame tileid="49" duration="150"/>
    <frame tileid="530" duration="150"/>
    <frame tileid="1011" duration="150"/>
    <frame tileid="1492" duration="150"/>
    <frame tileid="1973" duration="150"/>
    <frame tileid="2454" duration="150"/>
   </animation>
  </tile>
  <tile id="50">
   <animation>
    <frame tileid="50" duration="150"/>
    <frame tileid="531" duration="150"/>
    <frame tileid="1012" duration="150"/>
    <frame tileid="1493" duration="150"/>
    <frame tileid="1974" duration="150"/>
    <frame tileid="2455" duration="150"/>
   </animation>
  </tile>
  <tile id="51">
   <animation>
    <frame tileid="51" duration="150"/>
    <frame tileid="532" duration="150"/>
    <frame tileid="1013" duration="150"/>
    <frame tileid="1494" duration="150"/>
    <frame tileid="1975" duration="150"/>
    <frame tileid="2456" duration="150"/>
   </animation>
  </tile>
  <tile id="52">
   <animation>
    <frame tileid="52" duration="150"/>
    <frame tileid="533" duration="150"/>
    <frame tileid="1014" duration="150"/>
    <frame tileid="1495" duration="150"/>
    <frame tileid="1976" duration="150"/>
    <frame tileid="2457" duration="150"/>
   </animation>
  </tile>
  <tile id="53">
   <animation>
    <frame tileid="53" duration="150"/>
    <frame tileid="534" duration="150"/>
    <frame tileid="1015" duration="150"/>
    <frame tileid="1496" duration="150"/>
    <frame tileid="1977" duration="150"/>
    <frame tileid="2458" duration="150"/>
   </animation>
  </tile>
  <tile id="56">
   <animation>
    <frame tileid="56" duration="150"/>
    <frame tileid="537" duration="150"/>
    <frame tileid="1018" duration="150"/>
    <frame tileid="1499" duration="150"/>
    <frame tileid="1980" duration="150"/>
    <frame tileid="2461" duration="150"/>
   </animation>
  </tile>
  <tile id="57">
   <animation>
    <frame tileid="57" duration="150"/>
    <frame tileid="538" duration="150"/>
    <frame tileid="1019" duration="150"/>
    <frame tileid="1500" duration="150"/>
    <frame tileid="1981" duration="150"/>
    <frame tileid="2462" duration="150"/>
   </animation>
  </tile>
  <tile id="58">
   <animation>
    <frame tileid="58" duration="150"/>
    <frame tileid="539" duration="150"/>
    <frame tileid="1020" duration="150"/>
    <frame tileid="1501" duration="150"/>
    <frame tileid="1982" duration="150"/>
    <frame tileid="2463" duration="150"/>
   </animation>
  </tile>
  <tile id="59">
   <animation>
    <frame tileid="59" duration="150"/>
    <frame tileid="540" duration="150"/>
    <frame tileid="1021" duration="150"/>
    <frame tileid="1502" duration="150"/>
    <frame tileid="1983" duration="150"/>
    <frame tileid="2464" duration="150"/>
   </animation>
  </tile>
  <tile id="60">
   <animation>
    <frame tileid="60" duration="150"/>
    <frame tileid="541" duration="150"/>
    <frame tileid="1022" duration="150"/>
    <frame tileid="1503" duration="150"/>
    <frame tileid="1984" duration="150"/>
    <frame tileid="2465" duration="150"/>
   </animation>
  </tile>
  <tile id="61">
   <animation>
    <frame tileid="61" duration="150"/>
    <frame tileid="542" duration="150"/>
    <frame tileid="1023" duration="150"/>
    <frame tileid="1504" duration="150"/>
    <frame tileid="1985" duration="150"/>
    <frame tileid="2466" duration="150"/>
   </animation>
  </tile>
  <tile id="62">
   <animation>
    <frame tileid="62" duration="150"/>
    <frame tileid="543" duration="150"/>
    <frame tileid="1024" duration="150"/>
    <frame tileid="1505" duration="150"/>
    <frame tileid="1986" duration="150"/>
    <frame tileid="2467" duration="150"/>
   </animation>
  </tile>
  <tile id="63">
   <animation>
    <frame tileid="63" duration="150"/>
    <frame tileid="544" duration="150"/>
    <frame tileid="1025" duration="150"/>
    <frame tileid="1506" duration="150"/>
    <frame tileid="1987" duration="150"/>
    <frame tileid="2468" duration="150"/>
   </animation>
  </tile>
  <tile id="74">
   <animation>
    <frame tileid="74" duration="150"/>
    <frame tileid="555" duration="150"/>
    <frame tileid="1036" duration="150"/>
    <frame tileid="1517" duration="150"/>
    <frame tileid="1998" duration="150"/>
    <frame tileid="2479" duration="150"/>
   </animation>
  </tile>
  <tile id="75">
   <animation>
    <frame tileid="75" duration="150"/>
    <frame tileid="556" duration="150"/>
    <frame tileid="1037" duration="150"/>
    <frame tileid="1518" duration="150"/>
    <frame tileid="1999" duration="150"/>
    <frame tileid="2480" duration="150"/>
   </animation>
  </tile>
  <tile id="76">
   <animation>
    <frame tileid="76" duration="150"/>
    <frame tileid="557" duration="150"/>
    <frame tileid="1038" duration="150"/>
    <frame tileid="1519" duration="150"/>
    <frame tileid="2000" duration="150"/>
    <frame tileid="2481" duration="150"/>
   </animation>
  </tile>
  <tile id="77">
   <animation>
    <frame tileid="77" duration="150"/>
    <frame tileid="558" duration="150"/>
    <frame tileid="1039" duration="150"/>
    <frame tileid="1520" duration="150"/>
    <frame tileid="2001" duration="150"/>
    <frame tileid="2482" duration="150"/>
   </animation>
  </tile>
  <tile id="78">
   <animation>
    <frame tileid="78" duration="150"/>
    <frame tileid="559" duration="150"/>
    <frame tileid="1040" duration="150"/>
    <frame tileid="1521" duration="150"/>
    <frame tileid="2002" duration="150"/>
    <frame tileid="2483" duration="150"/>
   </animation>
  </tile>
  <tile id="79">
   <animation>
    <frame tileid="79" duration="150"/>
    <frame tileid="560" duration="150"/>
    <frame tileid="1041" duration="150"/>
    <frame tileid="1522" duration="150"/>
    <frame tileid="2003" duration="150"/>
    <frame tileid="2484" duration="150"/>
   </animation>
  </tile>
  <tile id="80">
   <animation>
    <frame tileid="80" duration="150"/>
    <frame tileid="561" duration="150"/>
    <frame tileid="1042" duration="150"/>
    <frame tileid="1523" duration="150"/>
    <frame tileid="2004" duration="150"/>
    <frame tileid="2485" duration="150"/>
   </animation>
  </tile>
  <tile id="81">
   <animation>
    <frame tileid="81" duration="150"/>
    <frame tileid="562" duration="150"/>
    <frame tileid="1043" duration="150"/>
    <frame tileid="1524" duration="150"/>
    <frame tileid="2005" duration="150"/>
    <frame tileid="2486" duration="150"/>
   </animation>
  </tile>
  <tile id="82">
   <animation>
    <frame tileid="82" duration="150"/>
    <frame tileid="563" duration="150"/>
    <frame tileid="1044" duration="150"/>
    <frame tileid="1525" duration="150"/>
    <frame tileid="2006" duration="150"/>
    <frame tileid="2487" duration="150"/>
   </animation>
  </tile>
  <tile id="83">
   <animation>
    <frame tileid="83" duration="150"/>
    <frame tileid="564" duration="150"/>
    <frame tileid="1045" duration="150"/>
    <frame tileid="1526" duration="150"/>
    <frame tileid="2007" duration="150"/>
    <frame tileid="2488" duration="150"/>
   </animation>
  </tile>
  <tile id="84">
   <animation>
    <frame tileid="84" duration="150"/>
    <frame tileid="565" duration="150"/>
    <frame tileid="1046" duration="150"/>
    <frame tileid="1527" duration="150"/>
    <frame tileid="2008" duration="150"/>
    <frame tileid="2489" duration="150"/>
   </animation>
  </tile>
  <tile id="85">
   <animation>
    <frame tileid="85" duration="150"/>
    <frame tileid="566" duration="150"/>
    <frame tileid="1047" duration="150"/>
    <frame tileid="1528" duration="150"/>
    <frame tileid="2009" duration="150"/>
    <frame tileid="2490" duration="150"/>
   </animation>
  </tile>
  <tile id="86">
   <animation>
    <frame tileid="86" duration="150"/>
    <frame tileid="567" duration="150"/>
    <frame tileid="1048" duration="150"/>
    <frame tileid="1529" duration="150"/>
    <frame tileid="2010" duration="150"/>
    <frame tileid="2491" duration="150"/>
   </animation>
  </tile>
  <tile id="87">
   <animation>
    <frame tileid="87" duration="150"/>
    <frame tileid="568" duration="150"/>
    <frame tileid="1049" duration="150"/>
    <frame tileid="1530" duration="150"/>
    <frame tileid="2011" duration="150"/>
    <frame tileid="2492" duration="150"/>
   </animation>
  </tile>
  <tile id="88">
   <animation>
    <frame tileid="88" duration="150"/>
    <frame tileid="569" duration="150"/>
    <frame tileid="1050" duration="150"/>
    <frame tileid="1531" duration="150"/>
    <frame tileid="2012" duration="150"/>
    <frame tileid="2493" duration="150"/>
   </animation>
  </tile>
  <tile id="89">
   <animation>
    <frame tileid="89" duration="150"/>
    <frame tileid="570" duration="150"/>
    <frame tileid="1051" duration="150"/>
    <frame tileid="1532" duration="150"/>
    <frame tileid="2013" duration="150"/>
    <frame tileid="2494" duration="150"/>
   </animation>
  </tile>
  <tile id="90">
   <animation>
    <frame tileid="90" duration="150"/>
    <frame tileid="571" duration="150"/>
    <frame tileid="1052" duration="150"/>
    <frame tileid="1533" duration="150"/>
    <frame tileid="2014" duration="150"/>
    <frame tileid="2495" duration="150"/>
   </animation>
  </tile>
  <tile id="92">
   <animation>
    <frame tileid="92" duration="150"/>
    <frame tileid="573" duration="150"/>
    <frame tileid="1054" duration="150"/>
    <frame tileid="1535" duration="150"/>
    <frame tileid="2016" duration="150"/>
    <frame tileid="2497" duration="150"/>
   </animation>
  </tile>
  <tile id="93">
   <animation>
    <frame tileid="93" duration="150"/>
    <frame tileid="574" duration="150"/>
    <frame tileid="1055" duration="150"/>
    <frame tileid="1536" duration="150"/>
    <frame tileid="2017" duration="150"/>
    <frame tileid="2498" duration="150"/>
   </animation>
  </tile>
  <tile id="94">
   <animation>
    <frame tileid="94" duration="150"/>
    <frame tileid="575" duration="150"/>
    <frame tileid="1056" duration="150"/>
    <frame tileid="1537" duration="150"/>
    <frame tileid="2018" duration="150"/>
    <frame tileid="2499" duration="150"/>
   </animation>
  </tile>
  <tile id="95">
   <animation>
    <frame tileid="95" duration="150"/>
    <frame tileid="576" duration="150"/>
    <frame tileid="1057" duration="150"/>
    <frame tileid="1538" duration="150"/>
    <frame tileid="2019" duration="150"/>
    <frame tileid="2500" duration="150"/>
   </animation>
  </tile>
  <tile id="96">
   <animation>
    <frame tileid="96" duration="150"/>
    <frame tileid="577" duration="150"/>
    <frame tileid="1058" duration="150"/>
    <frame tileid="1539" duration="150"/>
    <frame tileid="2020" duration="150"/>
    <frame tileid="2501" duration="150"/>
   </animation>
  </tile>
  <tile id="97">
   <animation>
    <frame tileid="97" duration="150"/>
    <frame tileid="578" duration="150"/>
    <frame tileid="1059" duration="150"/>
    <frame tileid="1540" duration="150"/>
    <frame tileid="2021" duration="150"/>
    <frame tileid="2502" duration="150"/>
   </animation>
  </tile>
  <tile id="98">
   <animation>
    <frame tileid="98" duration="150"/>
    <frame tileid="579" duration="150"/>
    <frame tileid="1060" duration="150"/>
    <frame tileid="1541" duration="150"/>
    <frame tileid="2022" duration="150"/>
    <frame tileid="2503" duration="150"/>
   </animation>
  </tile>
  <tile id="99">
   <animation>
    <frame tileid="99" duration="150"/>
    <frame tileid="580" duration="150"/>
    <frame tileid="1061" duration="150"/>
    <frame tileid="1542" duration="150"/>
    <frame tileid="2023" duration="150"/>
    <frame tileid="2504" duration="150"/>
   </animation>
  </tile>
  <tile id="100">
   <animation>
    <frame tileid="100" duration="150"/>
    <frame tileid="581" duration="150"/>
    <frame tileid="1062" duration="150"/>
    <frame tileid="1543" duration="150"/>
    <frame tileid="2024" duration="150"/>
    <frame tileid="2505" duration="150"/>
   </animation>
  </tile>
  <tile id="101">
   <animation>
    <frame tileid="101" duration="150"/>
    <frame tileid="582" duration="150"/>
    <frame tileid="1063" duration="150"/>
    <frame tileid="1544" duration="150"/>
    <frame tileid="2025" duration="150"/>
    <frame tileid="2506" duration="150"/>
   </animation>
  </tile>
  <tile id="102">
   <animation>
    <frame tileid="102" duration="150"/>
    <frame tileid="583" duration="150"/>
    <frame tileid="1064" duration="150"/>
    <frame tileid="1545" duration="150"/>
    <frame tileid="2026" duration="150"/>
    <frame tileid="2507" duration="150"/>
   </animation>
  </tile>
  <tile id="103">
   <animation>
    <frame tileid="103" duration="150"/>
    <frame tileid="584" duration="150"/>
    <frame tileid="1065" duration="150"/>
    <frame tileid="1546" duration="150"/>
    <frame tileid="2027" duration="150"/>
    <frame tileid="2508" duration="150"/>
   </animation>
  </tile>
  <tile id="105">
   <animation>
    <frame tileid="105" duration="150"/>
    <frame tileid="586" duration="150"/>
    <frame tileid="1067" duration="150"/>
    <frame tileid="1548" duration="150"/>
    <frame tileid="2029" duration="150"/>
    <frame tileid="2510" duration="150"/>
   </animation>
  </tile>
  <tile id="106">
   <animation>
    <frame tileid="106" duration="150"/>
    <frame tileid="587" duration="150"/>
    <frame tileid="1068" duration="150"/>
    <frame tileid="1549" duration="150"/>
    <frame tileid="2030" duration="150"/>
    <frame tileid="2511" duration="150"/>
   </animation>
  </tile>
  <tile id="107">
   <animation>
    <frame tileid="107" duration="150"/>
    <frame tileid="588" duration="150"/>
    <frame tileid="1069" duration="150"/>
    <frame tileid="1550" duration="150"/>
    <frame tileid="2031" duration="150"/>
    <frame tileid="2512" duration="150"/>
   </animation>
  </tile>
  <tile id="108">
   <animation>
    <frame tileid="108" duration="150"/>
    <frame tileid="589" duration="150"/>
    <frame tileid="1070" duration="150"/>
    <frame tileid="1551" duration="150"/>
    <frame tileid="2032" duration="150"/>
    <frame tileid="2513" duration="150"/>
   </animation>
  </tile>
  <tile id="109">
   <animation>
    <frame tileid="109" duration="150"/>
    <frame tileid="590" duration="150"/>
    <frame tileid="1071" duration="150"/>
    <frame tileid="1552" duration="150"/>
    <frame tileid="2033" duration="150"/>
    <frame tileid="2514" duration="150"/>
   </animation>
  </tile>
  <tile id="110">
   <animation>
    <frame tileid="110" duration="150"/>
    <frame tileid="591" duration="150"/>
    <frame tileid="1072" duration="150"/>
    <frame tileid="1553" duration="150"/>
    <frame tileid="2034" duration="150"/>
    <frame tileid="2515" duration="150"/>
   </animation>
  </tile>
  <tile id="112">
   <animation>
    <frame tileid="112" duration="150"/>
    <frame tileid="593" duration="150"/>
    <frame tileid="1074" duration="150"/>
    <frame tileid="1555" duration="150"/>
    <frame tileid="2036" duration="150"/>
    <frame tileid="2517" duration="150"/>
   </animation>
  </tile>
  <tile id="113">
   <animation>
    <frame tileid="113" duration="150"/>
    <frame tileid="594" duration="150"/>
    <frame tileid="1075" duration="150"/>
    <frame tileid="1556" duration="150"/>
    <frame tileid="2037" duration="150"/>
    <frame tileid="2518" duration="150"/>
   </animation>
  </tile>
  <tile id="114">
   <animation>
    <frame tileid="114" duration="150"/>
    <frame tileid="595" duration="150"/>
    <frame tileid="1076" duration="150"/>
    <frame tileid="1557" duration="150"/>
    <frame tileid="2038" duration="150"/>
    <frame tileid="2519" duration="150"/>
   </animation>
  </tile>
  <tile id="115">
   <animation>
    <frame tileid="115" duration="150"/>
    <frame tileid="596" duration="150"/>
    <frame tileid="1077" duration="150"/>
    <frame tileid="1558" duration="150"/>
    <frame tileid="2039" duration="150"/>
    <frame tileid="2520" duration="150"/>
   </animation>
  </tile>
  <tile id="116">
   <animation>
    <frame tileid="116" duration="150"/>
    <frame tileid="597" duration="150"/>
    <frame tileid="1078" duration="150"/>
    <frame tileid="1559" duration="150"/>
    <frame tileid="2040" duration="150"/>
    <frame tileid="2521" duration="150"/>
   </animation>
  </tile>
  <tile id="117">
   <animation>
    <frame tileid="117" duration="150"/>
    <frame tileid="598" duration="150"/>
    <frame tileid="1079" duration="150"/>
    <frame tileid="1560" duration="150"/>
    <frame tileid="2041" duration="150"/>
    <frame tileid="2522" duration="150"/>
   </animation>
  </tile>
  <tile id="118">
   <animation>
    <frame tileid="118" duration="150"/>
    <frame tileid="599" duration="150"/>
    <frame tileid="1080" duration="150"/>
    <frame tileid="1561" duration="150"/>
    <frame tileid="2042" duration="150"/>
    <frame tileid="2523" duration="150"/>
   </animation>
  </tile>
  <tile id="119">
   <animation>
    <frame tileid="119" duration="150"/>
    <frame tileid="600" duration="150"/>
    <frame tileid="1081" duration="150"/>
    <frame tileid="1562" duration="150"/>
    <frame tileid="2043" duration="150"/>
    <frame tileid="2524" duration="150"/>
   </animation>
  </tile>
  <tile id="120">
   <animation>
    <frame tileid="120" duration="150"/>
    <frame tileid="601" duration="150"/>
    <frame tileid="1082" duration="150"/>
    <frame tileid="1563" duration="150"/>
    <frame tileid="2044" duration="150"/>
    <frame tileid="2525" duration="150"/>
   </animation>
  </tile>
  <tile id="121">
   <animation>
    <frame tileid="121" duration="150"/>
    <frame tileid="602" duration="150"/>
    <frame tileid="1083" duration="150"/>
    <frame tileid="1564" duration="150"/>
    <frame tileid="2045" duration="150"/>
    <frame tileid="2526" duration="150"/>
   </animation>
  </tile>
  <tile id="122">
   <animation>
    <frame tileid="122" duration="150"/>
    <frame tileid="603" duration="150"/>
    <frame tileid="1084" duration="150"/>
    <frame tileid="1565" duration="150"/>
    <frame tileid="2046" duration="150"/>
    <frame tileid="2527" duration="150"/>
   </animation>
  </tile>
  <tile id="131">
   <animation>
    <frame tileid="131" duration="150"/>
    <frame tileid="612" duration="150"/>
    <frame tileid="1093" duration="150"/>
    <frame tileid="1574" duration="150"/>
    <frame tileid="2055" duration="150"/>
    <frame tileid="2536" duration="150"/>
   </animation>
  </tile>
  <tile id="132">
   <animation>
    <frame tileid="132" duration="150"/>
    <frame tileid="613" duration="150"/>
    <frame tileid="1094" duration="150"/>
    <frame tileid="1575" duration="150"/>
    <frame tileid="2056" duration="150"/>
    <frame tileid="2537" duration="150"/>
   </animation>
  </tile>
  <tile id="133">
   <animation>
    <frame tileid="133" duration="150"/>
    <frame tileid="614" duration="150"/>
    <frame tileid="1095" duration="150"/>
    <frame tileid="1576" duration="150"/>
    <frame tileid="2057" duration="150"/>
    <frame tileid="2538" duration="150"/>
   </animation>
  </tile>
  <tile id="134">
   <animation>
    <frame tileid="134" duration="150"/>
    <frame tileid="615" duration="150"/>
    <frame tileid="1096" duration="150"/>
    <frame tileid="1577" duration="150"/>
    <frame tileid="2058" duration="150"/>
    <frame tileid="2539" duration="150"/>
   </animation>
  </tile>
  <tile id="135">
   <animation>
    <frame tileid="135" duration="150"/>
    <frame tileid="616" duration="150"/>
    <frame tileid="1097" duration="150"/>
    <frame tileid="1578" duration="150"/>
    <frame tileid="2059" duration="150"/>
    <frame tileid="2540" duration="150"/>
   </animation>
  </tile>
  <tile id="136">
   <animation>
    <frame tileid="136" duration="150"/>
    <frame tileid="617" duration="150"/>
    <frame tileid="1098" duration="150"/>
    <frame tileid="1579" duration="150"/>
    <frame tileid="2060" duration="150"/>
    <frame tileid="2541" duration="150"/>
   </animation>
  </tile>
  <tile id="137">
   <animation>
    <frame tileid="137" duration="150"/>
    <frame tileid="618" duration="150"/>
    <frame tileid="1099" duration="150"/>
    <frame tileid="1580" duration="150"/>
    <frame tileid="2060" duration="150"/>
    <frame tileid="2542" duration="150"/>
   </animation>
  </tile>
  <tile id="138">
   <animation>
    <frame tileid="138" duration="150"/>
    <frame tileid="619" duration="150"/>
    <frame tileid="1100" duration="150"/>
    <frame tileid="1581" duration="150"/>
    <frame tileid="2062" duration="150"/>
    <frame tileid="2543" duration="150"/>
   </animation>
  </tile>
  <tile id="176">
   <animation>
    <frame tileid="176" duration="150"/>
    <frame tileid="657" duration="150"/>
    <frame tileid="1138" duration="150"/>
    <frame tileid="1619" duration="150"/>
    <frame tileid="2100" duration="150"/>
    <frame tileid="2581" duration="150"/>
   </animation>
  </tile>
  <tile id="177">
   <animation>
    <frame tileid="177" duration="150"/>
    <frame tileid="658" duration="150"/>
    <frame tileid="1139" duration="150"/>
    <frame tileid="1620" duration="150"/>
    <frame tileid="2101" duration="150"/>
    <frame tileid="2582" duration="150"/>
   </animation>
  </tile>
  <tile id="178">
   <animation>
    <frame tileid="178" duration="150"/>
    <frame tileid="659" duration="150"/>
    <frame tileid="1140" duration="150"/>
    <frame tileid="1621" duration="150"/>
    <frame tileid="2102" duration="150"/>
    <frame tileid="2583" duration="150"/>
   </animation>
  </tile>
  <tile id="179">
   <animation>
    <frame tileid="179" duration="150"/>
    <frame tileid="660" duration="150"/>
    <frame tileid="1141" duration="150"/>
    <frame tileid="1622" duration="150"/>
    <frame tileid="2103" duration="150"/>
    <frame tileid="2584" duration="150"/>
   </animation>
  </tile>
  <tile id="180">
   <animation>
    <frame tileid="180" duration="150"/>
    <frame tileid="661" duration="150"/>
    <frame tileid="1142" duration="150"/>
    <frame tileid="1623" duration="150"/>
    <frame tileid="2104" duration="150"/>
    <frame tileid="2585" duration="150"/>
   </animation>
  </tile>
  <tile id="188">
   <animation>
    <frame tileid="188" duration="150"/>
    <frame tileid="669" duration="150"/>
    <frame tileid="1150" duration="150"/>
    <frame tileid="1631" duration="150"/>
    <frame tileid="2112" duration="150"/>
    <frame tileid="2593" duration="150"/>
   </animation>
  </tile>
  <tile id="189">
   <animation>
    <frame tileid="189" duration="150"/>
    <frame tileid="670" duration="150"/>
    <frame tileid="1151" duration="150"/>
    <frame tileid="1632" duration="150"/>
    <frame tileid="2113" duration="150"/>
    <frame tileid="2594" duration="150"/>
   </animation>
  </tile>
  <tile id="190">
   <animation>
    <frame tileid="190" duration="150"/>
    <frame tileid="671" duration="150"/>
    <frame tileid="1152" duration="150"/>
    <frame tileid="1633" duration="150"/>
    <frame tileid="2114" duration="150"/>
    <frame tileid="2595" duration="150"/>
   </animation>
  </tile>
  <tile id="191">
   <animation>
    <frame tileid="191" duration="150"/>
    <frame tileid="672" duration="150"/>
    <frame tileid="1153" duration="150"/>
    <frame tileid="1634" duration="150"/>
    <frame tileid="2115" duration="150"/>
    <frame tileid="2596" duration="150"/>
   </animation>
  </tile>
  <tile id="192">
   <animation>
    <frame tileid="192" duration="150"/>
    <frame tileid="673" duration="150"/>
    <frame tileid="1154" duration="150"/>
    <frame tileid="1635" duration="150"/>
    <frame tileid="2116" duration="150"/>
    <frame tileid="2597" duration="150"/>
   </animation>
  </tile>
  <tile id="193">
   <animation>
    <frame tileid="193" duration="150"/>
    <frame tileid="674" duration="150"/>
    <frame tileid="1155" duration="150"/>
    <frame tileid="1636" duration="150"/>
    <frame tileid="2117" duration="150"/>
    <frame tileid="2598" duration="150"/>
   </animation>
  </tile>
  <tile id="194">
   <animation>
    <frame tileid="194" duration="150"/>
    <frame tileid="675" duration="150"/>
    <frame tileid="1156" duration="150"/>
    <frame tileid="1637" duration="150"/>
    <frame tileid="2118" duration="150"/>
    <frame tileid="2599" duration="150"/>
   </animation>
  </tile>
  <tile id="201">
   <animation>
    <frame tileid="201" duration="150"/>
    <frame tileid="682" duration="150"/>
    <frame tileid="1163" duration="150"/>
    <frame tileid="1644" duration="150"/>
    <frame tileid="2125" duration="150"/>
    <frame tileid="2606" duration="150"/>
   </animation>
  </tile>
  <tile id="202">
   <animation>
    <frame tileid="202" duration="150"/>
    <frame tileid="683" duration="150"/>
    <frame tileid="1164" duration="150"/>
    <frame tileid="1645" duration="150"/>
    <frame tileid="2126" duration="150"/>
    <frame tileid="2607" duration="150"/>
   </animation>
  </tile>
  <tile id="203">
   <animation>
    <frame tileid="203" duration="150"/>
    <frame tileid="684" duration="150"/>
    <frame tileid="1165" duration="150"/>
    <frame tileid="1646" duration="150"/>
    <frame tileid="2127" duration="150"/>
    <frame tileid="2608" duration="150"/>
   </animation>
  </tile>
  <tile id="204">
   <animation>
    <frame tileid="204" duration="150"/>
    <frame tileid="685" duration="150"/>
    <frame tileid="1166" duration="150"/>
    <frame tileid="1647" duration="150"/>
    <frame tileid="2128" duration="150"/>
    <frame tileid="2609" duration="150"/>
   </animation>
  </tile>
  <tile id="205">
   <animation>
    <frame tileid="205" duration="150"/>
    <frame tileid="686" duration="150"/>
    <frame tileid="1167" duration="150"/>
    <frame tileid="1648" duration="150"/>
    <frame tileid="2129" duration="150"/>
    <frame tileid="2610" duration="150"/>
   </animation>
  </tile>
  <tile id="206">
   <animation>
    <frame tileid="206" duration="150"/>
    <frame tileid="687" duration="150"/>
    <frame tileid="1168" duration="150"/>
    <frame tileid="1649" duration="150"/>
    <frame tileid="2130" duration="150"/>
    <frame tileid="2611" duration="150"/>
   </animation>
  </tile>
  <tile id="207">
   <animation>
    <frame tileid="207" duration="150"/>
    <frame tileid="688" duration="150"/>
    <frame tileid="1169" duration="150"/>
    <frame tileid="1650" duration="150"/>
    <frame tileid="2131" duration="150"/>
    <frame tileid="2612" duration="150"/>
   </animation>
  </tile>
  <tile id="208">
   <animation>
    <frame tileid="208" duration="150"/>
    <frame tileid="689" duration="150"/>
    <frame tileid="1170" duration="150"/>
    <frame tileid="1651" duration="150"/>
    <frame tileid="2132" duration="150"/>
    <frame tileid="2613" duration="150"/>
   </animation>
  </tile>
  <tile id="209">
   <animation>
    <frame tileid="209" duration="150"/>
    <frame tileid="690" duration="150"/>
    <frame tileid="1171" duration="150"/>
    <frame tileid="1652" duration="150"/>
    <frame tileid="2133" duration="150"/>
    <frame tileid="2614" duration="150"/>
   </animation>
  </tile>
  <tile id="210">
   <animation>
    <frame tileid="210" duration="150"/>
    <frame tileid="691" duration="150"/>
    <frame tileid="1172" duration="150"/>
    <frame tileid="1653" duration="150"/>
    <frame tileid="2134" duration="150"/>
    <frame tileid="2615" duration="150"/>
   </animation>
  </tile>
  <tile id="211">
   <animation>
    <frame tileid="211" duration="150"/>
    <frame tileid="692" duration="150"/>
    <frame tileid="1173" duration="150"/>
    <frame tileid="1654" duration="150"/>
    <frame tileid="2135" duration="150"/>
    <frame tileid="2616" duration="150"/>
   </animation>
  </tile>
  <tile id="212">
   <animation>
    <frame tileid="212" duration="150"/>
    <frame tileid="693" duration="150"/>
    <frame tileid="1174" duration="150"/>
    <frame tileid="1655" duration="150"/>
    <frame tileid="2136" duration="150"/>
    <frame tileid="2617" duration="150"/>
   </animation>
  </tile>
  <tile id="213">
   <animation>
    <frame tileid="213" duration="150"/>
    <frame tileid="694" duration="150"/>
    <frame tileid="1175" duration="150"/>
    <frame tileid="1656" duration="150"/>
    <frame tileid="2137" duration="150"/>
    <frame tileid="2618" duration="150"/>
   </animation>
  </tile>
  <tile id="214">
   <animation>
    <frame tileid="214" duration="150"/>
    <frame tileid="695" duration="150"/>
    <frame tileid="1176" duration="150"/>
    <frame tileid="1657" duration="150"/>
    <frame tileid="2138" duration="150"/>
    <frame tileid="2619" duration="150"/>
   </animation>
  </tile>
  <tile id="215">
   <animation>
    <frame tileid="215" duration="150"/>
    <frame tileid="696" duration="150"/>
    <frame tileid="1177" duration="150"/>
    <frame tileid="1658" duration="150"/>
    <frame tileid="2139" duration="150"/>
    <frame tileid="2620" duration="150"/>
   </animation>
  </tile>
  <tile id="223">
   <animation>
    <frame tileid="223" duration="150"/>
    <frame tileid="704" duration="150"/>
    <frame tileid="1185" duration="150"/>
    <frame tileid="1666" duration="150"/>
    <frame tileid="2147" duration="150"/>
    <frame tileid="2628" duration="150"/>
   </animation>
  </tile>
  <tile id="224">
   <animation>
    <frame tileid="224" duration="150"/>
    <frame tileid="705" duration="150"/>
    <frame tileid="1186" duration="150"/>
    <frame tileid="1667" duration="150"/>
    <frame tileid="2148" duration="150"/>
    <frame tileid="2629" duration="150"/>
   </animation>
  </tile>
  <tile id="225">
   <animation>
    <frame tileid="225" duration="150"/>
    <frame tileid="706" duration="150"/>
    <frame tileid="1187" duration="150"/>
    <frame tileid="1668" duration="150"/>
    <frame tileid="2149" duration="150"/>
    <frame tileid="2630" duration="150"/>
   </animation>
  </tile>
  <tile id="226">
   <animation>
    <frame tileid="226" duration="150"/>
    <frame tileid="707" duration="150"/>
    <frame tileid="1188" duration="150"/>
    <frame tileid="1669" duration="150"/>
    <frame tileid="2150" duration="150"/>
    <frame tileid="2631" duration="150"/>
   </animation>
  </tile>
  <tile id="227">
   <animation>
    <frame tileid="227" duration="150"/>
    <frame tileid="708" duration="150"/>
    <frame tileid="1189" duration="150"/>
    <frame tileid="1670" duration="150"/>
    <frame tileid="2151" duration="150"/>
    <frame tileid="2632" duration="150"/>
   </animation>
  </tile>
  <tile id="228">
   <animation>
    <frame tileid="228" duration="150"/>
    <frame tileid="709" duration="150"/>
    <frame tileid="1190" duration="150"/>
    <frame tileid="1671" duration="150"/>
    <frame tileid="2152" duration="150"/>
    <frame tileid="2633" duration="150"/>
   </animation>
  </tile>
  <tile id="229">
   <animation>
    <frame tileid="229" duration="150"/>
    <frame tileid="710" duration="150"/>
    <frame tileid="1191" duration="150"/>
    <frame tileid="1672" duration="150"/>
    <frame tileid="2153" duration="150"/>
    <frame tileid="2634" duration="150"/>
   </animation>
  </tile>
  <tile id="230">
   <animation>
    <frame tileid="230" duration="150"/>
    <frame tileid="711" duration="150"/>
    <frame tileid="1192" duration="150"/>
    <frame tileid="1673" duration="150"/>
    <frame tileid="2154" duration="150"/>
    <frame tileid="2635" duration="150"/>
   </animation>
  </tile>
  <tile id="231">
   <animation>
    <frame tileid="231" duration="150"/>
    <frame tileid="712" duration="150"/>
    <frame tileid="1193" duration="150"/>
    <frame tileid="1674" duration="150"/>
    <frame tileid="2155" duration="150"/>
    <frame tileid="2636" duration="150"/>
   </animation>
  </tile>
  <tile id="232">
   <animation>
    <frame tileid="232" duration="150"/>
    <frame tileid="713" duration="150"/>
    <frame tileid="1194" duration="150"/>
    <frame tileid="1675" duration="150"/>
    <frame tileid="2156" duration="150"/>
    <frame tileid="2637" duration="150"/>
   </animation>
  </tile>
  <tile id="233">
   <animation>
    <frame tileid="233" duration="150"/>
    <frame tileid="714" duration="150"/>
    <frame tileid="1195" duration="150"/>
    <frame tileid="1676" duration="150"/>
    <frame tileid="2157" duration="150"/>
    <frame tileid="2638" duration="150"/>
   </animation>
  </tile>
  <tile id="234">
   <animation>
    <frame tileid="234" duration="150"/>
    <frame tileid="715" duration="150"/>
    <frame tileid="1196" duration="150"/>
    <frame tileid="1677" duration="150"/>
    <frame tileid="2158" duration="150"/>
    <frame tileid="2639" duration="150"/>
   </animation>
  </tile>
  <tile id="235">
   <animation>
    <frame tileid="235" duration="150"/>
    <frame tileid="716" duration="150"/>
    <frame tileid="1197" duration="150"/>
    <frame tileid="1678" duration="150"/>
    <frame tileid="2159" duration="150"/>
    <frame tileid="2640" duration="150"/>
   </animation>
  </tile>
  <tile id="238">
   <animation>
    <frame tileid="238" duration="150"/>
    <frame tileid="719" duration="150"/>
    <frame tileid="1200" duration="150"/>
    <frame tileid="1681" duration="150"/>
    <frame tileid="2162" duration="150"/>
    <frame tileid="2643" duration="150"/>
   </animation>
  </tile>
  <tile id="239">
   <animation>
    <frame tileid="239" duration="150"/>
    <frame tileid="720" duration="150"/>
    <frame tileid="1201" duration="150"/>
    <frame tileid="1682" duration="150"/>
    <frame tileid="2163" duration="150"/>
    <frame tileid="2644" duration="150"/>
   </animation>
  </tile>
  <tile id="240">
   <animation>
    <frame tileid="240" duration="150"/>
    <frame tileid="721" duration="150"/>
    <frame tileid="1202" duration="150"/>
    <frame tileid="1683" duration="150"/>
    <frame tileid="2164" duration="150"/>
    <frame tileid="2645" duration="150"/>
   </animation>
  </tile>
  <tile id="241">
   <animation>
    <frame tileid="241" duration="150"/>
    <frame tileid="722" duration="150"/>
    <frame tileid="1203" duration="150"/>
    <frame tileid="1684" duration="150"/>
    <frame tileid="2165" duration="150"/>
    <frame tileid="2646" duration="150"/>
   </animation>
  </tile>
  <tile id="242">
   <animation>
    <frame tileid="242" duration="150"/>
    <frame tileid="723" duration="150"/>
    <frame tileid="1204" duration="150"/>
    <frame tileid="1685" duration="150"/>
    <frame tileid="2166" duration="150"/>
    <frame tileid="2647" duration="150"/>
   </animation>
  </tile>
  <tile id="243">
   <animation>
    <frame tileid="243" duration="150"/>
    <frame tileid="724" duration="150"/>
    <frame tileid="1205" duration="150"/>
    <frame tileid="1686" duration="150"/>
    <frame tileid="2167" duration="150"/>
    <frame tileid="2648" duration="150"/>
   </animation>
  </tile>
  <tile id="244">
   <animation>
    <frame tileid="244" duration="150"/>
    <frame tileid="725" duration="150"/>
    <frame tileid="1206" duration="150"/>
    <frame tileid="1687" duration="150"/>
    <frame tileid="2168" duration="150"/>
    <frame tileid="2649" duration="150"/>
   </animation>
  </tile>
  <tile id="245">
   <animation>
    <frame tileid="245" duration="150"/>
    <frame tileid="726" duration="150"/>
    <frame tileid="1207" duration="150"/>
    <frame tileid="1688" duration="150"/>
    <frame tileid="2169" duration="150"/>
    <frame tileid="2650" duration="150"/>
   </animation>
  </tile>
  <tile id="246">
   <animation>
    <frame tileid="246" duration="150"/>
    <frame tileid="727" duration="150"/>
    <frame tileid="1208" duration="150"/>
    <frame tileid="1689" duration="150"/>
    <frame tileid="2170" duration="150"/>
    <frame tileid="2651" duration="150"/>
   </animation>
  </tile>
  <tile id="247">
   <animation>
    <frame tileid="247" duration="150"/>
    <frame tileid="728" duration="150"/>
    <frame tileid="1209" duration="150"/>
    <frame tileid="1690" duration="150"/>
    <frame tileid="2171" duration="150"/>
    <frame tileid="2652" duration="150"/>
   </animation>
  </tile>
  <tile id="248">
   <animation>
    <frame tileid="248" duration="150"/>
    <frame tileid="729" duration="150"/>
    <frame tileid="1210" duration="150"/>
    <frame tileid="1691" duration="150"/>
    <frame tileid="2172" duration="150"/>
    <frame tileid="2653" duration="150"/>
   </animation>
  </tile>
  <tile id="249">
   <animation>
    <frame tileid="249" duration="150"/>
    <frame tileid="730" duration="150"/>
    <frame tileid="1211" duration="150"/>
    <frame tileid="1692" duration="150"/>
    <frame tileid="2173" duration="150"/>
    <frame tileid="2654" duration="150"/>
   </animation>
  </tile>
  <tile id="250">
   <animation>
    <frame tileid="250" duration="150"/>
    <frame tileid="731" duration="150"/>
    <frame tileid="1212" duration="150"/>
    <frame tileid="1693" duration="150"/>
    <frame tileid="2174" duration="150"/>
    <frame tileid="2655" duration="150"/>
   </animation>
  </tile>
  <tile id="251">
   <animation>
    <frame tileid="251" duration="150"/>
    <frame tileid="732" duration="150"/>
    <frame tileid="1213" duration="150"/>
    <frame tileid="1694" duration="150"/>
    <frame tileid="2175" duration="150"/>
    <frame tileid="2656" duration="150"/>
   </animation>
  </tile>
  <tile id="255">
   <animation>
    <frame tileid="255" duration="150"/>
    <frame tileid="736" duration="150"/>
    <frame tileid="1217" duration="150"/>
    <frame tileid="1698" duration="150"/>
    <frame tileid="2179" duration="150"/>
    <frame tileid="2660" duration="150"/>
   </animation>
  </tile>
  <tile id="256">
   <animation>
    <frame tileid="256" duration="150"/>
    <frame tileid="737" duration="150"/>
    <frame tileid="1218" duration="150"/>
    <frame tileid="1699" duration="150"/>
    <frame tileid="2180" duration="150"/>
    <frame tileid="2661" duration="150"/>
   </animation>
  </tile>
  <tile id="257">
   <animation>
    <frame tileid="257" duration="150"/>
    <frame tileid="738" duration="150"/>
    <frame tileid="1219" duration="150"/>
    <frame tileid="1700" duration="150"/>
    <frame tileid="2181" duration="150"/>
    <frame tileid="2662" duration="150"/>
   </animation>
  </tile>
  <tile id="264">
   <animation>
    <frame tileid="264" duration="150"/>
    <frame tileid="745" duration="150"/>
    <frame tileid="1226" duration="150"/>
    <frame tileid="1707" duration="150"/>
    <frame tileid="2188" duration="150"/>
    <frame tileid="2669" duration="150"/>
   </animation>
  </tile>
  <tile id="265">
   <animation>
    <frame tileid="265" duration="150"/>
    <frame tileid="746" duration="150"/>
    <frame tileid="1227" duration="150"/>
    <frame tileid="1708" duration="150"/>
    <frame tileid="2189" duration="150"/>
    <frame tileid="2670" duration="150"/>
   </animation>
  </tile>
  <tile id="266">
   <animation>
    <frame tileid="266" duration="150"/>
    <frame tileid="747" duration="150"/>
    <frame tileid="1228" duration="150"/>
    <frame tileid="1709" duration="150"/>
    <frame tileid="2190" duration="150"/>
    <frame tileid="2671" duration="150"/>
   </animation>
  </tile>
  <tile id="267">
   <animation>
    <frame tileid="267" duration="150"/>
    <frame tileid="748" duration="150"/>
    <frame tileid="1229" duration="150"/>
    <frame tileid="1710" duration="150"/>
    <frame tileid="2191" duration="150"/>
    <frame tileid="2672" duration="150"/>
   </animation>
  </tile>
  <tile id="268">
   <animation>
    <frame tileid="268" duration="150"/>
    <frame tileid="749" duration="150"/>
    <frame tileid="1230" duration="150"/>
    <frame tileid="1711" duration="150"/>
    <frame tileid="2192" duration="150"/>
    <frame tileid="2673" duration="150"/>
   </animation>
  </tile>
  <tile id="269">
   <animation>
    <frame tileid="269" duration="150"/>
    <frame tileid="750" duration="150"/>
    <frame tileid="1231" duration="150"/>
    <frame tileid="1712" duration="150"/>
    <frame tileid="2193" duration="150"/>
    <frame tileid="2674" duration="150"/>
   </animation>
  </tile>
  <tile id="313">
   <animation>
    <frame tileid="313" duration="150"/>
    <frame tileid="794" duration="150"/>
    <frame tileid="1275" duration="150"/>
    <frame tileid="1756" duration="150"/>
    <frame tileid="2237" duration="150"/>
    <frame tileid="2718" duration="150"/>
   </animation>
  </tile>
  <tile id="314">
   <animation>
    <frame tileid="314" duration="150"/>
    <frame tileid="795" duration="150"/>
    <frame tileid="1276" duration="150"/>
    <frame tileid="1757" duration="150"/>
    <frame tileid="2238" duration="150"/>
    <frame tileid="2719" duration="150"/>
   </animation>
  </tile>
  <tile id="315">
   <animation>
    <frame tileid="315" duration="150"/>
    <frame tileid="796" duration="150"/>
    <frame tileid="1277" duration="150"/>
    <frame tileid="1758" duration="150"/>
    <frame tileid="2239" duration="150"/>
    <frame tileid="2720" duration="150"/>
   </animation>
  </tile>
  <tile id="316">
   <animation>
    <frame tileid="316" duration="150"/>
    <frame tileid="797" duration="150"/>
    <frame tileid="1278" duration="150"/>
    <frame tileid="1759" duration="150"/>
    <frame tileid="2240" duration="150"/>
    <frame tileid="2721" duration="150"/>
   </animation>
  </tile>
  <tile id="317">
   <animation>
    <frame tileid="317" duration="150"/>
    <frame tileid="798" duration="150"/>
    <frame tileid="1279" duration="150"/>
    <frame tileid="1760" duration="150"/>
    <frame tileid="2241" duration="150"/>
    <frame tileid="2722" duration="150"/>
   </animation>
  </tile>
  <tile id="318">
   <animation>
    <frame tileid="318" duration="150"/>
    <frame tileid="799" duration="150"/>
    <frame tileid="1280" duration="150"/>
    <frame tileid="1761" duration="150"/>
    <frame tileid="2242" duration="150"/>
    <frame tileid="2723" duration="150"/>
   </animation>
  </tile>
  <tile id="319">
   <animation>
    <frame tileid="319" duration="150"/>
    <frame tileid="800" duration="150"/>
    <frame tileid="1281" duration="150"/>
    <frame tileid="1762" duration="150"/>
    <frame tileid="2243" duration="150"/>
    <frame tileid="2724" duration="150"/>
   </animation>
  </tile>
  <tile id="320">
   <animation>
    <frame tileid="320" duration="150"/>
    <frame tileid="801" duration="150"/>
    <frame tileid="1282" duration="150"/>
    <frame tileid="1763" duration="150"/>
    <frame tileid="2244" duration="150"/>
    <frame tileid="2725" duration="150"/>
   </animation>
  </tile>
  <tile id="323">
   <animation>
    <frame tileid="323" duration="150"/>
    <frame tileid="804" duration="150"/>
    <frame tileid="1285" duration="150"/>
    <frame tileid="1766" duration="150"/>
    <frame tileid="2247" duration="150"/>
    <frame tileid="2728" duration="150"/>
   </animation>
  </tile>
  <tile id="324">
   <animation>
    <frame tileid="324" duration="150"/>
    <frame tileid="805" duration="150"/>
    <frame tileid="1286" duration="150"/>
    <frame tileid="1767" duration="150"/>
    <frame tileid="2248" duration="150"/>
    <frame tileid="2729" duration="150"/>
   </animation>
  </tile>
  <tile id="325">
   <animation>
    <frame tileid="325" duration="150"/>
    <frame tileid="806" duration="150"/>
    <frame tileid="1287" duration="150"/>
    <frame tileid="1768" duration="150"/>
    <frame tileid="2249" duration="150"/>
    <frame tileid="2730" duration="150"/>
   </animation>
  </tile>
  <tile id="326">
   <animation>
    <frame tileid="326" duration="150"/>
    <frame tileid="807" duration="150"/>
    <frame tileid="1288" duration="150"/>
    <frame tileid="1769" duration="150"/>
    <frame tileid="2250" duration="150"/>
    <frame tileid="2731" duration="150"/>
   </animation>
  </tile>
  <tile id="327">
   <animation>
    <frame tileid="327" duration="150"/>
    <frame tileid="808" duration="150"/>
    <frame tileid="1289" duration="150"/>
    <frame tileid="1770" duration="150"/>
    <frame tileid="2251" duration="150"/>
    <frame tileid="2732" duration="150"/>
   </animation>
  </tile>
  <tile id="334">
   <animation>
    <frame tileid="334" duration="150"/>
    <frame tileid="815" duration="150"/>
    <frame tileid="1296" duration="150"/>
    <frame tileid="1777" duration="150"/>
    <frame tileid="2258" duration="150"/>
    <frame tileid="2739" duration="150"/>
   </animation>
  </tile>
  <tile id="335">
   <animation>
    <frame tileid="335" duration="150"/>
    <frame tileid="816" duration="150"/>
    <frame tileid="1297" duration="150"/>
    <frame tileid="1778" duration="150"/>
    <frame tileid="2259" duration="150"/>
    <frame tileid="2740" duration="150"/>
   </animation>
  </tile>
  <tile id="336">
   <animation>
    <frame tileid="336" duration="150"/>
    <frame tileid="817" duration="150"/>
    <frame tileid="1298" duration="150"/>
    <frame tileid="1779" duration="150"/>
    <frame tileid="2260" duration="150"/>
    <frame tileid="2741" duration="150"/>
   </animation>
  </tile>
  <tile id="337">
   <animation>
    <frame tileid="337" duration="150"/>
    <frame tileid="818" duration="150"/>
    <frame tileid="1299" duration="150"/>
    <frame tileid="1780" duration="150"/>
    <frame tileid="2261" duration="150"/>
    <frame tileid="2742" duration="150"/>
   </animation>
  </tile>
  <tile id="338">
   <animation>
    <frame tileid="338" duration="150"/>
    <frame tileid="819" duration="150"/>
    <frame tileid="1300" duration="150"/>
    <frame tileid="1781" duration="150"/>
    <frame tileid="2262" duration="150"/>
    <frame tileid="2743" duration="150"/>
   </animation>
  </tile>
  <tile id="339">
   <animation>
    <frame tileid="339" duration="150"/>
    <frame tileid="820" duration="150"/>
    <frame tileid="1301" duration="150"/>
    <frame tileid="1782" duration="150"/>
    <frame tileid="2263" duration="150"/>
    <frame tileid="2744" duration="150"/>
   </animation>
  </tile>
  <tile id="340">
   <animation>
    <frame tileid="340" duration="150"/>
    <frame tileid="821" duration="150"/>
    <frame tileid="1302" duration="150"/>
    <frame tileid="1783" duration="150"/>
    <frame tileid="2264" duration="150"/>
    <frame tileid="2745" duration="150"/>
   </animation>
  </tile>
  <tile id="341">
   <animation>
    <frame tileid="341" duration="150"/>
    <frame tileid="822" duration="150"/>
    <frame tileid="1303" duration="150"/>
    <frame tileid="1784" duration="150"/>
    <frame tileid="2265" duration="150"/>
    <frame tileid="2746" duration="150"/>
   </animation>
  </tile>
  <tile id="342">
   <animation>
    <frame tileid="342" duration="150"/>
    <frame tileid="823" duration="150"/>
    <frame tileid="1304" duration="150"/>
    <frame tileid="1785" duration="150"/>
    <frame tileid="2266" duration="150"/>
    <frame tileid="2747" duration="150"/>
   </animation>
  </tile>
  <tile id="343">
   <animation>
    <frame tileid="343" duration="150"/>
    <frame tileid="824" duration="150"/>
    <frame tileid="1305" duration="150"/>
    <frame tileid="1786" duration="150"/>
    <frame tileid="2267" duration="150"/>
    <frame tileid="2748" duration="150"/>
   </animation>
  </tile>
  <tile id="344">
   <animation>
    <frame tileid="344" duration="150"/>
    <frame tileid="825" duration="150"/>
    <frame tileid="1306" duration="150"/>
    <frame tileid="1787" duration="150"/>
    <frame tileid="2268" duration="150"/>
    <frame tileid="2749" duration="150"/>
   </animation>
  </tile>
  <tile id="345">
   <animation>
    <frame tileid="345" duration="150"/>
    <frame tileid="826" duration="150"/>
    <frame tileid="1307" duration="150"/>
    <frame tileid="1788" duration="150"/>
    <frame tileid="2269" duration="150"/>
    <frame tileid="2750" duration="150"/>
   </animation>
  </tile>
  <tile id="346">
   <animation>
    <frame tileid="346" duration="150"/>
    <frame tileid="827" duration="150"/>
    <frame tileid="1308" duration="150"/>
    <frame tileid="1789" duration="150"/>
    <frame tileid="2270" duration="150"/>
    <frame tileid="2751" duration="150"/>
   </animation>
  </tile>
  <tile id="347">
   <animation>
    <frame tileid="347" duration="150"/>
    <frame tileid="828" duration="150"/>
    <frame tileid="1309" duration="150"/>
    <frame tileid="1790" duration="150"/>
    <frame tileid="2271" duration="150"/>
    <frame tileid="2752" duration="150"/>
   </animation>
  </tile>
  <tile id="350">
   <animation>
    <frame tileid="350" duration="150"/>
    <frame tileid="831" duration="150"/>
    <frame tileid="1312" duration="150"/>
    <frame tileid="1793" duration="150"/>
    <frame tileid="2274" duration="150"/>
    <frame tileid="2755" duration="150"/>
   </animation>
  </tile>
  <tile id="351">
   <animation>
    <frame tileid="351" duration="150"/>
    <frame tileid="832" duration="150"/>
    <frame tileid="1313" duration="150"/>
    <frame tileid="1794" duration="150"/>
    <frame tileid="2275" duration="150"/>
    <frame tileid="2756" duration="150"/>
   </animation>
  </tile>
  <tile id="352">
   <animation>
    <frame tileid="352" duration="150"/>
    <frame tileid="833" duration="150"/>
    <frame tileid="1314" duration="150"/>
    <frame tileid="1795" duration="150"/>
    <frame tileid="2276" duration="150"/>
    <frame tileid="2757" duration="150"/>
   </animation>
  </tile>
  <tile id="353">
   <animation>
    <frame tileid="353" duration="150"/>
    <frame tileid="834" duration="150"/>
    <frame tileid="1315" duration="150"/>
    <frame tileid="1796" duration="150"/>
    <frame tileid="2277" duration="150"/>
    <frame tileid="2758" duration="150"/>
   </animation>
  </tile>
  <tile id="354">
   <animation>
    <frame tileid="354" duration="150"/>
    <frame tileid="835" duration="150"/>
    <frame tileid="1316" duration="150"/>
    <frame tileid="1797" duration="150"/>
    <frame tileid="2278" duration="150"/>
    <frame tileid="2759" duration="150"/>
   </animation>
  </tile>
  <tile id="355">
   <animation>
    <frame tileid="355" duration="150"/>
    <frame tileid="836" duration="150"/>
    <frame tileid="1317" duration="150"/>
    <frame tileid="1798" duration="150"/>
    <frame tileid="2279" duration="150"/>
    <frame tileid="2760" duration="150"/>
   </animation>
  </tile>
  <tile id="356">
   <animation>
    <frame tileid="356" duration="150"/>
    <frame tileid="837" duration="150"/>
    <frame tileid="1318" duration="150"/>
    <frame tileid="1799" duration="150"/>
    <frame tileid="2280" duration="150"/>
    <frame tileid="2761" duration="150"/>
   </animation>
  </tile>
  <tile id="357">
   <animation>
    <frame tileid="357" duration="150"/>
    <frame tileid="838" duration="150"/>
    <frame tileid="1319" duration="150"/>
    <frame tileid="1800" duration="150"/>
    <frame tileid="2281" duration="150"/>
    <frame tileid="2762" duration="150"/>
   </animation>
  </tile>
  <tile id="360">
   <animation>
    <frame tileid="360" duration="150"/>
    <frame tileid="841" duration="150"/>
    <frame tileid="1322" duration="150"/>
    <frame tileid="1803" duration="150"/>
    <frame tileid="2284" duration="150"/>
    <frame tileid="2765" duration="150"/>
   </animation>
  </tile>
  <tile id="361">
   <animation>
    <frame tileid="361" duration="150"/>
    <frame tileid="842" duration="150"/>
    <frame tileid="1323" duration="150"/>
    <frame tileid="1804" duration="150"/>
    <frame tileid="2285" duration="150"/>
    <frame tileid="2766" duration="150"/>
   </animation>
  </tile>
  <tile id="362">
   <animation>
    <frame tileid="362" duration="150"/>
    <frame tileid="843" duration="150"/>
    <frame tileid="1324" duration="150"/>
    <frame tileid="1805" duration="150"/>
    <frame tileid="2286" duration="150"/>
    <frame tileid="2767" duration="150"/>
   </animation>
  </tile>
  <tile id="363">
   <animation>
    <frame tileid="363" duration="150"/>
    <frame tileid="844" duration="150"/>
    <frame tileid="1325" duration="150"/>
    <frame tileid="1806" duration="150"/>
    <frame tileid="2287" duration="150"/>
    <frame tileid="2768" duration="150"/>
   </animation>
  </tile>
  <tile id="370">
   <animation>
    <frame tileid="370" duration="150"/>
    <frame tileid="851" duration="150"/>
    <frame tileid="1332" duration="150"/>
    <frame tileid="1813" duration="150"/>
    <frame tileid="2294" duration="150"/>
    <frame tileid="2775" duration="150"/>
   </animation>
  </tile>
  <tile id="371">
   <animation>
    <frame tileid="371" duration="150"/>
    <frame tileid="852" duration="150"/>
    <frame tileid="1333" duration="150"/>
    <frame tileid="1814" duration="150"/>
    <frame tileid="2295" duration="150"/>
    <frame tileid="2776" duration="150"/>
   </animation>
  </tile>
  <tile id="372">
   <animation>
    <frame tileid="372" duration="150"/>
    <frame tileid="853" duration="150"/>
    <frame tileid="1334" duration="150"/>
    <frame tileid="1815" duration="150"/>
    <frame tileid="2296" duration="150"/>
    <frame tileid="2777" duration="150"/>
   </animation>
  </tile>
  <tile id="373">
   <animation>
    <frame tileid="373" duration="150"/>
    <frame tileid="854" duration="150"/>
    <frame tileid="1335" duration="150"/>
    <frame tileid="1816" duration="150"/>
    <frame tileid="2297" duration="150"/>
    <frame tileid="2778" duration="150"/>
   </animation>
  </tile>
  <tile id="374">
   <animation>
    <frame tileid="374" duration="150"/>
    <frame tileid="855" duration="150"/>
    <frame tileid="1336" duration="150"/>
    <frame tileid="1817" duration="150"/>
    <frame tileid="2298" duration="150"/>
    <frame tileid="2779" duration="150"/>
   </animation>
  </tile>
  <tile id="375">
   <animation>
    <frame tileid="375" duration="150"/>
    <frame tileid="856" duration="150"/>
    <frame tileid="1337" duration="150"/>
    <frame tileid="1818" duration="150"/>
    <frame tileid="2299" duration="150"/>
    <frame tileid="2780" duration="150"/>
   </animation>
  </tile>
  <tile id="376">
   <animation>
    <frame tileid="376" duration="150"/>
    <frame tileid="857" duration="150"/>
    <frame tileid="1338" duration="150"/>
    <frame tileid="1819" duration="150"/>
    <frame tileid="2300" duration="150"/>
    <frame tileid="2781" duration="150"/>
   </animation>
  </tile>
  <tile id="377">
   <animation>
    <frame tileid="377" duration="150"/>
    <frame tileid="858" duration="150"/>
    <frame tileid="1339" duration="150"/>
    <frame tileid="1820" duration="150"/>
    <frame tileid="2301" duration="150"/>
    <frame tileid="2782" duration="150"/>
   </animation>
  </tile>
  <tile id="378">
   <animation>
    <frame tileid="380" duration="150"/>
    <frame tileid="861" duration="150"/>
    <frame tileid="1342" duration="150"/>
    <frame tileid="1823" duration="150"/>
    <frame tileid="2304" duration="150"/>
    <frame tileid="2785" duration="150"/>
   </animation>
  </tile>
  <tile id="379">
   <animation>
    <frame tileid="379" duration="150"/>
    <frame tileid="860" duration="150"/>
    <frame tileid="1341" duration="150"/>
    <frame tileid="1822" duration="150"/>
    <frame tileid="2303" duration="150"/>
    <frame tileid="2784" duration="150"/>
   </animation>
  </tile>
  <tile id="380">
   <animation>
    <frame tileid="380" duration="150"/>
    <frame tileid="861" duration="150"/>
    <frame tileid="1342" duration="150"/>
    <frame tileid="1823" duration="150"/>
    <frame tileid="2304" duration="150"/>
    <frame tileid="2785" duration="150"/>
   </animation>
  </tile>
  <tile id="381">
   <animation>
    <frame tileid="381" duration="150"/>
    <frame tileid="862" duration="150"/>
    <frame tileid="1343" duration="150"/>
    <frame tileid="1824" duration="150"/>
    <frame tileid="2305" duration="150"/>
    <frame tileid="2786" duration="150"/>
   </animation>
  </tile>
  <tile id="382">
   <animation>
    <frame tileid="382" duration="150"/>
    <frame tileid="863" duration="150"/>
    <frame tileid="1344" duration="150"/>
    <frame tileid="1825" duration="150"/>
    <frame tileid="2306" duration="150"/>
    <frame tileid="2787" duration="150"/>
   </animation>
  </tile>
  <tile id="383">
   <animation>
    <frame tileid="383" duration="150"/>
    <frame tileid="864" duration="150"/>
    <frame tileid="1345" duration="150"/>
    <frame tileid="1826" duration="150"/>
    <frame tileid="2307" duration="150"/>
    <frame tileid="2788" duration="150"/>
   </animation>
  </tile>
 </tileset>
 <tileset firstgid="3815" name="walls_floor" tilewidth="16" tileheight="16" tilecount="442" columns="17">
  <image source="../Art/Dungeon/walls_floor.png" width="272" height="416"/>
 </tileset>
 <tileset firstgid="4257" name="Arches_columns" tilewidth="16" tileheight="16" tilecount="280" columns="20">
  <image source="../Art/Dungeon/Arches_columns.png" width="320" height="224"/>
 </tileset>
 <tileset firstgid="4537" name="plates" tilewidth="16" tileheight="16" tilecount="104" columns="13">
  <image source="../Art/Dungeon/plates.png" width="208" height="128"/>
 </tileset>
 <tileset firstgid="4641" name="stairs" tilewidth="16" tileheight="16" tilecount="323" columns="17">
  <image source="../Art/Dungeon/stairs.png" width="272" height="304"/>
 </tileset>
 <tileset firstgid="4964" name="candles" tilewidth="16" tileheight="16" tilecount="378" columns="27">
  <image source="../Art/Dungeon/candles.png" width="432" height="224"/>
  <tile id="0">
   <animation>
    <frame tileid="0" duration="150"/>
    <frame tileid="6" duration="150"/>
    <frame tileid="12" duration="150"/>
   </animation>
  </tile>
  <tile id="1">
   <animation>
    <frame tileid="1" duration="150"/>
    <frame tileid="7" duration="150"/>
    <frame tileid="13" duration="150"/>
   </animation>
  </tile>
  <tile id="2">
   <animation>
    <frame tileid="2" duration="150"/>
    <frame tileid="8" duration="150"/>
    <frame tileid="14" duration="150"/>
   </animation>
  </tile>
  <tile id="3">
   <animation>
    <frame tileid="3" duration="150"/>
    <frame tileid="9" duration="150"/>
    <frame tileid="15" duration="150"/>
   </animation>
  </tile>
  <tile id="4">
   <animation>
    <frame tileid="4" duration="150"/>
    <frame tileid="10" duration="150"/>
    <frame tileid="16" duration="150"/>
   </animation>
  </tile>
  <tile id="5">
   <animation>
    <frame tileid="5" duration="150"/>
    <frame tileid="11" duration="150"/>
    <frame tileid="17" duration="150"/>
   </animation>
  </tile>
  <tile id="27">
   <animation>
    <frame tileid="27" duration="150"/>
    <frame tileid="33" duration="150"/>
    <frame tileid="39" duration="150"/>
   </animation>
  </tile>
  <tile id="28">
   <animation>
    <frame tileid="28" duration="150"/>
    <frame tileid="34" duration="150"/>
    <frame tileid="40" duration="150"/>
   </animation>
  </tile>
  <tile id="29">
   <animation>
    <frame tileid="29" duration="150"/>
    <frame tileid="35" duration="150"/>
    <frame tileid="41" duration="150"/>
   </animation>
  </tile>
  <tile id="30">
   <animation>
    <frame tileid="30" duration="150"/>
    <frame tileid="36" duration="150"/>
    <frame tileid="42" duration="150"/>
   </animation>
  </tile>
  <tile id="31">
   <animation>
    <frame tileid="31" duration="150"/>
    <frame tileid="37" duration="150"/>
    <frame tileid="43" duration="150"/>
   </animation>
  </tile>
  <tile id="32">
   <animation>
    <frame tileid="32" duration="150"/>
    <frame tileid="38" duration="150"/>
    <frame tileid="44" duration="150"/>
   </animation>
  </tile>
  <tile id="54">
   <animation>
    <frame tileid="54" duration="150"/>
    <frame tileid="60" duration="150"/>
    <frame tileid="66" duration="150"/>
   </animation>
  </tile>
  <tile id="55">
   <animation>
    <frame tileid="55" duration="150"/>
    <frame tileid="61" duration="150"/>
    <frame tileid="67" duration="150"/>
   </animation>
  </tile>
  <tile id="56">
   <animation>
    <frame tileid="56" duration="150"/>
    <frame tileid="62" duration="150"/>
    <frame tileid="68" duration="150"/>
   </animation>
  </tile>
  <tile id="57">
   <animation>
    <frame tileid="57" duration="150"/>
    <frame tileid="63" duration="150"/>
    <frame tileid="69" duration="150"/>
   </animation>
  </tile>
  <tile id="58">
   <animation>
    <frame tileid="58" duration="150"/>
    <frame tileid="64" duration="150"/>
    <frame tileid="70" duration="150"/>
   </animation>
  </tile>
  <tile id="59">
   <animation>
    <frame tileid="59" duration="150"/>
    <frame tileid="65" duration="150"/>
    <frame tileid="71" duration="150"/>
   </animation>
  </tile>
  <tile id="81">
   <animation>
    <frame tileid="81" duration="150"/>
    <frame tileid="87" duration="150"/>
    <frame tileid="93" duration="150"/>
   </animation>
  </tile>
  <tile id="82">
   <animation>
    <frame tileid="82" duration="150"/>
    <frame tileid="88" duration="150"/>
    <frame tileid="94" duration="150"/>
   </animation>
  </tile>
  <tile id="83">
   <animation>
    <frame tileid="83" duration="150"/>
    <frame tileid="89" duration="150"/>
    <frame tileid="95" duration="150"/>
   </animation>
  </tile>
  <tile id="84">
   <animation>
    <frame tileid="84" duration="150"/>
    <frame tileid="90" duration="150"/>
    <frame tileid="96" duration="150"/>
   </animation>
  </tile>
  <tile id="85">
   <animation>
    <frame tileid="85" duration="150"/>
    <frame tileid="91" duration="150"/>
    <frame tileid="97" duration="150"/>
   </animation>
  </tile>
  <tile id="86">
   <animation>
    <frame tileid="86" duration="150"/>
    <frame tileid="92" duration="150"/>
    <frame tileid="98" duration="150"/>
   </animation>
  </tile>
  <tile id="108">
   <animation>
    <frame tileid="108" duration="150"/>
    <frame tileid="114" duration="150"/>
    <frame tileid="120" duration="150"/>
   </animation>
  </tile>
  <tile id="109">
   <animation>
    <frame tileid="109" duration="150"/>
    <frame tileid="115" duration="150"/>
    <frame tileid="121" duration="150"/>
   </animation>
  </tile>
  <tile id="110">
   <animation>
    <frame tileid="110" duration="150"/>
    <frame tileid="116" duration="150"/>
    <frame tileid="122" duration="150"/>
   </animation>
  </tile>
  <tile id="111">
   <animation>
    <frame tileid="111" duration="150"/>
    <frame tileid="117" duration="150"/>
    <frame tileid="123" duration="150"/>
   </animation>
  </tile>
  <tile id="112">
   <animation>
    <frame tileid="112" duration="150"/>
    <frame tileid="118" duration="150"/>
    <frame tileid="124" duration="150"/>
   </animation>
  </tile>
  <tile id="113">
   <animation>
    <frame tileid="113" duration="150"/>
    <frame tileid="119" duration="150"/>
    <frame tileid="125" duration="150"/>
   </animation>
  </tile>
  <tile id="135">
   <animation>
    <frame tileid="135" duration="150"/>
    <frame tileid="141" duration="150"/>
    <frame tileid="147" duration="150"/>
   </animation>
  </tile>
  <tile id="136">
   <animation>
    <frame tileid="136" duration="150"/>
    <frame tileid="142" duration="150"/>
    <frame tileid="148" duration="150"/>
   </animation>
  </tile>
  <tile id="137">
   <animation>
    <frame tileid="137" duration="150"/>
    <frame tileid="143" duration="150"/>
    <frame tileid="149" duration="150"/>
   </animation>
  </tile>
  <tile id="138">
   <animation>
    <frame tileid="138" duration="150"/>
    <frame tileid="144" duration="150"/>
    <frame tileid="150" duration="150"/>
   </animation>
  </tile>
  <tile id="139">
   <animation>
    <frame tileid="139" duration="150"/>
    <frame tileid="145" duration="150"/>
    <frame tileid="151" duration="150"/>
   </animation>
  </tile>
  <tile id="140">
   <animation>
    <frame tileid="140" duration="150"/>
    <frame tileid="146" duration="150"/>
    <frame tileid="152" duration="150"/>
   </animation>
  </tile>
  <tile id="162">
   <animation>
    <frame tileid="162" duration="150"/>
    <frame tileid="168" duration="150"/>
    <frame tileid="174" duration="150"/>
   </animation>
  </tile>
  <tile id="163">
   <animation>
    <frame tileid="163" duration="150"/>
    <frame tileid="169" duration="150"/>
    <frame tileid="175" duration="150"/>
   </animation>
  </tile>
  <tile id="164">
   <animation>
    <frame tileid="164" duration="150"/>
    <frame tileid="170" duration="150"/>
    <frame tileid="176" duration="150"/>
   </animation>
  </tile>
  <tile id="165">
   <animation>
    <frame tileid="165" duration="150"/>
    <frame tileid="171" duration="150"/>
    <frame tileid="177" duration="150"/>
   </animation>
  </tile>
  <tile id="166">
   <animation>
    <frame tileid="166" duration="150"/>
    <frame tileid="172" duration="150"/>
    <frame tileid="178" duration="150"/>
   </animation>
  </tile>
  <tile id="167">
   <animation>
    <frame tileid="167" duration="150"/>
    <frame tileid="173" duration="150"/>
    <frame tileid="179" duration="150"/>
   </animation>
  </tile>
  <tile id="189">
   <animation>
    <frame tileid="189" duration="150"/>
    <frame tileid="195" duration="150"/>
    <frame tileid="201" duration="150"/>
   </animation>
  </tile>
  <tile id="190">
   <animation>
    <frame tileid="190" duration="150"/>
    <frame tileid="196" duration="150"/>
    <frame tileid="202" duration="150"/>
   </animation>
  </tile>
  <tile id="191">
   <animation>
    <frame tileid="191" duration="150"/>
    <frame tileid="197" duration="150"/>
    <frame tileid="203" duration="150"/>
   </animation>
  </tile>
  <tile id="192">
   <animation>
    <frame tileid="192" duration="150"/>
    <frame tileid="198" duration="150"/>
    <frame tileid="204" duration="150"/>
   </animation>
  </tile>
  <tile id="193">
   <animation>
    <frame tileid="193" duration="150"/>
    <frame tileid="199" duration="150"/>
    <frame tileid="205" duration="150"/>
   </animation>
  </tile>
  <tile id="194">
   <animation>
    <frame tileid="194" duration="150"/>
    <frame tileid="200" duration="150"/>
    <frame tileid="206" duration="150"/>
   </animation>
  </tile>
  <tile id="216">
   <animation>
    <frame tileid="216" duration="150"/>
    <frame tileid="222" duration="150"/>
    <frame tileid="228" duration="150"/>
   </animation>
  </tile>
  <tile id="217">
   <animation>
    <frame tileid="217" duration="150"/>
    <frame tileid="223" duration="150"/>
    <frame tileid="229" duration="150"/>
   </animation>
  </tile>
  <tile id="218">
   <animation>
    <frame tileid="218" duration="150"/>
    <frame tileid="224" duration="150"/>
    <frame tileid="230" duration="150"/>
   </animation>
  </tile>
  <tile id="219">
   <animation>
    <frame tileid="219" duration="150"/>
    <frame tileid="225" duration="150"/>
    <frame tileid="231" duration="150"/>
   </animation>
  </tile>
  <tile id="220">
   <animation>
    <frame tileid="220" duration="150"/>
    <frame tileid="226" duration="150"/>
    <frame tileid="232" duration="150"/>
   </animation>
  </tile>
  <tile id="221">
   <animation>
    <frame tileid="221" duration="150"/>
    <frame tileid="227" duration="150"/>
    <frame tileid="233" duration="150"/>
   </animation>
  </tile>
  <tile id="243">
   <animation>
    <frame tileid="243" duration="150"/>
    <frame tileid="252" duration="150"/>
    <frame tileid="261" duration="150"/>
   </animation>
  </tile>
  <tile id="244">
   <animation>
    <frame tileid="244" duration="150"/>
    <frame tileid="253" duration="150"/>
    <frame tileid="262" duration="150"/>
   </animation>
  </tile>
  <tile id="245">
   <animation>
    <frame tileid="245" duration="150"/>
    <frame tileid="254" duration="150"/>
    <frame tileid="263" duration="150"/>
   </animation>
  </tile>
  <tile id="246">
   <animation>
    <frame tileid="246" duration="150"/>
    <frame tileid="255" duration="150"/>
    <frame tileid="264" duration="150"/>
   </animation>
  </tile>
  <tile id="247">
   <animation>
    <frame tileid="247" duration="150"/>
    <frame tileid="256" duration="150"/>
    <frame tileid="265" duration="150"/>
   </animation>
  </tile>
  <tile id="248">
   <animation>
    <frame tileid="248" duration="150"/>
    <frame tileid="257" duration="150"/>
    <frame tileid="266" duration="150"/>
   </animation>
  </tile>
  <tile id="249">
   <animation>
    <frame tileid="249" duration="150"/>
    <frame tileid="258" duration="150"/>
    <frame tileid="267" duration="150"/>
   </animation>
  </tile>
  <tile id="250">
   <animation>
    <frame tileid="250" duration="150"/>
    <frame tileid="259" duration="150"/>
    <frame tileid="268" duration="150"/>
   </animation>
  </tile>
  <tile id="251">
   <animation>
    <frame tileid="251" duration="150"/>
    <frame tileid="260" duration="150"/>
    <frame tileid="269" duration="150"/>
   </animation>
  </tile>
  <tile id="270">
   <animation>
    <frame tileid="270" duration="150"/>
    <frame tileid="279" duration="150"/>
    <frame tileid="288" duration="150"/>
   </animation>
  </tile>
  <tile id="271">
   <animation>
    <frame tileid="271" duration="150"/>
    <frame tileid="280" duration="150"/>
    <frame tileid="289" duration="150"/>
   </animation>
  </tile>
  <tile id="272">
   <animation>
    <frame tileid="272" duration="150"/>
    <frame tileid="281" duration="150"/>
    <frame tileid="290" duration="150"/>
   </animation>
  </tile>
  <tile id="273">
   <animation>
    <frame tileid="273" duration="150"/>
    <frame tileid="282" duration="150"/>
    <frame tileid="291" duration="150"/>
   </animation>
  </tile>
  <tile id="274">
   <animation>
    <frame tileid="274" duration="150"/>
    <frame tileid="283" duration="150"/>
    <frame tileid="292" duration="150"/>
   </animation>
  </tile>
  <tile id="275">
   <animation>
    <frame tileid="275" duration="150"/>
    <frame tileid="284" duration="150"/>
    <frame tileid="293" duration="150"/>
   </animation>
  </tile>
  <tile id="276">
   <animation>
    <frame tileid="276" duration="150"/>
    <frame tileid="285" duration="150"/>
    <frame tileid="294" duration="150"/>
   </animation>
  </tile>
  <tile id="277">
   <animation>
    <frame tileid="277" duration="150"/>
    <frame tileid="286" duration="150"/>
    <frame tileid="295" duration="150"/>
   </animation>
  </tile>
  <tile id="278">
   <animation>
    <frame tileid="278" duration="150"/>
    <frame tileid="287" duration="150"/>
    <frame tileid="296" duration="150"/>
   </animation>
  </tile>
  <tile id="297">
   <animation>
    <frame tileid="297" duration="150"/>
    <frame tileid="306" duration="150"/>
    <frame tileid="315" duration="150"/>
   </animation>
  </tile>
  <tile id="298">
   <animation>
    <frame tileid="298" duration="150"/>
    <frame tileid="307" duration="150"/>
    <frame tileid="316" duration="150"/>
   </animation>
  </tile>
  <tile id="299">
   <animation>
    <frame tileid="299" duration="150"/>
    <frame tileid="308" duration="150"/>
    <frame tileid="317" duration="150"/>
   </animation>
  </tile>
  <tile id="300">
   <animation>
    <frame tileid="300" duration="150"/>
    <frame tileid="309" duration="150"/>
    <frame tileid="318" duration="150"/>
   </animation>
  </tile>
  <tile id="301">
   <animation>
    <frame tileid="301" duration="150"/>
    <frame tileid="310" duration="150"/>
    <frame tileid="319" duration="150"/>
   </animation>
  </tile>
  <tile id="302">
   <animation>
    <frame tileid="302" duration="150"/>
    <frame tileid="311" duration="150"/>
    <frame tileid="320" duration="150"/>
   </animation>
  </tile>
  <tile id="303">
   <animation>
    <frame tileid="303" duration="150"/>
    <frame tileid="312" duration="150"/>
    <frame tileid="321" duration="150"/>
   </animation>
  </tile>
  <tile id="304">
   <animation>
    <frame tileid="304" duration="150"/>
    <frame tileid="313" duration="150"/>
    <frame tileid="322" duration="150"/>
   </animation>
  </tile>
  <tile id="305">
   <animation>
    <frame tileid="305" duration="150"/>
    <frame tileid="314" duration="150"/>
    <frame tileid="323" duration="150"/>
   </animation>
  </tile>
  <tile id="324">
   <animation>
    <frame tileid="324" duration="150"/>
    <frame tileid="333" duration="150"/>
    <frame tileid="342" duration="150"/>
   </animation>
  </tile>
  <tile id="325">
   <animation>
    <frame tileid="325" duration="150"/>
    <frame tileid="334" duration="150"/>
    <frame tileid="343" duration="150"/>
   </animation>
  </tile>
  <tile id="326">
   <animation>
    <frame tileid="326" duration="150"/>
    <frame tileid="335" duration="150"/>
    <frame tileid="344" duration="150"/>
   </animation>
  </tile>
  <tile id="327">
   <animation>
    <frame tileid="327" duration="150"/>
    <frame tileid="336" duration="150"/>
    <frame tileid="345" duration="150"/>
   </animation>
  </tile>
  <tile id="328">
   <animation>
    <frame tileid="328" duration="150"/>
    <frame tileid="337" duration="150"/>
    <frame tileid="346" duration="150"/>
   </animation>
  </tile>
  <tile id="329">
   <animation>
    <frame tileid="329" duration="150"/>
    <frame tileid="338" duration="150"/>
    <frame tileid="347" duration="150"/>
   </animation>
  </tile>
  <tile id="330">
   <animation>
    <frame tileid="330" duration="150"/>
    <frame tileid="339" duration="150"/>
    <frame tileid="348" duration="150"/>
   </animation>
  </tile>
  <tile id="331">
   <animation>
    <frame tileid="331" duration="150"/>
    <frame tileid="340" duration="150"/>
    <frame tileid="349" duration="150"/>
   </animation>
  </tile>
  <tile id="332">
   <animation>
    <frame tileid="332" duration="150"/>
    <frame tileid="341" duration="150"/>
    <frame tileid="350" duration="150"/>
   </animation>
  </tile>
  <tile id="351">
   <animation>
    <frame tileid="351" duration="150"/>
    <frame tileid="360" duration="150"/>
    <frame tileid="369" duration="150"/>
   </animation>
  </tile>
  <tile id="352">
   <animation>
    <frame tileid="352" duration="150"/>
    <frame tileid="361" duration="150"/>
    <frame tileid="370" duration="150"/>
   </animation>
  </tile>
  <tile id="353">
   <animation>
    <frame tileid="353" duration="150"/>
    <frame tileid="362" duration="150"/>
    <frame tileid="371" duration="150"/>
   </animation>
  </tile>
  <tile id="354">
   <animation>
    <frame tileid="354" duration="150"/>
    <frame tileid="363" duration="150"/>
    <frame tileid="372" duration="150"/>
   </animation>
  </tile>
  <tile id="355">
   <animation>
    <frame tileid="355" duration="150"/>
    <frame tileid="364" duration="150"/>
    <frame tileid="373" duration="150"/>
   </animation>
  </tile>
  <tile id="356">
   <animation>
    <frame tileid="356" duration="150"/>
    <frame tileid="365" duration="150"/>
    <frame tileid="374" duration="150"/>
   </animation>
  </tile>
  <tile id="357">
   <animation>
    <frame tileid="357" duration="150"/>
    <frame tileid="366" duration="150"/>
    <frame tileid="375" duration="150"/>
   </animation>
  </tile>
  <tile id="358">
   <animation>
    <frame tileid="358" duration="150"/>
    <frame tileid="367" duration="150"/>
    <frame tileid="376" duration="150"/>
   </animation>
  </tile>
  <tile id="359">
   <animation>
    <frame tileid="359" duration="150"/>
    <frame tileid="368" duration="150"/>
    <frame tileid="377" duration="150"/>
   </animation>
  </tile>
 </tileset>
 <tileset firstgid="5342" name="torches" tilewidth="16" tileheight="16" tilecount="252" columns="14">
  <image source="../Art/Dungeon/torches.png" width="224" height="288"/>
  <tile id="0">
   <animation>
    <frame tileid="0" duration="150"/>
    <frame tileid="42" duration="150"/>
    <frame tileid="84" duration="150"/>
    <frame tileid="126" duration="150"/>
    <frame tileid="168" duration="150"/>
    <frame tileid="210" duration="150"/>
   </animation>
  </tile>
  <tile id="1">
   <animation>
    <frame tileid="1" duration="150"/>
    <frame tileid="43" duration="150"/>
    <frame tileid="85" duration="150"/>
    <frame tileid="127" duration="150"/>
    <frame tileid="169" duration="150"/>
    <frame tileid="211" duration="150"/>
   </animation>
  </tile>
  <tile id="2">
   <animation>
    <frame tileid="2" duration="150"/>
    <frame tileid="44" duration="150"/>
    <frame tileid="86" duration="150"/>
    <frame tileid="128" duration="150"/>
    <frame tileid="170" duration="150"/>
    <frame tileid="212" duration="150"/>
   </animation>
  </tile>
  <tile id="3">
   <animation>
    <frame tileid="3" duration="150"/>
    <frame tileid="45" duration="150"/>
    <frame tileid="87" duration="150"/>
    <frame tileid="129" duration="150"/>
    <frame tileid="171" duration="150"/>
    <frame tileid="213" duration="150"/>
   </animation>
  </tile>
  <tile id="4">
   <animation>
    <frame tileid="4" duration="150"/>
    <frame tileid="46" duration="150"/>
    <frame tileid="88" duration="150"/>
    <frame tileid="130" duration="150"/>
    <frame tileid="172" duration="150"/>
    <frame tileid="214" duration="150"/>
   </animation>
  </tile>
  <tile id="5">
   <animation>
    <frame tileid="5" duration="150"/>
    <frame tileid="47" duration="150"/>
    <frame tileid="89" duration="150"/>
    <frame tileid="131" duration="150"/>
    <frame tileid="173" duration="150"/>
    <frame tileid="215" duration="150"/>
   </animation>
  </tile>
  <tile id="6">
   <animation>
    <frame tileid="6" duration="150"/>
    <frame tileid="48" duration="150"/>
    <frame tileid="90" duration="150"/>
    <frame tileid="132" duration="150"/>
    <frame tileid="174" duration="150"/>
    <frame tileid="216" duration="150"/>
   </animation>
  </tile>
  <tile id="7">
   <animation>
    <frame tileid="7" duration="150"/>
    <frame tileid="49" duration="150"/>
    <frame tileid="91" duration="150"/>
    <frame tileid="133" duration="150"/>
    <frame tileid="175" duration="150"/>
    <frame tileid="217" duration="150"/>
   </animation>
  </tile>
  <tile id="8">
   <animation>
    <frame tileid="8" duration="150"/>
    <frame tileid="50" duration="150"/>
    <frame tileid="92" duration="150"/>
    <frame tileid="134" duration="150"/>
    <frame tileid="176" duration="150"/>
    <frame tileid="218" duration="150"/>
   </animation>
  </tile>
  <tile id="9">
   <animation>
    <frame tileid="9" duration="150"/>
    <frame tileid="51" duration="150"/>
    <frame tileid="93" duration="150"/>
    <frame tileid="135" duration="150"/>
    <frame tileid="177" duration="150"/>
    <frame tileid="219" duration="150"/>
   </animation>
  </tile>
  <tile id="10">
   <animation>
    <frame tileid="10" duration="150"/>
    <frame tileid="52" duration="150"/>
    <frame tileid="94" duration="150"/>
    <frame tileid="136" duration="150"/>
    <frame tileid="178" duration="150"/>
    <frame tileid="220" duration="150"/>
   </animation>
  </tile>
  <tile id="11">
   <animation>
    <frame tileid="11" duration="150"/>
    <frame tileid="53" duration="150"/>
    <frame tileid="95" duration="150"/>
    <frame tileid="137" duration="150"/>
    <frame tileid="179" duration="150"/>
    <frame tileid="221" duration="150"/>
   </animation>
  </tile>
  <tile id="12">
   <animation>
    <frame tileid="12" duration="150"/>
    <frame tileid="54" duration="150"/>
    <frame tileid="96" duration="150"/>
    <frame tileid="138" duration="150"/>
    <frame tileid="180" duration="150"/>
    <frame tileid="222" duration="150"/>
   </animation>
  </tile>
  <tile id="13">
   <animation>
    <frame tileid="13" duration="150"/>
    <frame tileid="55" duration="150"/>
    <frame tileid="97" duration="150"/>
    <frame tileid="139" duration="150"/>
    <frame tileid="181" duration="150"/>
    <frame tileid="223" duration="150"/>
   </animation>
  </tile>
  <tile id="14">
   <animation>
    <frame tileid="14" duration="150"/>
    <frame tileid="56" duration="150"/>
    <frame tileid="98" duration="150"/>
    <frame tileid="140" duration="150"/>
    <frame tileid="182" duration="150"/>
    <frame tileid="224" duration="150"/>
   </animation>
  </tile>
  <tile id="15">
   <animation>
    <frame tileid="15" duration="150"/>
    <frame tileid="57" duration="150"/>
    <frame tileid="99" duration="150"/>
    <frame tileid="141" duration="150"/>
    <frame tileid="183" duration="150"/>
    <frame tileid="225" duration="150"/>
   </animation>
  </tile>
  <tile id="16">
   <animation>
    <frame tileid="16" duration="150"/>
    <frame tileid="58" duration="150"/>
    <frame tileid="100" duration="150"/>
    <frame tileid="142" duration="150"/>
    <frame tileid="184" duration="150"/>
    <frame tileid="226" duration="150"/>
   </animation>
  </tile>
  <tile id="17">
   <animation>
    <frame tileid="17" duration="150"/>
    <frame tileid="59" duration="150"/>
    <frame tileid="101" duration="150"/>
    <frame tileid="143" duration="150"/>
    <frame tileid="185" duration="150"/>
    <frame tileid="227" duration="150"/>
   </animation>
  </tile>
  <tile id="18">
   <animation>
    <frame tileid="18" duration="150"/>
    <frame tileid="60" duration="150"/>
    <frame tileid="102" duration="150"/>
    <frame tileid="144" duration="150"/>
    <frame tileid="186" duration="150"/>
    <frame tileid="228" duration="150"/>
   </animation>
  </tile>
  <tile id="19">
   <animation>
    <frame tileid="19" duration="150"/>
    <frame tileid="61" duration="150"/>
    <frame tileid="103" duration="150"/>
    <frame tileid="145" duration="150"/>
    <frame tileid="187" duration="150"/>
    <frame tileid="229" duration="150"/>
   </animation>
  </tile>
  <tile id="20">
   <animation>
    <frame tileid="20" duration="150"/>
    <frame tileid="62" duration="150"/>
    <frame tileid="104" duration="150"/>
    <frame tileid="146" duration="150"/>
    <frame tileid="188" duration="150"/>
    <frame tileid="230" duration="150"/>
   </animation>
  </tile>
  <tile id="21">
   <animation>
    <frame tileid="21" duration="150"/>
    <frame tileid="63" duration="150"/>
    <frame tileid="105" duration="150"/>
    <frame tileid="147" duration="150"/>
    <frame tileid="189" duration="150"/>
    <frame tileid="231" duration="150"/>
   </animation>
  </tile>
  <tile id="22">
   <animation>
    <frame tileid="22" duration="150"/>
    <frame tileid="64" duration="150"/>
    <frame tileid="106" duration="150"/>
    <frame tileid="148" duration="150"/>
    <frame tileid="190" duration="150"/>
    <frame tileid="232" duration="150"/>
   </animation>
  </tile>
  <tile id="23">
   <animation>
    <frame tileid="23" duration="150"/>
    <frame tileid="65" duration="150"/>
    <frame tileid="107" duration="150"/>
    <frame tileid="149" duration="150"/>
    <frame tileid="191" duration="150"/>
    <frame tileid="233" duration="150"/>
   </animation>
  </tile>
  <tile id="24">
   <animation>
    <frame tileid="24" duration="150"/>
    <frame tileid="66" duration="150"/>
    <frame tileid="108" duration="150"/>
    <frame tileid="150" duration="150"/>
    <frame tileid="192" duration="150"/>
    <frame tileid="234" duration="150"/>
   </animation>
  </tile>
  <tile id="25">
   <animation>
    <frame tileid="25" duration="150"/>
    <frame tileid="67" duration="150"/>
    <frame tileid="109" duration="150"/>
    <frame tileid="151" duration="150"/>
    <frame tileid="193" duration="150"/>
    <frame tileid="235" duration="150"/>
   </animation>
  </tile>
  <tile id="26">
   <animation>
    <frame tileid="26" duration="150"/>
    <frame tileid="68" duration="150"/>
    <frame tileid="110" duration="150"/>
    <frame tileid="152" duration="150"/>
    <frame tileid="194" duration="150"/>
    <frame tileid="236" duration="150"/>
   </animation>
  </tile>
  <tile id="27">
   <animation>
    <frame tileid="27" duration="150"/>
    <frame tileid="69" duration="150"/>
    <frame tileid="111" duration="150"/>
    <frame tileid="153" duration="150"/>
    <frame tileid="195" duration="150"/>
    <frame tileid="237" duration="150"/>
   </animation>
  </tile>
  <tile id="28">
   <animation>
    <frame tileid="28" duration="150"/>
    <frame tileid="70" duration="150"/>
    <frame tileid="112" duration="150"/>
    <frame tileid="154" duration="150"/>
    <frame tileid="196" duration="150"/>
    <frame tileid="238" duration="150"/>
   </animation>
  </tile>
  <tile id="29">
   <animation>
    <frame tileid="29" duration="150"/>
    <frame tileid="71" duration="150"/>
    <frame tileid="113" duration="150"/>
    <frame tileid="155" duration="150"/>
    <frame tileid="197" duration="150"/>
    <frame tileid="239" duration="150"/>
   </animation>
  </tile>
  <tile id="30">
   <animation>
    <frame tileid="30" duration="150"/>
    <frame tileid="72" duration="150"/>
    <frame tileid="114" duration="150"/>
    <frame tileid="156" duration="150"/>
    <frame tileid="198" duration="150"/>
    <frame tileid="240" duration="150"/>
   </animation>
  </tile>
  <tile id="31">
   <animation>
    <frame tileid="31" duration="150"/>
    <frame tileid="73" duration="150"/>
    <frame tileid="115" duration="150"/>
    <frame tileid="157" duration="150"/>
    <frame tileid="199" duration="150"/>
    <frame tileid="241" duration="150"/>
   </animation>
  </tile>
  <tile id="32">
   <animation>
    <frame tileid="32" duration="150"/>
    <frame tileid="74" duration="150"/>
    <frame tileid="116" duration="150"/>
    <frame tileid="158" duration="150"/>
    <frame tileid="200" duration="150"/>
    <frame tileid="242" duration="150"/>
   </animation>
  </tile>
  <tile id="33">
   <animation>
    <frame tileid="33" duration="150"/>
    <frame tileid="75" duration="150"/>
    <frame tileid="117" duration="150"/>
    <frame tileid="159" duration="150"/>
    <frame tileid="201" duration="150"/>
    <frame tileid="243" duration="150"/>
   </animation>
  </tile>
  <tile id="34">
   <animation>
    <frame tileid="34" duration="150"/>
    <frame tileid="76" duration="150"/>
    <frame tileid="118" duration="150"/>
    <frame tileid="160" duration="150"/>
    <frame tileid="202" duration="150"/>
    <frame tileid="244" duration="150"/>
   </animation>
  </tile>
  <tile id="35">
   <animation>
    <frame tileid="35" duration="150"/>
    <frame tileid="77" duration="150"/>
    <frame tileid="119" duration="150"/>
    <frame tileid="161" duration="150"/>
    <frame tileid="203" duration="150"/>
    <frame tileid="245" duration="150"/>
   </animation>
  </tile>
  <tile id="36">
   <animation>
    <frame tileid="36" duration="150"/>
    <frame tileid="78" duration="150"/>
    <frame tileid="120" duration="150"/>
    <frame tileid="162" duration="150"/>
    <frame tileid="204" duration="150"/>
    <frame tileid="246" duration="150"/>
   </animation>
  </tile>
  <tile id="37">
   <animation>
    <frame tileid="37" duration="150"/>
    <frame tileid="79" duration="150"/>
    <frame tileid="121" duration="150"/>
    <frame tileid="163" duration="150"/>
    <frame tileid="205" duration="150"/>
    <frame tileid="247" duration="150"/>
   </animation>
  </tile>
  <tile id="38">
   <animation>
    <frame tileid="38" duration="150"/>
    <frame tileid="80" duration="150"/>
    <frame tileid="122" duration="150"/>
    <frame tileid="164" duration="150"/>
    <frame tileid="206" duration="150"/>
    <frame tileid="248" duration="150"/>
   </animation>
  </tile>
  <tile id="39">
   <animation>
    <frame tileid="39" duration="150"/>
    <frame tileid="81" duration="150"/>
    <frame tileid="123" duration="150"/>
    <frame tileid="165" duration="150"/>
    <frame tileid="207" duration="150"/>
    <frame tileid="249" duration="150"/>
   </animation>
  </tile>
  <tile id="40">
   <animation>
    <frame tileid="40" duration="150"/>
    <frame tileid="82" duration="150"/>
    <frame tileid="124" duration="150"/>
    <frame tileid="166" duration="150"/>
    <frame tileid="208" duration="150"/>
    <frame tileid="250" duration="150"/>
   </animation>
  </tile>
  <tile id="41">
   <animation>
    <frame tileid="41" duration="150"/>
    <frame tileid="83" duration="150"/>
    <frame tileid="125" duration="150"/>
    <frame tileid="167" duration="150"/>
    <frame tileid="209" duration="150"/>
    <frame tileid="251" duration="150"/>
   </animation>
  </tile>
 </tileset>
 <tileset firstgid="5594" name="scull_bas-relief" tilewidth="16" tileheight="16" tilecount="48" columns="4">
  <image source="../Art/Dungeon/scull_bas-relief.png" width="64" height="192"/>
  <tile id="0">
   <animation>
    <frame tileid="0" duration="150"/>
    <frame tileid="8" duration="150"/>
    <frame tileid="16" duration="150"/>
    <frame tileid="24" duration="150"/>
    <frame tileid="32" duration="150"/>
    <frame tileid="40" duration="150"/>
   </animation>
  </tile>
  <tile id="1">
   <animation>
    <frame tileid="1" duration="150"/>
    <frame tileid="9" duration="150"/>
    <frame tileid="17" duration="150"/>
    <frame tileid="25" duration="150"/>
    <frame tileid="33" duration="150"/>
    <frame tileid="41" duration="150"/>
   </animation>
  </tile>
  <tile id="2">
   <animation>
    <frame tileid="2" duration="150"/>
    <frame tileid="10" duration="150"/>
    <frame tileid="18" duration="150"/>
    <frame tileid="26" duration="150"/>
    <frame tileid="34" duration="150"/>
    <frame tileid="42" duration="150"/>
   </animation>
  </tile>
  <tile id="3">
   <animation>
    <frame tileid="3" duration="150"/>
    <frame tileid="11" duration="150"/>
    <frame tileid="19" duration="150"/>
    <frame tileid="27" duration="150"/>
    <frame tileid="35" duration="150"/>
    <frame tileid="43" duration="150"/>
   </animation>
  </tile>
  <tile id="4">
   <animation>
    <frame tileid="4" duration="150"/>
    <frame tileid="12" duration="150"/>
    <frame tileid="20" duration="150"/>
    <frame tileid="28" duration="150"/>
    <frame tileid="36" duration="150"/>
    <frame tileid="44" duration="150"/>
   </animation>
  </tile>
  <tile id="5">
   <animation>
    <frame tileid="5" duration="150"/>
    <frame tileid="13" duration="150"/>
    <frame tileid="21" duration="150"/>
    <frame tileid="29" duration="150"/>
    <frame tileid="37" duration="150"/>
    <frame tileid="45" duration="150"/>
   </animation>
  </tile>
  <tile id="6">
   <animation>
    <frame tileid="6" duration="150"/>
    <frame tileid="14" duration="150"/>
    <frame tileid="22" duration="150"/>
    <frame tileid="30" duration="150"/>
    <frame tileid="38" duration="150"/>
    <frame tileid="46" duration="150"/>
   </animation>
  </tile>
  <tile id="7">
   <animation>
    <frame tileid="7" duration="150"/>
    <frame tileid="15" duration="150"/>
    <frame tileid="23" duration="150"/>
    <frame tileid="31" duration="150"/>
    <frame tileid="39" duration="150"/>
    <frame tileid="47" duration="150"/>
   </animation>
  </tile>
 </tileset>
 <tileset firstgid="5642" name="Spikes" tilewidth="16" tileheight="16" tilecount="90" columns="18">
  <image source="../Art/Dungeon/Spikes.png" width="288" height="80"/>
  <tile id="0">
   <animation>
    <frame tileid="0" duration="600"/>
    <frame tileid="3" duration="150"/>
    <frame tileid="6" duration="150"/>
    <frame tileid="9" duration="600"/>
    <frame tileid="12" duration="150"/>
    <frame tileid="15" duration="150"/>
   </animation>
  </tile>
  <tile id="1">
   <animation>
    <frame tileid="1" duration="600"/>
    <frame tileid="4" duration="150"/>
    <frame tileid="7" duration="150"/>
    <frame tileid="10" duration="600"/>
    <frame tileid="13" duration="150"/>
    <frame tileid="16" duration="150"/>
   </animation>
  </tile>
  <tile id="2">
   <animation>
    <frame tileid="2" duration="600"/>
    <frame tileid="5" duration="150"/>
    <frame tileid="8" duration="150"/>
    <frame tileid="11" duration="600"/>
    <frame tileid="14" duration="150"/>
    <frame tileid="17" duration="150"/>
   </animation>
  </tile>
  <tile id="18">
   <animation>
    <frame tileid="18" duration="600"/>
    <frame tileid="21" duration="150"/>
    <frame tileid="24" duration="150"/>
    <frame tileid="27" duration="600"/>
    <frame tileid="30" duration="150"/>
    <frame tileid="33" duration="150"/>
   </animation>
  </tile>
  <tile id="19">
   <animation>
    <frame tileid="19" duration="600"/>
    <frame tileid="22" duration="150"/>
    <frame tileid="25" duration="150"/>
    <frame tileid="28" duration="600"/>
    <frame tileid="31" duration="150"/>
    <frame tileid="34" duration="150"/>
   </animation>
  </tile>
  <tile id="20">
   <animation>
    <frame tileid="20" duration="600"/>
    <frame tileid="23" duration="150"/>
    <frame tileid="26" duration="150"/>
    <frame tileid="29" duration="600"/>
    <frame tileid="32" duration="150"/>
    <frame tileid="35" duration="150"/>
   </animation>
  </tile>
  <tile id="36">
   <animation>
    <frame tileid="36" duration="600"/>
    <frame tileid="39" duration="150"/>
    <frame tileid="42" duration="150"/>
    <frame tileid="45" duration="600"/>
    <frame tileid="48" duration="150"/>
    <frame tileid="51" duration="150"/>
   </animation>
  </tile>
  <tile id="37">
   <animation>
    <frame tileid="37" duration="600"/>
    <frame tileid="40" duration="150"/>
    <frame tileid="43" duration="150"/>
    <frame tileid="46" duration="600"/>
    <frame tileid="49" duration="150"/>
    <frame tileid="52" duration="150"/>
   </animation>
  </tile>
  <tile id="72">
   <animation>
    <frame tileid="72" duration="600"/>
    <frame tileid="75" duration="150"/>
    <frame tileid="78" duration="150"/>
    <frame tileid="81" duration="600"/>
    <frame tileid="84" duration="150"/>
    <frame tileid="87" duration="150"/>
   </animation>
  </tile>
  <tile id="73">
   <animation>
    <frame tileid="73" duration="600"/>
    <frame tileid="76" duration="150"/>
    <frame tileid="79" duration="150"/>
    <frame tileid="82" duration="600"/>
    <frame tileid="85" duration="150"/>
    <frame tileid="88" duration="150"/>
   </animation>
  </tile>
  <tile id="74">
   <animation>
    <frame tileid="74" duration="600"/>
    <frame tileid="77" duration="150"/>
    <frame tileid="80" duration="150"/>
    <frame tileid="83" duration="600"/>
    <frame tileid="86" duration="150"/>
    <frame tileid="89" duration="150"/>
   </animation>
  </tile>
 </tileset>
 <tileset firstgid="5732" name="doors" tilewidth="16" tileheight="16" tilecount="144" columns="8">
  <image source="../Art/Dungeon/doors.png" width="128" height="288"/>
 </tileset>
 <tileset firstgid="5876" name="chest_lever" tilewidth="16" tileheight="16" tilecount="132" columns="12">
  <image source="../Art/Dungeon/chest_lever.png" width="192" height="176"/>
  <tile id="0">
   <animation>
    <frame tileid="0" duration="600"/>
    <frame tileid="2" duration="150"/>
    <frame tileid="4" duration="150"/>
    <frame tileid="6" duration="600"/>
    <frame tileid="8" duration="150"/>
    <frame tileid="10" duration="150"/>
   </animation>
  </tile>
  <tile id="1">
   <animation>
    <frame tileid="1" duration="600"/>
    <frame tileid="3" duration="150"/>
    <frame tileid="5" duration="150"/>
    <frame tileid="7" duration="600"/>
    <frame tileid="9" duration="150"/>
    <frame tileid="11" duration="150"/>
   </animation>
  </tile>
  <tile id="12">
   <animation>
    <frame tileid="12" duration="600"/>
    <frame tileid="14" duration="150"/>
    <frame tileid="16" duration="150"/>
    <frame tileid="18" duration="600"/>
    <frame tileid="20" duration="150"/>
    <frame tileid="22" duration="150"/>
   </animation>
  </tile>
  <tile id="13">
   <animation>
    <frame tileid="13" duration="600"/>
    <frame tileid="15" duration="150"/>
    <frame tileid="17" duration="150"/>
    <frame tileid="19" duration="600"/>
    <frame tileid="21" duration="150"/>
    <frame tileid="23" duration="150"/>
   </animation>
  </tile>
  <tile id="24">
   <animation>
    <frame tileid="24" duration="600"/>
    <frame tileid="26" duration="150"/>
    <frame tileid="28" duration="150"/>
    <frame tileid="30" duration="600"/>
    <frame tileid="32" duration="150"/>
    <frame tileid="34" duration="150"/>
   </animation>
  </tile>
  <tile id="25">
   <animation>
    <frame tileid="25" duration="600"/>
    <frame tileid="27" duration="150"/>
    <frame tileid="29" duration="150"/>
    <frame tileid="31" duration="600"/>
    <frame tileid="33" duration="150"/>
    <frame tileid="35" duration="150"/>
   </animation>
  </tile>
  <tile id="36">
   <animation>
    <frame tileid="36" duration="600"/>
    <frame tileid="38" duration="150"/>
    <frame tileid="40" duration="150"/>
    <frame tileid="42" duration="600"/>
    <frame tileid="44" duration="150"/>
    <frame tileid="46" duration="150"/>
   </animation>
  </tile>
  <tile id="37">
   <animation>
    <frame tileid="37" duration="600"/>
    <frame tileid="39" duration="150"/>
    <frame tileid="41" duration="150"/>
    <frame tileid="43" duration="600"/>
    <frame tileid="45" duration="150"/>
    <frame tileid="47" duration="150"/>
   </animation>
  </tile>
  <tile id="48">
   <animation>
    <frame tileid="48" duration="600"/>
    <frame tileid="50" duration="150"/>
    <frame tileid="52" duration="150"/>
    <frame tileid="54" duration="600"/>
    <frame tileid="56" duration="150"/>
    <frame tileid="58" duration="150"/>
   </animation>
  </tile>
  <tile id="49">
   <animation>
    <frame tileid="49" duration="600"/>
    <frame tileid="51" duration="150"/>
    <frame tileid="53" duration="150"/>
    <frame tileid="55" duration="600"/>
    <frame tileid="57" duration="150"/>
    <frame tileid="59" duration="150"/>
   </animation>
  </tile>
  <tile id="60">
   <animation>
    <frame tileid="60" duration="600"/>
    <frame tileid="62" duration="150"/>
    <frame tileid="64" duration="150"/>
    <frame tileid="66" duration="600"/>
    <frame tileid="68" duration="150"/>
    <frame tileid="70" duration="150"/>
   </animation>
  </tile>
  <tile id="61">
   <animation>
    <frame tileid="61" duration="600"/>
    <frame tileid="63" duration="150"/>
    <frame tileid="65" duration="150"/>
    <frame tileid="67" duration="600"/>
    <frame tileid="69" duration="150"/>
    <frame tileid="71" duration="150"/>
   </animation>
  </tile>
  <tile id="72">
   <animation>
    <frame tileid="72" duration="600"/>
    <frame tileid="74" duration="150"/>
    <frame tileid="76" duration="150"/>
    <frame tileid="78" duration="600"/>
    <frame tileid="80" duration="150"/>
    <frame tileid="82" duration="150"/>
   </animation>
  </tile>
  <tile id="73">
   <animation>
    <frame tileid="73" duration="600"/>
    <frame tileid="75" duration="150"/>
    <frame tileid="77" duration="150"/>
    <frame tileid="79" duration="600"/>
    <frame tileid="81" duration="150"/>
    <frame tileid="83" duration="150"/>
   </animation>
  </tile>
  <tile id="84">
   <animation>
    <frame tileid="84" duration="600"/>
    <frame tileid="86" duration="150"/>
    <frame tileid="88" duration="150"/>
    <frame tileid="90" duration="600"/>
    <frame tileid="92" duration="150"/>
    <frame tileid="94" duration="150"/>
   </animation>
  </tile>
  <tile id="85">
   <animation>
    <frame tileid="85" duration="600"/>
    <frame tileid="87" duration="150"/>
    <frame tileid="89" duration="150"/>
    <frame tileid="91" duration="600"/>
    <frame tileid="93" duration="150"/>
    <frame tileid="95" duration="150"/>
   </animation>
  </tile>
  <tile id="96">
   <animation>
    <frame tileid="96" duration="600"/>
    <frame tileid="98" duration="150"/>
    <frame tileid="100" duration="150"/>
    <frame tileid="102" duration="600"/>
    <frame tileid="104" duration="150"/>
    <frame tileid="106" duration="150"/>
   </animation>
  </tile>
  <tile id="97">
   <animation>
    <frame tileid="97" duration="600"/>
    <frame tileid="99" duration="150"/>
    <frame tileid="101" duration="150"/>
    <frame tileid="103" duration="600"/>
    <frame tileid="105" duration="150"/>
    <frame tileid="107" duration="150"/>
   </animation>
  </tile>
  <tile id="108">
   <animation>
    <frame tileid="108" duration="300"/>
    <frame tileid="110" duration="150"/>
    <frame tileid="112" duration="300"/>
    <frame tileid="114" duration="150"/>
    <frame tileid="116" duration="300"/>
    <frame tileid="114" duration="150"/>
    <frame tileid="112" duration="300"/>
    <frame tileid="110" duration="150"/>
   </animation>
  </tile>
  <tile id="109">
   <animation>
    <frame tileid="109" duration="300"/>
    <frame tileid="111" duration="150"/>
    <frame tileid="113" duration="300"/>
    <frame tileid="115" duration="150"/>
    <frame tileid="117" duration="300"/>
    <frame tileid="115" duration="150"/>
    <frame tileid="113" duration="300"/>
    <frame tileid="111" duration="150"/>
   </animation>
  </tile>
  <tile id="120">
   <animation>
    <frame tileid="120" duration="300"/>
    <frame tileid="122" duration="150"/>
    <frame tileid="124" duration="300"/>
    <frame tileid="126" duration="150"/>
    <frame tileid="128" duration="300"/>
    <frame tileid="126" duration="150"/>
    <frame tileid="124" duration="300"/>
    <frame tileid="122" duration="150"/>
   </animation>
  </tile>
  <tile id="121">
   <animation>
    <frame tileid="121" duration="300"/>
    <frame tileid="123" duration="150"/>
    <frame tileid="125" duration="300"/>
    <frame tileid="127" duration="150"/>
    <frame tileid="129" duration="300"/>
    <frame tileid="127" duration="150"/>
    <frame tileid="125" duration="300"/>
    <frame tileid="123" duration="150"/>
   </animation>
  </tile>
 </tileset>
 <tileset firstgid="6008" name="ghost_trap" tilewidth="16" tileheight="16" tilecount="176" columns="44">
  <image source="../Art/Dungeon/ghost_trap.png" width="704" height="64"/>
  <tile id="0">
   <animation>
    <frame tileid="0" duration="150"/>
    <frame tileid="4" duration="150"/>
    <frame tileid="8" duration="150"/>
    <frame tileid="12" duration="150"/>
    <frame tileid="16" duration="150"/>
    <frame tileid="20" duration="150"/>
    <frame tileid="24" duration="150"/>
    <frame tileid="28" duration="150"/>
    <frame tileid="32" duration="150"/>
    <frame tileid="36" duration="150"/>
    <frame tileid="40" duration="300"/>
   </animation>
  </tile>
  <tile id="1">
   <animation>
    <frame tileid="1" duration="150"/>
    <frame tileid="5" duration="150"/>
    <frame tileid="9" duration="150"/>
    <frame tileid="13" duration="150"/>
    <frame tileid="17" duration="150"/>
    <frame tileid="21" duration="150"/>
    <frame tileid="25" duration="150"/>
    <frame tileid="29" duration="150"/>
    <frame tileid="33" duration="150"/>
    <frame tileid="37" duration="150"/>
    <frame tileid="41" duration="300"/>
   </animation>
  </tile>
  <tile id="2">
   <animation>
    <frame tileid="2" duration="150"/>
    <frame tileid="6" duration="150"/>
    <frame tileid="10" duration="150"/>
    <frame tileid="14" duration="150"/>
    <frame tileid="18" duration="150"/>
    <frame tileid="22" duration="150"/>
    <frame tileid="26" duration="150"/>
    <frame tileid="30" duration="150"/>
    <frame tileid="34" duration="150"/>
    <frame tileid="38" duration="150"/>
    <frame tileid="42" duration="300"/>
   </animation>
  </tile>
  <tile id="3">
   <animation>
    <frame tileid="3" duration="150"/>
    <frame tileid="7" duration="150"/>
    <frame tileid="11" duration="150"/>
    <frame tileid="15" duration="150"/>
    <frame tileid="19" duration="150"/>
    <frame tileid="23" duration="150"/>
    <frame tileid="27" duration="150"/>
    <frame tileid="31" duration="150"/>
    <frame tileid="35" duration="150"/>
    <frame tileid="39" duration="150"/>
    <frame tileid="43" duration="300"/>
   </animation>
  </tile>
  <tile id="44">
   <animation>
    <frame tileid="44" duration="150"/>
    <frame tileid="48" duration="150"/>
    <frame tileid="52" duration="150"/>
    <frame tileid="56" duration="150"/>
    <frame tileid="60" duration="150"/>
    <frame tileid="64" duration="150"/>
    <frame tileid="68" duration="150"/>
    <frame tileid="72" duration="150"/>
    <frame tileid="76" duration="150"/>
    <frame tileid="80" duration="150"/>
    <frame tileid="84" duration="300"/>
   </animation>
  </tile>
  <tile id="45">
   <animation>
    <frame tileid="45" duration="150"/>
    <frame tileid="49" duration="150"/>
    <frame tileid="53" duration="150"/>
    <frame tileid="57" duration="150"/>
    <frame tileid="61" duration="150"/>
    <frame tileid="65" duration="150"/>
    <frame tileid="69" duration="150"/>
    <frame tileid="73" duration="150"/>
    <frame tileid="77" duration="150"/>
    <frame tileid="81" duration="150"/>
    <frame tileid="85" duration="300"/>
   </animation>
  </tile>
  <tile id="46">
   <animation>
    <frame tileid="46" duration="150"/>
    <frame tileid="50" duration="150"/>
    <frame tileid="54" duration="150"/>
    <frame tileid="58" duration="150"/>
    <frame tileid="62" duration="150"/>
    <frame tileid="66" duration="150"/>
    <frame tileid="70" duration="150"/>
    <frame tileid="74" duration="150"/>
    <frame tileid="78" duration="150"/>
    <frame tileid="82" duration="150"/>
    <frame tileid="86" duration="300"/>
   </animation>
  </tile>
  <tile id="47">
   <animation>
    <frame tileid="47" duration="150"/>
    <frame tileid="51" duration="150"/>
    <frame tileid="55" duration="150"/>
    <frame tileid="59" duration="150"/>
    <frame tileid="63" duration="150"/>
    <frame tileid="67" duration="150"/>
    <frame tileid="71" duration="150"/>
    <frame tileid="75" duration="150"/>
    <frame tileid="79" duration="150"/>
    <frame tileid="83" duration="150"/>
    <frame tileid="87" duration="300"/>
   </animation>
  </tile>
  <tile id="88">
   <animation>
    <frame tileid="88" duration="150"/>
    <frame tileid="92" duration="150"/>
    <frame tileid="96" duration="150"/>
    <frame tileid="100" duration="150"/>
    <frame tileid="104" duration="150"/>
    <frame tileid="108" duration="150"/>
    <frame tileid="112" duration="150"/>
    <frame tileid="116" duration="150"/>
    <frame tileid="120" duration="150"/>
    <frame tileid="124" duration="150"/>
    <frame tileid="128" duration="300"/>
   </animation>
  </tile>
  <tile id="89">
   <animation>
    <frame tileid="89" duration="150"/>
    <frame tileid="93" duration="150"/>
    <frame tileid="97" duration="150"/>
    <frame tileid="101" duration="150"/>
    <frame tileid="105" duration="150"/>
    <frame tileid="109" duration="150"/>
    <frame tileid="113" duration="150"/>
    <frame tileid="117" duration="150"/>
    <frame tileid="121" duration="150"/>
    <frame tileid="125" duration="150"/>
    <frame tileid="129" duration="300"/>
   </animation>
  </tile>
  <tile id="90">
   <animation>
    <frame tileid="90" duration="150"/>
    <frame tileid="94" duration="150"/>
    <frame tileid="98" duration="150"/>
    <frame tileid="102" duration="150"/>
    <frame tileid="106" duration="150"/>
    <frame tileid="110" duration="150"/>
    <frame tileid="114" duration="150"/>
    <frame tileid="118" duration="150"/>
    <frame tileid="122" duration="150"/>
    <frame tileid="126" duration="150"/>
    <frame tileid="130" duration="300"/>
   </animation>
  </tile>
  <tile id="91">
   <animation>
    <frame tileid="91" duration="150"/>
    <frame tileid="95" duration="150"/>
    <frame tileid="99" duration="150"/>
    <frame tileid="103" duration="150"/>
    <frame tileid="107" duration="150"/>
    <frame tileid="111" duration="150"/>
    <frame tileid="115" duration="150"/>
    <frame tileid="119" duration="150"/>
    <frame tileid="123" duration="150"/>
    <frame tileid="127" duration="150"/>
    <frame tileid="131" duration="300"/>
   </animation>
  </tile>
  <tile id="132">
   <animation>
    <frame tileid="132" duration="150"/>
    <frame tileid="136" duration="150"/>
    <frame tileid="140" duration="150"/>
    <frame tileid="144" duration="150"/>
    <frame tileid="148" duration="150"/>
    <frame tileid="152" duration="150"/>
    <frame tileid="156" duration="150"/>
    <frame tileid="160" duration="150"/>
    <frame tileid="164" duration="150"/>
    <frame tileid="168" duration="150"/>
    <frame tileid="172" duration="300"/>
   </animation>
  </tile>
  <tile id="133">
   <animation>
    <frame tileid="133" duration="150"/>
    <frame tileid="137" duration="150"/>
    <frame tileid="141" duration="150"/>
    <frame tileid="145" duration="150"/>
    <frame tileid="149" duration="150"/>
    <frame tileid="153" duration="150"/>
    <frame tileid="157" duration="150"/>
    <frame tileid="161" duration="150"/>
    <frame tileid="165" duration="150"/>
    <frame tileid="169" duration="150"/>
    <frame tileid="173" duration="300"/>
   </animation>
  </tile>
  <tile id="134">
   <animation>
    <frame tileid="134" duration="150"/>
    <frame tileid="138" duration="150"/>
    <frame tileid="142" duration="150"/>
    <frame tileid="146" duration="150"/>
    <frame tileid="150" duration="150"/>
    <frame tileid="154" duration="150"/>
    <frame tileid="158" duration="150"/>
    <frame tileid="162" duration="150"/>
    <frame tileid="166" duration="150"/>
    <frame tileid="170" duration="150"/>
    <frame tileid="174" duration="300"/>
   </animation>
  </tile>
  <tile id="135">
   <animation>
    <frame tileid="135" duration="150"/>
    <frame tileid="139" duration="150"/>
    <frame tileid="143" duration="150"/>
    <frame tileid="147" duration="150"/>
    <frame tileid="151" duration="150"/>
    <frame tileid="155" duration="150"/>
    <frame tileid="159" duration="150"/>
    <frame tileid="163" duration="150"/>
    <frame tileid="167" duration="150"/>
    <frame tileid="171" duration="150"/>
    <frame tileid="175" duration="300"/>
   </animation>
  </tile>
 </tileset>
 <tileset firstgid="6184" name="dragon_trap" tilewidth="16" tileheight="16" tilecount="640" columns="20">
  <image source="../Art/Dungeon/dragon_trap.png" width="320" height="512"/>
  <tile id="0">
   <animation>
    <frame tileid="0" duration="150"/>
    <frame tileid="0" duration="150"/>
    <frame tileid="0" duration="150"/>
    <frame tileid="0" duration="150"/>
    <frame tileid="2" duration="150"/>
    <frame tileid="4" duration="150"/>
    <frame tileid="6" duration="150"/>
    <frame tileid="8" duration="150"/>
    <frame tileid="10" duration="150"/>
    <frame tileid="12" duration="150"/>
    <frame tileid="14" duration="150"/>
    <frame tileid="16" duration="150"/>
    <frame tileid="18" duration="150"/>
   </animation>
  </tile>
  <tile id="1">
   <animation>
    <frame tileid="1" duration="150"/>
    <frame tileid="1" duration="150"/>
    <frame tileid="1" duration="150"/>
    <frame tileid="3" duration="150"/>
    <frame tileid="5" duration="150"/>
    <frame tileid="7" duration="150"/>
    <frame tileid="9" duration="150"/>
    <frame tileid="11" duration="150"/>
    <frame tileid="13" duration="150"/>
    <frame tileid="15" duration="150"/>
    <frame tileid="17" duration="150"/>
    <frame tileid="19" duration="150"/>
   </animation>
  </tile>
  <tile id="20">
   <animation>
    <frame tileid="20" duration="150"/>
    <frame tileid="20" duration="150"/>
    <frame tileid="20" duration="150"/>
    <frame tileid="22" duration="150"/>
    <frame tileid="24" duration="150"/>
    <frame tileid="26" duration="150"/>
    <frame tileid="28" duration="150"/>
    <frame tileid="30" duration="150"/>
    <frame tileid="32" duration="150"/>
    <frame tileid="34" duration="150"/>
    <frame tileid="36" duration="150"/>
    <frame tileid="38" duration="150"/>
   </animation>
  </tile>
  <tile id="21">
   <animation>
    <frame tileid="21" duration="150"/>
    <frame tileid="21" duration="150"/>
    <frame tileid="21" duration="150"/>
    <frame tileid="23" duration="150"/>
    <frame tileid="25" duration="150"/>
    <frame tileid="27" duration="150"/>
    <frame tileid="29" duration="150"/>
    <frame tileid="31" duration="150"/>
    <frame tileid="33" duration="150"/>
    <frame tileid="35" duration="150"/>
    <frame tileid="37" duration="150"/>
    <frame tileid="39" duration="150"/>
   </animation>
  </tile>
  <tile id="40">
   <animation>
    <frame tileid="40" duration="150"/>
    <frame tileid="40" duration="150"/>
    <frame tileid="40" duration="150"/>
    <frame tileid="42" duration="150"/>
    <frame tileid="44" duration="150"/>
    <frame tileid="46" duration="150"/>
    <frame tileid="48" duration="150"/>
    <frame tileid="50" duration="150"/>
    <frame tileid="52" duration="150"/>
    <frame tileid="54" duration="150"/>
    <frame tileid="56" duration="150"/>
    <frame tileid="58" duration="150"/>
   </animation>
  </tile>
  <tile id="41">
   <animation>
    <frame tileid="41" duration="150"/>
    <frame tileid="41" duration="150"/>
    <frame tileid="41" duration="150"/>
    <frame tileid="43" duration="150"/>
    <frame tileid="45" duration="150"/>
    <frame tileid="47" duration="150"/>
    <frame tileid="49" duration="150"/>
    <frame tileid="51" duration="150"/>
    <frame tileid="53" duration="150"/>
    <frame tileid="55" duration="150"/>
    <frame tileid="57" duration="150"/>
    <frame tileid="59" duration="150"/>
   </animation>
  </tile>
  <tile id="60">
   <animation>
    <frame tileid="60" duration="150"/>
    <frame tileid="60" duration="150"/>
    <frame tileid="60" duration="150"/>
    <frame tileid="62" duration="150"/>
    <frame tileid="64" duration="150"/>
    <frame tileid="66" duration="150"/>
    <frame tileid="68" duration="150"/>
    <frame tileid="70" duration="150"/>
    <frame tileid="72" duration="150"/>
    <frame tileid="74" duration="150"/>
    <frame tileid="76" duration="150"/>
    <frame tileid="78" duration="150"/>
   </animation>
  </tile>
  <tile id="61">
   <animation>
    <frame tileid="61" duration="150"/>
    <frame tileid="61" duration="150"/>
    <frame tileid="61" duration="150"/>
    <frame tileid="63" duration="150"/>
    <frame tileid="65" duration="150"/>
    <frame tileid="67" duration="150"/>
    <frame tileid="69" duration="150"/>
    <frame tileid="71" duration="150"/>
    <frame tileid="73" duration="150"/>
    <frame tileid="75" duration="150"/>
    <frame tileid="77" duration="150"/>
    <frame tileid="79" duration="150"/>
   </animation>
  </tile>
  <tile id="80">
   <animation>
    <frame tileid="80" duration="150"/>
    <frame tileid="80" duration="150"/>
    <frame tileid="80" duration="150"/>
    <frame tileid="82" duration="150"/>
    <frame tileid="84" duration="150"/>
    <frame tileid="86" duration="150"/>
    <frame tileid="88" duration="150"/>
    <frame tileid="90" duration="150"/>
    <frame tileid="92" duration="150"/>
    <frame tileid="94" duration="150"/>
    <frame tileid="96" duration="150"/>
    <frame tileid="98" duration="150"/>
   </animation>
  </tile>
  <tile id="81">
   <animation>
    <frame tileid="81" duration="150"/>
    <frame tileid="81" duration="150"/>
    <frame tileid="81" duration="150"/>
    <frame tileid="83" duration="150"/>
    <frame tileid="85" duration="150"/>
    <frame tileid="87" duration="150"/>
    <frame tileid="89" duration="150"/>
    <frame tileid="91" duration="150"/>
    <frame tileid="93" duration="150"/>
    <frame tileid="95" duration="150"/>
    <frame tileid="97" duration="150"/>
    <frame tileid="99" duration="150"/>
   </animation>
  </tile>
  <tile id="100">
   <animation>
    <frame tileid="100" duration="150"/>
    <frame tileid="100" duration="150"/>
    <frame tileid="100" duration="150"/>
    <frame tileid="102" duration="150"/>
    <frame tileid="104" duration="150"/>
    <frame tileid="106" duration="150"/>
    <frame tileid="108" duration="150"/>
    <frame tileid="110" duration="150"/>
    <frame tileid="112" duration="150"/>
    <frame tileid="114" duration="150"/>
    <frame tileid="116" duration="150"/>
    <frame tileid="118" duration="150"/>
   </animation>
  </tile>
  <tile id="101">
   <animation>
    <frame tileid="101" duration="150"/>
    <frame tileid="101" duration="150"/>
    <frame tileid="101" duration="150"/>
    <frame tileid="103" duration="150"/>
    <frame tileid="105" duration="150"/>
    <frame tileid="107" duration="150"/>
    <frame tileid="109" duration="150"/>
    <frame tileid="111" duration="150"/>
    <frame tileid="113" duration="150"/>
    <frame tileid="115" duration="150"/>
    <frame tileid="117" duration="150"/>
    <frame tileid="119" duration="150"/>
   </animation>
  </tile>
  <tile id="120">
   <animation>
    <frame tileid="120" duration="150"/>
    <frame tileid="120" duration="150"/>
    <frame tileid="120" duration="150"/>
    <frame tileid="122" duration="150"/>
    <frame tileid="124" duration="150"/>
    <frame tileid="126" duration="150"/>
    <frame tileid="128" duration="150"/>
    <frame tileid="130" duration="150"/>
    <frame tileid="132" duration="150"/>
    <frame tileid="134" duration="150"/>
    <frame tileid="136" duration="150"/>
    <frame tileid="138" duration="150"/>
   </animation>
  </tile>
  <tile id="121">
   <animation>
    <frame tileid="121" duration="150"/>
    <frame tileid="121" duration="150"/>
    <frame tileid="121" duration="150"/>
    <frame tileid="123" duration="150"/>
    <frame tileid="125" duration="150"/>
    <frame tileid="127" duration="150"/>
    <frame tileid="129" duration="150"/>
    <frame tileid="131" duration="150"/>
    <frame tileid="133" duration="150"/>
    <frame tileid="135" duration="150"/>
    <frame tileid="137" duration="150"/>
    <frame tileid="139" duration="150"/>
   </animation>
  </tile>
  <tile id="140">
   <animation>
    <frame tileid="140" duration="150"/>
    <frame tileid="140" duration="150"/>
    <frame tileid="140" duration="150"/>
    <frame tileid="142" duration="150"/>
    <frame tileid="144" duration="150"/>
    <frame tileid="146" duration="150"/>
    <frame tileid="148" duration="150"/>
    <frame tileid="150" duration="150"/>
    <frame tileid="152" duration="150"/>
    <frame tileid="154" duration="150"/>
    <frame tileid="156" duration="150"/>
    <frame tileid="158" duration="150"/>
   </animation>
  </tile>
  <tile id="141">
   <animation>
    <frame tileid="141" duration="150"/>
    <frame tileid="141" duration="150"/>
    <frame tileid="141" duration="150"/>
    <frame tileid="143" duration="150"/>
    <frame tileid="145" duration="150"/>
    <frame tileid="147" duration="150"/>
    <frame tileid="149" duration="150"/>
    <frame tileid="151" duration="150"/>
    <frame tileid="153" duration="150"/>
    <frame tileid="155" duration="150"/>
    <frame tileid="157" duration="150"/>
    <frame tileid="159" duration="150"/>
   </animation>
  </tile>
  <tile id="160">
   <animation>
    <frame tileid="160" duration="150"/>
    <frame tileid="160" duration="150"/>
    <frame tileid="160" duration="150"/>
    <frame tileid="162" duration="150"/>
    <frame tileid="164" duration="150"/>
    <frame tileid="166" duration="150"/>
    <frame tileid="168" duration="150"/>
    <frame tileid="170" duration="150"/>
    <frame tileid="172" duration="150"/>
    <frame tileid="174" duration="150"/>
    <frame tileid="176" duration="150"/>
    <frame tileid="178" duration="150"/>
   </animation>
  </tile>
  <tile id="161">
   <animation>
    <frame tileid="161" duration="150"/>
    <frame tileid="161" duration="150"/>
    <frame tileid="161" duration="150"/>
    <frame tileid="163" duration="150"/>
    <frame tileid="165" duration="150"/>
    <frame tileid="167" duration="150"/>
    <frame tileid="169" duration="150"/>
    <frame tileid="171" duration="150"/>
    <frame tileid="173" duration="150"/>
    <frame tileid="175" duration="150"/>
    <frame tileid="177" duration="150"/>
    <frame tileid="179" duration="150"/>
   </animation>
  </tile>
  <tile id="180">
   <animation>
    <frame tileid="180" duration="150"/>
    <frame tileid="180" duration="150"/>
    <frame tileid="180" duration="150"/>
    <frame tileid="182" duration="150"/>
    <frame tileid="184" duration="150"/>
    <frame tileid="186" duration="150"/>
    <frame tileid="188" duration="150"/>
    <frame tileid="190" duration="150"/>
    <frame tileid="192" duration="150"/>
    <frame tileid="194" duration="150"/>
    <frame tileid="196" duration="150"/>
    <frame tileid="198" duration="150"/>
   </animation>
  </tile>
  <tile id="181">
   <animation>
    <frame tileid="181" duration="150"/>
    <frame tileid="181" duration="150"/>
    <frame tileid="181" duration="150"/>
    <frame tileid="183" duration="150"/>
    <frame tileid="185" duration="150"/>
    <frame tileid="187" duration="150"/>
    <frame tileid="189" duration="150"/>
    <frame tileid="191" duration="150"/>
    <frame tileid="193" duration="150"/>
    <frame tileid="195" duration="150"/>
    <frame tileid="197" duration="150"/>
    <frame tileid="199" duration="150"/>
   </animation>
  </tile>
  <tile id="200">
   <animation>
    <frame tileid="200" duration="150"/>
    <frame tileid="200" duration="150"/>
    <frame tileid="200" duration="150"/>
    <frame tileid="202" duration="150"/>
    <frame tileid="204" duration="150"/>
    <frame tileid="206" duration="150"/>
    <frame tileid="208" duration="150"/>
    <frame tileid="210" duration="150"/>
    <frame tileid="212" duration="150"/>
    <frame tileid="214" duration="150"/>
    <frame tileid="216" duration="150"/>
    <frame tileid="218" duration="150"/>
   </animation>
  </tile>
  <tile id="201">
   <animation>
    <frame tileid="201" duration="150"/>
    <frame tileid="201" duration="150"/>
    <frame tileid="201" duration="150"/>
    <frame tileid="203" duration="150"/>
    <frame tileid="205" duration="150"/>
    <frame tileid="207" duration="150"/>
    <frame tileid="209" duration="150"/>
    <frame tileid="211" duration="150"/>
    <frame tileid="213" duration="150"/>
    <frame tileid="215" duration="150"/>
    <frame tileid="217" duration="150"/>
    <frame tileid="219" duration="150"/>
   </animation>
  </tile>
  <tile id="220">
   <animation>
    <frame tileid="220" duration="150"/>
    <frame tileid="220" duration="150"/>
    <frame tileid="220" duration="150"/>
    <frame tileid="222" duration="150"/>
    <frame tileid="224" duration="150"/>
    <frame tileid="226" duration="150"/>
    <frame tileid="228" duration="150"/>
    <frame tileid="230" duration="150"/>
    <frame tileid="232" duration="150"/>
    <frame tileid="234" duration="150"/>
    <frame tileid="236" duration="150"/>
    <frame tileid="238" duration="150"/>
   </animation>
  </tile>
  <tile id="221">
   <animation>
    <frame tileid="221" duration="150"/>
    <frame tileid="221" duration="150"/>
    <frame tileid="221" duration="150"/>
    <frame tileid="223" duration="150"/>
    <frame tileid="225" duration="150"/>
    <frame tileid="227" duration="150"/>
    <frame tileid="229" duration="150"/>
    <frame tileid="231" duration="150"/>
    <frame tileid="233" duration="150"/>
    <frame tileid="235" duration="150"/>
    <frame tileid="237" duration="150"/>
    <frame tileid="239" duration="150"/>
   </animation>
  </tile>
  <tile id="240">
   <animation>
    <frame tileid="240" duration="150"/>
    <frame tileid="240" duration="150"/>
    <frame tileid="240" duration="150"/>
    <frame tileid="246" duration="150"/>
    <frame tileid="252" duration="150"/>
    <frame tileid="280" duration="150"/>
    <frame tileid="286" duration="150"/>
    <frame tileid="292" duration="150"/>
    <frame tileid="320" duration="150"/>
    <frame tileid="326" duration="150"/>
    <frame tileid="332" duration="150"/>
    <frame tileid="360" duration="150"/>
   </animation>
  </tile>
  <tile id="241">
   <animation>
    <frame tileid="241" duration="150"/>
    <frame tileid="241" duration="150"/>
    <frame tileid="241" duration="150"/>
    <frame tileid="247" duration="150"/>
    <frame tileid="253" duration="150"/>
    <frame tileid="281" duration="150"/>
    <frame tileid="287" duration="150"/>
    <frame tileid="293" duration="150"/>
    <frame tileid="321" duration="150"/>
    <frame tileid="327" duration="150"/>
    <frame tileid="333" duration="150"/>
    <frame tileid="361" duration="150"/>
   </animation>
  </tile>
  <tile id="242">
   <animation>
    <frame tileid="242" duration="150"/>
    <frame tileid="242" duration="150"/>
    <frame tileid="242" duration="150"/>
    <frame tileid="248" duration="150"/>
    <frame tileid="254" duration="150"/>
    <frame tileid="282" duration="150"/>
    <frame tileid="288" duration="150"/>
    <frame tileid="294" duration="150"/>
    <frame tileid="322" duration="150"/>
    <frame tileid="328" duration="150"/>
    <frame tileid="334" duration="150"/>
    <frame tileid="362" duration="150"/>
   </animation>
  </tile>
  <tile id="243">
   <animation>
    <frame tileid="243" duration="150"/>
    <frame tileid="243" duration="150"/>
    <frame tileid="243" duration="150"/>
    <frame tileid="249" duration="150"/>
    <frame tileid="255" duration="150"/>
    <frame tileid="283" duration="150"/>
    <frame tileid="289" duration="150"/>
    <frame tileid="295" duration="150"/>
    <frame tileid="323" duration="150"/>
    <frame tileid="329" duration="150"/>
    <frame tileid="335" duration="150"/>
    <frame tileid="363" duration="150"/>
   </animation>
  </tile>
  <tile id="244">
   <animation>
    <frame tileid="244" duration="150"/>
    <frame tileid="244" duration="150"/>
    <frame tileid="244" duration="150"/>
    <frame tileid="250" duration="150"/>
    <frame tileid="256" duration="150"/>
    <frame tileid="284" duration="150"/>
    <frame tileid="290" duration="150"/>
    <frame tileid="296" duration="150"/>
    <frame tileid="324" duration="150"/>
    <frame tileid="330" duration="150"/>
    <frame tileid="336" duration="150"/>
    <frame tileid="364" duration="150"/>
   </animation>
  </tile>
  <tile id="245">
   <animation>
    <frame tileid="245" duration="150"/>
    <frame tileid="245" duration="150"/>
    <frame tileid="245" duration="150"/>
    <frame tileid="251" duration="150"/>
    <frame tileid="257" duration="150"/>
    <frame tileid="285" duration="150"/>
    <frame tileid="291" duration="150"/>
    <frame tileid="297" duration="150"/>
    <frame tileid="325" duration="150"/>
    <frame tileid="331" duration="150"/>
    <frame tileid="337" duration="150"/>
    <frame tileid="365" duration="150"/>
   </animation>
  </tile>
  <tile id="260">
   <animation>
    <frame tileid="260" duration="150"/>
    <frame tileid="260" duration="150"/>
    <frame tileid="260" duration="150"/>
    <frame tileid="266" duration="150"/>
    <frame tileid="272" duration="150"/>
    <frame tileid="300" duration="150"/>
    <frame tileid="306" duration="150"/>
    <frame tileid="312" duration="150"/>
    <frame tileid="340" duration="150"/>
    <frame tileid="346" duration="150"/>
    <frame tileid="352" duration="150"/>
    <frame tileid="380" duration="150"/>
   </animation>
  </tile>
  <tile id="261">
   <animation>
    <frame tileid="261" duration="150"/>
    <frame tileid="261" duration="150"/>
    <frame tileid="261" duration="150"/>
    <frame tileid="267" duration="150"/>
    <frame tileid="273" duration="150"/>
    <frame tileid="301" duration="150"/>
    <frame tileid="307" duration="150"/>
    <frame tileid="313" duration="150"/>
    <frame tileid="341" duration="150"/>
    <frame tileid="347" duration="150"/>
    <frame tileid="353" duration="150"/>
    <frame tileid="381" duration="150"/>
   </animation>
  </tile>
  <tile id="262">
   <animation>
    <frame tileid="262" duration="150"/>
    <frame tileid="262" duration="150"/>
    <frame tileid="262" duration="150"/>
    <frame tileid="268" duration="150"/>
    <frame tileid="274" duration="150"/>
    <frame tileid="302" duration="150"/>
    <frame tileid="308" duration="150"/>
    <frame tileid="314" duration="150"/>
    <frame tileid="342" duration="150"/>
    <frame tileid="348" duration="150"/>
    <frame tileid="354" duration="150"/>
    <frame tileid="382" duration="150"/>
   </animation>
  </tile>
  <tile id="263">
   <animation>
    <frame tileid="263" duration="150"/>
    <frame tileid="263" duration="150"/>
    <frame tileid="263" duration="150"/>
    <frame tileid="269" duration="150"/>
    <frame tileid="275" duration="150"/>
    <frame tileid="303" duration="150"/>
    <frame tileid="309" duration="150"/>
    <frame tileid="315" duration="150"/>
    <frame tileid="343" duration="150"/>
    <frame tileid="349" duration="150"/>
    <frame tileid="355" duration="150"/>
    <frame tileid="383" duration="150"/>
   </animation>
  </tile>
  <tile id="264">
   <animation>
    <frame tileid="264" duration="150"/>
    <frame tileid="264" duration="150"/>
    <frame tileid="264" duration="150"/>
    <frame tileid="270" duration="150"/>
    <frame tileid="276" duration="150"/>
    <frame tileid="304" duration="150"/>
    <frame tileid="310" duration="150"/>
    <frame tileid="316" duration="150"/>
    <frame tileid="344" duration="150"/>
    <frame tileid="350" duration="150"/>
    <frame tileid="356" duration="150"/>
    <frame tileid="384" duration="150"/>
   </animation>
  </tile>
  <tile id="265">
   <animation>
    <frame tileid="265" duration="150"/>
    <frame tileid="265" duration="150"/>
    <frame tileid="265" duration="150"/>
    <frame tileid="271" duration="150"/>
    <frame tileid="277" duration="150"/>
    <frame tileid="305" duration="150"/>
    <frame tileid="311" duration="150"/>
    <frame tileid="317" duration="150"/>
    <frame tileid="345" duration="150"/>
    <frame tileid="351" duration="150"/>
    <frame tileid="357" duration="150"/>
    <frame tileid="385" duration="150"/>
   </animation>
  </tile>
  <tile id="400">
   <animation>
    <frame tileid="400" duration="150"/>
    <frame tileid="400" duration="150"/>
    <frame tileid="400" duration="150"/>
    <frame tileid="406" duration="150"/>
    <frame tileid="412" duration="150"/>
    <frame tileid="460" duration="150"/>
    <frame tileid="466" duration="150"/>
    <frame tileid="472" duration="150"/>
    <frame tileid="520" duration="150"/>
    <frame tileid="526" duration="150"/>
    <frame tileid="532" duration="150"/>
    <frame tileid="580" duration="150"/>
   </animation>
  </tile>
  <tile id="401">
   <animation>
    <frame tileid="401" duration="150"/>
    <frame tileid="401" duration="150"/>
    <frame tileid="401" duration="150"/>
    <frame tileid="407" duration="150"/>
    <frame tileid="413" duration="150"/>
    <frame tileid="461" duration="150"/>
    <frame tileid="467" duration="150"/>
    <frame tileid="473" duration="150"/>
    <frame tileid="521" duration="150"/>
    <frame tileid="527" duration="150"/>
    <frame tileid="533" duration="150"/>
    <frame tileid="581" duration="150"/>
   </animation>
  </tile>
  <tile id="402">
   <animation>
    <frame tileid="402" duration="150"/>
    <frame tileid="402" duration="150"/>
    <frame tileid="402" duration="150"/>
    <frame tileid="408" duration="150"/>
    <frame tileid="414" duration="150"/>
    <frame tileid="462" duration="150"/>
    <frame tileid="468" duration="150"/>
    <frame tileid="474" duration="150"/>
    <frame tileid="522" duration="150"/>
    <frame tileid="528" duration="150"/>
    <frame tileid="534" duration="150"/>
    <frame tileid="582" duration="150"/>
   </animation>
  </tile>
  <tile id="403">
   <animation>
    <frame tileid="403" duration="150"/>
    <frame tileid="403" duration="150"/>
    <frame tileid="403" duration="150"/>
    <frame tileid="409" duration="150"/>
    <frame tileid="415" duration="150"/>
    <frame tileid="463" duration="150"/>
    <frame tileid="469" duration="150"/>
    <frame tileid="475" duration="150"/>
    <frame tileid="523" duration="150"/>
    <frame tileid="529" duration="150"/>
    <frame tileid="535" duration="150"/>
    <frame tileid="583" duration="150"/>
   </animation>
  </tile>
  <tile id="404">
   <animation>
    <frame tileid="404" duration="150"/>
    <frame tileid="404" duration="150"/>
    <frame tileid="404" duration="150"/>
    <frame tileid="410" duration="150"/>
    <frame tileid="416" duration="150"/>
    <frame tileid="464" duration="150"/>
    <frame tileid="470" duration="150"/>
    <frame tileid="476" duration="150"/>
    <frame tileid="524" duration="150"/>
    <frame tileid="530" duration="150"/>
    <frame tileid="536" duration="150"/>
    <frame tileid="584" duration="150"/>
   </animation>
  </tile>
  <tile id="405">
   <animation>
    <frame tileid="405" duration="150"/>
    <frame tileid="405" duration="150"/>
    <frame tileid="405" duration="150"/>
    <frame tileid="411" duration="150"/>
    <frame tileid="417" duration="150"/>
    <frame tileid="465" duration="150"/>
    <frame tileid="471" duration="150"/>
    <frame tileid="477" duration="150"/>
    <frame tileid="525" duration="150"/>
    <frame tileid="531" duration="150"/>
    <frame tileid="537" duration="150"/>
    <frame tileid="585" duration="150"/>
   </animation>
  </tile>
  <tile id="420">
   <animation>
    <frame tileid="420" duration="150"/>
    <frame tileid="420" duration="150"/>
    <frame tileid="420" duration="150"/>
    <frame tileid="426" duration="150"/>
    <frame tileid="432" duration="150"/>
    <frame tileid="480" duration="150"/>
    <frame tileid="486" duration="150"/>
    <frame tileid="492" duration="150"/>
    <frame tileid="540" duration="150"/>
    <frame tileid="546" duration="150"/>
    <frame tileid="552" duration="150"/>
    <frame tileid="600" duration="150"/>
   </animation>
  </tile>
  <tile id="421">
   <animation>
    <frame tileid="421" duration="150"/>
    <frame tileid="421" duration="150"/>
    <frame tileid="421" duration="150"/>
    <frame tileid="427" duration="150"/>
    <frame tileid="433" duration="150"/>
    <frame tileid="481" duration="150"/>
    <frame tileid="487" duration="150"/>
    <frame tileid="493" duration="150"/>
    <frame tileid="541" duration="150"/>
    <frame tileid="547" duration="150"/>
    <frame tileid="553" duration="150"/>
    <frame tileid="601" duration="150"/>
   </animation>
  </tile>
  <tile id="422">
   <animation>
    <frame tileid="422" duration="150"/>
    <frame tileid="422" duration="150"/>
    <frame tileid="422" duration="150"/>
    <frame tileid="428" duration="150"/>
    <frame tileid="434" duration="150"/>
    <frame tileid="482" duration="150"/>
    <frame tileid="488" duration="150"/>
    <frame tileid="494" duration="150"/>
    <frame tileid="542" duration="150"/>
    <frame tileid="548" duration="150"/>
    <frame tileid="554" duration="150"/>
    <frame tileid="602" duration="150"/>
   </animation>
  </tile>
  <tile id="423">
   <animation>
    <frame tileid="423" duration="150"/>
    <frame tileid="423" duration="150"/>
    <frame tileid="423" duration="150"/>
    <frame tileid="429" duration="150"/>
    <frame tileid="435" duration="150"/>
    <frame tileid="483" duration="150"/>
    <frame tileid="489" duration="150"/>
    <frame tileid="495" duration="150"/>
    <frame tileid="543" duration="150"/>
    <frame tileid="549" duration="150"/>
    <frame tileid="555" duration="150"/>
    <frame tileid="603" duration="150"/>
   </animation>
  </tile>
  <tile id="424">
   <animation>
    <frame tileid="424" duration="150"/>
    <frame tileid="424" duration="150"/>
    <frame tileid="424" duration="150"/>
    <frame tileid="430" duration="150"/>
    <frame tileid="436" duration="150"/>
    <frame tileid="484" duration="150"/>
    <frame tileid="490" duration="150"/>
    <frame tileid="496" duration="150"/>
    <frame tileid="544" duration="150"/>
    <frame tileid="550" duration="150"/>
    <frame tileid="556" duration="150"/>
    <frame tileid="604" duration="150"/>
   </animation>
  </tile>
  <tile id="425">
   <animation>
    <frame tileid="425" duration="150"/>
    <frame tileid="425" duration="150"/>
    <frame tileid="425" duration="150"/>
    <frame tileid="431" duration="150"/>
    <frame tileid="437" duration="150"/>
    <frame tileid="485" duration="150"/>
    <frame tileid="491" duration="150"/>
    <frame tileid="497" duration="150"/>
    <frame tileid="545" duration="150"/>
    <frame tileid="551" duration="150"/>
    <frame tileid="557" duration="150"/>
    <frame tileid="605" duration="150"/>
   </animation>
  </tile>
  <tile id="440">
   <animation>
    <frame tileid="440" duration="150"/>
    <frame tileid="440" duration="150"/>
    <frame tileid="440" duration="150"/>
    <frame tileid="446" duration="150"/>
    <frame tileid="452" duration="150"/>
    <frame tileid="500" duration="150"/>
    <frame tileid="506" duration="150"/>
    <frame tileid="512" duration="150"/>
    <frame tileid="560" duration="150"/>
    <frame tileid="566" duration="150"/>
    <frame tileid="572" duration="150"/>
    <frame tileid="620" duration="150"/>
   </animation>
  </tile>
  <tile id="441">
   <animation>
    <frame tileid="441" duration="150"/>
    <frame tileid="441" duration="150"/>
    <frame tileid="441" duration="150"/>
    <frame tileid="447" duration="150"/>
    <frame tileid="453" duration="150"/>
    <frame tileid="501" duration="150"/>
    <frame tileid="507" duration="150"/>
    <frame tileid="513" duration="150"/>
    <frame tileid="561" duration="150"/>
    <frame tileid="567" duration="150"/>
    <frame tileid="573" duration="150"/>
    <frame tileid="621" duration="150"/>
   </animation>
  </tile>
  <tile id="442">
   <animation>
    <frame tileid="442" duration="150"/>
    <frame tileid="442" duration="150"/>
    <frame tileid="442" duration="150"/>
    <frame tileid="448" duration="150"/>
    <frame tileid="454" duration="150"/>
    <frame tileid="502" duration="150"/>
    <frame tileid="508" duration="150"/>
    <frame tileid="514" duration="150"/>
    <frame tileid="562" duration="150"/>
    <frame tileid="568" duration="150"/>
    <frame tileid="574" duration="150"/>
    <frame tileid="622" duration="150"/>
   </animation>
  </tile>
  <tile id="443">
   <animation>
    <frame tileid="443" duration="150"/>
    <frame tileid="443" duration="150"/>
    <frame tileid="443" duration="150"/>
    <frame tileid="449" duration="150"/>
    <frame tileid="455" duration="150"/>
    <frame tileid="503" duration="150"/>
    <frame tileid="509" duration="150"/>
    <frame tileid="515" duration="150"/>
    <frame tileid="563" duration="150"/>
    <frame tileid="569" duration="150"/>
    <frame tileid="575" duration="150"/>
    <frame tileid="623" duration="150"/>
   </animation>
  </tile>
  <tile id="444">
   <animation>
    <frame tileid="444" duration="150"/>
    <frame tileid="444" duration="150"/>
    <frame tileid="444" duration="150"/>
    <frame tileid="450" duration="150"/>
    <frame tileid="456" duration="150"/>
    <frame tileid="504" duration="150"/>
    <frame tileid="510" duration="150"/>
    <frame tileid="516" duration="150"/>
    <frame tileid="564" duration="150"/>
    <frame tileid="570" duration="150"/>
    <frame tileid="576" duration="150"/>
    <frame tileid="624" duration="150"/>
   </animation>
  </tile>
  <tile id="445">
   <animation>
    <frame tileid="445" duration="150"/>
    <frame tileid="445" duration="150"/>
    <frame tileid="445" duration="150"/>
    <frame tileid="451" duration="150"/>
    <frame tileid="457" duration="150"/>
    <frame tileid="505" duration="150"/>
    <frame tileid="511" duration="150"/>
    <frame tileid="517" duration="150"/>
    <frame tileid="565" duration="150"/>
    <frame tileid="571" duration="150"/>
    <frame tileid="577" duration="150"/>
    <frame tileid="625" duration="150"/>
   </animation>
  </tile>
 </tileset>
 <tileset firstgid="6824" name="column_trap" tilewidth="16" tileheight="16" tilecount="72" columns="18">
  <image source="../Art/Dungeon/column_trap.png" width="288" height="64"/>
  <tile id="0">
   <animation>
    <frame tileid="0" duration="150"/>
    <frame tileid="3" duration="150"/>
    <frame tileid="6" duration="150"/>
    <frame tileid="9" duration="150"/>
    <frame tileid="12" duration="150"/>
    <frame tileid="15" duration="150"/>
   </animation>
  </tile>
  <tile id="1">
   <animation>
    <frame tileid="1" duration="150"/>
    <frame tileid="4" duration="150"/>
    <frame tileid="7" duration="150"/>
    <frame tileid="10" duration="150"/>
    <frame tileid="13" duration="150"/>
    <frame tileid="16" duration="150"/>
   </animation>
  </tile>
  <tile id="2">
   <animation>
    <frame tileid="2" duration="150"/>
    <frame tileid="5" duration="150"/>
    <frame tileid="8" duration="150"/>
    <frame tileid="11" duration="150"/>
    <frame tileid="14" duration="150"/>
    <frame tileid="17" duration="150"/>
   </animation>
  </tile>
  <tile id="18">
   <animation>
    <frame tileid="18" duration="150"/>
    <frame tileid="21" duration="150"/>
    <frame tileid="24" duration="150"/>
    <frame tileid="27" duration="150"/>
    <frame tileid="30" duration="150"/>
    <frame tileid="33" duration="150"/>
   </animation>
  </tile>
  <tile id="19">
   <animation>
    <frame tileid="19" duration="150"/>
    <frame tileid="22" duration="150"/>
    <frame tileid="25" duration="150"/>
    <frame tileid="28" duration="150"/>
    <frame tileid="31" duration="150"/>
    <frame tileid="34" duration="150"/>
   </animation>
  </tile>
  <tile id="20">
   <animation>
    <frame tileid="20" duration="150"/>
    <frame tileid="23" duration="150"/>
    <frame tileid="26" duration="150"/>
    <frame tileid="29" duration="150"/>
    <frame tileid="32" duration="150"/>
    <frame tileid="35" duration="150"/>
   </animation>
  </tile>
  <tile id="36">
   <animation>
    <frame tileid="36" duration="150"/>
    <frame tileid="39" duration="150"/>
    <frame tileid="42" duration="150"/>
    <frame tileid="45" duration="150"/>
    <frame tileid="48" duration="150"/>
    <frame tileid="51" duration="150"/>
   </animation>
  </tile>
  <tile id="37">
   <animation>
    <frame tileid="37" duration="150"/>
    <frame tileid="40" duration="150"/>
    <frame tileid="43" duration="150"/>
    <frame tileid="46" duration="150"/>
    <frame tileid="49" duration="150"/>
    <frame tileid="52" duration="150"/>
   </animation>
  </tile>
  <tile id="38">
   <animation>
    <frame tileid="38" duration="150"/>
    <frame tileid="41" duration="150"/>
    <frame tileid="44" duration="150"/>
    <frame tileid="47" duration="150"/>
    <frame tileid="50" duration="150"/>
    <frame tileid="53" duration="150"/>
   </animation>
  </tile>
  <tile id="54">
   <animation>
    <frame tileid="54" duration="150"/>
    <frame tileid="57" duration="150"/>
    <frame tileid="60" duration="150"/>
    <frame tileid="63" duration="150"/>
    <frame tileid="66" duration="150"/>
    <frame tileid="69" duration="150"/>
   </animation>
  </tile>
  <tile id="55">
   <animation>
    <frame tileid="55" duration="150"/>
    <frame tileid="58" duration="150"/>
    <frame tileid="61" duration="150"/>
    <frame tileid="64" duration="150"/>
    <frame tileid="67" duration="150"/>
    <frame tileid="70" duration="150"/>
   </animation>
  </tile>
  <tile id="56">
   <animation>
    <frame tileid="56" duration="150"/>
    <frame tileid="59" duration="150"/>
    <frame tileid="62" duration="150"/>
    <frame tileid="65" duration="150"/>
    <frame tileid="68" duration="150"/>
    <frame tileid="71" duration="150"/>
   </animation>
  </tile>
 </tileset>
 <tileset firstgid="6896" name="plate_trap" tilewidth="16" tileheight="16" tilecount="96" columns="24">
  <image source="../Art/Dungeon/plate_trap.png" width="384" height="64"/>
  <tile id="0">
   <animation>
    <frame tileid="0" duration="150"/>
    <frame tileid="0" duration="150"/>
    <frame tileid="0" duration="150"/>
    <frame tileid="0" duration="150"/>
    <frame tileid="4" duration="150"/>
    <frame tileid="8" duration="150"/>
    <frame tileid="12" duration="150"/>
    <frame tileid="16" duration="150"/>
    <frame tileid="20" duration="150"/>
    <frame tileid="20" duration="150"/>
    <frame tileid="20" duration="150"/>
    <frame tileid="20" duration="150"/>
   </animation>
  </tile>
  <tile id="1">
   <animation>
    <frame tileid="1" duration="150"/>
    <frame tileid="1" duration="150"/>
    <frame tileid="1" duration="150"/>
    <frame tileid="1" duration="150"/>
    <frame tileid="5" duration="150"/>
    <frame tileid="9" duration="150"/>
    <frame tileid="13" duration="150"/>
    <frame tileid="17" duration="150"/>
    <frame tileid="21" duration="150"/>
    <frame tileid="21" duration="150"/>
    <frame tileid="21" duration="150"/>
    <frame tileid="21" duration="150"/>
   </animation>
  </tile>
  <tile id="3">
   <animation>
    <frame tileid="3" duration="150"/>
    <frame tileid="3" duration="150"/>
    <frame tileid="3" duration="150"/>
    <frame tileid="3" duration="150"/>
    <frame tileid="7" duration="150"/>
    <frame tileid="11" duration="150"/>
    <frame tileid="15" duration="150"/>
    <frame tileid="19" duration="150"/>
    <frame tileid="23" duration="150"/>
    <frame tileid="23" duration="150"/>
    <frame tileid="23" duration="150"/>
    <frame tileid="23" duration="150"/>
   </animation>
  </tile>
  <tile id="24">
   <animation>
    <frame tileid="24" duration="150"/>
    <frame tileid="24" duration="150"/>
    <frame tileid="24" duration="150"/>
    <frame tileid="24" duration="150"/>
    <frame tileid="28" duration="150"/>
    <frame tileid="32" duration="150"/>
    <frame tileid="36" duration="150"/>
    <frame tileid="40" duration="150"/>
    <frame tileid="44" duration="150"/>
    <frame tileid="44" duration="150"/>
    <frame tileid="44" duration="150"/>
    <frame tileid="44" duration="150"/>
   </animation>
  </tile>
  <tile id="25">
   <animation>
    <frame tileid="25" duration="150"/>
    <frame tileid="25" duration="150"/>
    <frame tileid="25" duration="150"/>
    <frame tileid="25" duration="150"/>
    <frame tileid="29" duration="150"/>
    <frame tileid="33" duration="150"/>
    <frame tileid="37" duration="150"/>
    <frame tileid="41" duration="150"/>
    <frame tileid="45" duration="150"/>
    <frame tileid="45" duration="150"/>
    <frame tileid="45" duration="150"/>
    <frame tileid="45" duration="150"/>
   </animation>
  </tile>
  <tile id="48">
   <animation>
    <frame tileid="48" duration="150"/>
    <frame tileid="48" duration="150"/>
    <frame tileid="48" duration="150"/>
    <frame tileid="48" duration="150"/>
    <frame tileid="52" duration="150"/>
    <frame tileid="56" duration="150"/>
    <frame tileid="60" duration="150"/>
    <frame tileid="64" duration="150"/>
    <frame tileid="68" duration="150"/>
    <frame tileid="68" duration="150"/>
    <frame tileid="68" duration="150"/>
    <frame tileid="68" duration="150"/>
   </animation>
  </tile>
  <tile id="49">
   <animation>
    <frame tileid="49" duration="150"/>
    <frame tileid="49" duration="150"/>
    <frame tileid="49" duration="150"/>
    <frame tileid="49" duration="150"/>
    <frame tileid="53" duration="150"/>
    <frame tileid="57" duration="150"/>
    <frame tileid="61" duration="150"/>
    <frame tileid="65" duration="150"/>
    <frame tileid="69" duration="150"/>
    <frame tileid="69" duration="150"/>
    <frame tileid="69" duration="150"/>
    <frame tileid="69" duration="150"/>
   </animation>
  </tile>
  <tile id="51">
   <animation>
    <frame tileid="55" duration="150"/>
    <frame tileid="55" duration="150"/>
    <frame tileid="55" duration="150"/>
    <frame tileid="55" duration="150"/>
    <frame tileid="59" duration="150"/>
    <frame tileid="63" duration="150"/>
    <frame tileid="67" duration="150"/>
    <frame tileid="71" duration="150"/>
    <frame tileid="71" duration="150"/>
    <frame tileid="71" duration="150"/>
    <frame tileid="71" duration="150"/>
    <frame tileid="71" duration="150"/>
   </animation>
  </tile>
  <tile id="72">
   <animation>
    <frame tileid="72" duration="150"/>
    <frame tileid="72" duration="150"/>
    <frame tileid="72" duration="150"/>
    <frame tileid="72" duration="150"/>
    <frame tileid="76" duration="150"/>
    <frame tileid="80" duration="150"/>
    <frame tileid="84" duration="150"/>
    <frame tileid="88" duration="150"/>
    <frame tileid="92" duration="150"/>
    <frame tileid="92" duration="150"/>
    <frame tileid="92" duration="150"/>
    <frame tileid="92" duration="150"/>
   </animation>
  </tile>
  <tile id="73">
   <animation>
    <frame tileid="73" duration="150"/>
    <frame tileid="73" duration="150"/>
    <frame tileid="73" duration="150"/>
    <frame tileid="73" duration="150"/>
    <frame tileid="77" duration="150"/>
    <frame tileid="81" duration="150"/>
    <frame tileid="85" duration="150"/>
    <frame tileid="89" duration="150"/>
    <frame tileid="93" duration="150"/>
    <frame tileid="93" duration="150"/>
    <frame tileid="93" duration="150"/>
    <frame tileid="93" duration="150"/>
   </animation>
  </tile>
 </tileset>
 <tileset firstgid="6992" name="Statue_fire" tilewidth="16" tileheight="16" tilecount="150" columns="30">
  <image source="../Art/Dungeon/Statue_fire.png" width="480" height="80"/>
  <tile id="0">
   <animation>
    <frame tileid="0" duration="150"/>
    <frame tileid="5" duration="150"/>
    <frame tileid="10" duration="150"/>
    <frame tileid="15" duration="150"/>
    <frame tileid="20" duration="150"/>
    <frame tileid="25" duration="150"/>
   </animation>
  </tile>
  <tile id="1">
   <animation>
    <frame tileid="1" duration="150"/>
    <frame tileid="6" duration="150"/>
    <frame tileid="11" duration="150"/>
    <frame tileid="16" duration="150"/>
    <frame tileid="21" duration="150"/>
    <frame tileid="26" duration="150"/>
   </animation>
  </tile>
  <tile id="2">
   <animation>
    <frame tileid="2" duration="150"/>
    <frame tileid="7" duration="150"/>
    <frame tileid="12" duration="150"/>
    <frame tileid="17" duration="150"/>
    <frame tileid="22" duration="150"/>
    <frame tileid="27" duration="150"/>
   </animation>
  </tile>
  <tile id="3">
   <animation>
    <frame tileid="3" duration="150"/>
    <frame tileid="8" duration="150"/>
    <frame tileid="13" duration="150"/>
    <frame tileid="18" duration="150"/>
    <frame tileid="23" duration="150"/>
    <frame tileid="28" duration="150"/>
   </animation>
  </tile>
  <tile id="4">
   <animation>
    <frame tileid="4" duration="150"/>
    <frame tileid="9" duration="150"/>
    <frame tileid="14" duration="150"/>
    <frame tileid="19" duration="150"/>
    <frame tileid="24" duration="150"/>
    <frame tileid="29" duration="150"/>
   </animation>
  </tile>
  <tile id="30">
   <animation>
    <frame tileid="30" duration="150"/>
    <frame tileid="35" duration="150"/>
    <frame tileid="40" duration="150"/>
    <frame tileid="45" duration="150"/>
    <frame tileid="50" duration="150"/>
    <frame tileid="55" duration="150"/>
   </animation>
  </tile>
  <tile id="31">
   <animation>
    <frame tileid="31" duration="150"/>
    <frame tileid="36" duration="150"/>
    <frame tileid="41" duration="150"/>
    <frame tileid="46" duration="150"/>
    <frame tileid="51" duration="150"/>
    <frame tileid="56" duration="150"/>
   </animation>
  </tile>
  <tile id="32">
   <animation>
    <frame tileid="32" duration="150"/>
    <frame tileid="37" duration="150"/>
    <frame tileid="42" duration="150"/>
    <frame tileid="47" duration="150"/>
    <frame tileid="52" duration="150"/>
    <frame tileid="57" duration="150"/>
   </animation>
  </tile>
  <tile id="33">
   <animation>
    <frame tileid="33" duration="150"/>
    <frame tileid="38" duration="150"/>
    <frame tileid="43" duration="150"/>
    <frame tileid="48" duration="150"/>
    <frame tileid="53" duration="150"/>
    <frame tileid="58" duration="150"/>
   </animation>
  </tile>
  <tile id="34">
   <animation>
    <frame tileid="34" duration="150"/>
    <frame tileid="39" duration="150"/>
    <frame tileid="44" duration="150"/>
    <frame tileid="49" duration="150"/>
    <frame tileid="54" duration="150"/>
    <frame tileid="59" duration="150"/>
   </animation>
  </tile>
  <tile id="60">
   <animation>
    <frame tileid="60" duration="150"/>
    <frame tileid="65" duration="150"/>
    <frame tileid="70" duration="150"/>
    <frame tileid="75" duration="150"/>
    <frame tileid="80" duration="150"/>
    <frame tileid="85" duration="150"/>
   </animation>
  </tile>
  <tile id="61">
   <animation>
    <frame tileid="61" duration="150"/>
    <frame tileid="66" duration="150"/>
    <frame tileid="71" duration="150"/>
    <frame tileid="76" duration="150"/>
    <frame tileid="81" duration="150"/>
    <frame tileid="86" duration="150"/>
   </animation>
  </tile>
  <tile id="63">
   <animation>
    <frame tileid="63" duration="150"/>
    <frame tileid="68" duration="150"/>
    <frame tileid="73" duration="150"/>
    <frame tileid="78" duration="150"/>
    <frame tileid="83" duration="150"/>
    <frame tileid="88" duration="150"/>
   </animation>
  </tile>
  <tile id="64">
   <animation>
    <frame tileid="64" duration="150"/>
    <frame tileid="69" duration="150"/>
    <frame tileid="74" duration="150"/>
    <frame tileid="79" duration="150"/>
    <frame tileid="84" duration="150"/>
    <frame tileid="89" duration="150"/>
   </animation>
  </tile>
 </tileset>
 <tileset firstgid="7142" name="coffins" tilewidth="16" tileheight="16" tilecount="300" columns="30">
  <image source="../Art/Dungeon/coffins.png" width="480" height="160"/>
 </tileset>
 <tileset firstgid="7442" name="other_objects" tilewidth="16" tileheight="16" tilecount="288" columns="12">
  <image source="../Art/Dungeon/other_objects.png" width="192" height="384"/>
 </tileset>
 <tileset firstgid="7730" name="other_objects" tilewidth="16" tileheight="16" tilecount="288" columns="12">
  <image source="../Art/Dungeon/other_objects.png" width="192" height="384"/>
 </tileset>
 <group id="79" name="Ground">
  <layer id="44" name="Water" width="16" height="24">
   <data encoding="csv">
    <chunk x="-32" y="-16" width="16" height="16">
0,0,0,0,0,0,0,0,0,0,0,0,0,0,0,0,
0,0,0,0,0,0,0,0,0,0,0,0,0,0,0,0,
0,0,0,0,0,0,0,0,0,0,0,0,0,0,0,0,
0,0,0,0,0,0,0,0,0,0,0,0,0,0,0,0,
0,0,0,0,0,0,0,0,0,0,0,0,0,0,0,0,
0,0,0,0,0,0,0,0,0,0,0,0,0,0,0,0,
0,0,0,0,0,0,0,0,0,0,0,0,0,0,0,0,
0,0,0,0,0,0,0,0,0,0,0,0,0,0,0,0,
0,0,0,0,0,0,0,0,0,0,0,0,0,0,0,0,
0,0,0,0,0,0,0,0,0,0,0,0,0,0,0,0,
0,0,0,0,0,0,0,0,0,0,0,0,0,0,0,872,
0,0,0,0,0,0,0,0,0,0,0,0,0,0,0,872,
0,0,0,0,0,0,0,0,0,0,0,0,0,0,0,872,
0,0,0,0,0,0,0,0,0,0,0,0,0,0,0,872,
0,0,0,0,0,0,0,0,0,0,0,0,0,0,0,872,
0,0,0,0,0,0,0,0,0,0,0,0,0,0,0,872
</chunk>
    <chunk x="-16" y="-16" width="16" height="16">
0,0,0,0,0,0,0,0,0,0,0,0,0,0,0,0,
0,0,0,0,0,0,0,0,0,0,0,0,0,0,0,0,
0,0,0,0,0,0,0,0,0,0,0,0,0,0,0,0,
0,0,0,0,0,0,0,0,0,0,0,0,0,0,0,0,
0,0,0,0,0,0,0,0,0,0,0,0,0,0,0,0,
0,0,0,0,0,0,0,0,0,0,0,0,0,0,0,0,
0,0,0,0,0,0,0,0,0,0,0,0,0,0,0,0,
0,0,0,0,0,0,0,0,0,0,0,0,0,0,0,0,
0,0,0,0,0,0,0,0,0,0,0,0,0,0,0,0,
0,0,0,0,0,0,0,0,0,0,0,0,0,0,0,0,
872,872,0,0,0,0,0,0,0,0,0,0,0,0,0,0,
872,872,0,0,0,0,0,0,0,0,0,0,0,0,0,0,
872,872,872,0,0,0,0,0,0,0,0,0,0,0,0,0,
872,872,872,0,0,0,0,0,0,0,0,0,0,0,0,0,
872,872,872,872,0,872,0,0,0,0,0,0,0,0,0,0,
872,872,872,872,0,872,872,0,0,0,0,0,0,0,0,0
</chunk>
    <chunk x="0" y="-16" width="16" height="16">
0,0,0,0,0,0,0,0,0,0,0,0,0,0,0,0,
0,0,0,0,0,0,0,0,0,0,0,0,0,0,0,0,
0,0,0,0,0,0,0,0,0,0,0,0,0,0,0,0,
0,0,0,0,0,0,0,0,0,0,0,0,0,0,0,0,
0,0,0,0,0,0,0,0,0,0,0,0,0,0,0,0,
0,0,0,0,0,0,0,0,0,0,0,0,0,0,0,0,
0,0,0,0,0,0,0,0,0,0,0,0,0,0,0,0,
0,0,0,0,0,0,0,0,0,0,0,0,0,0,0,0,
0,0,0,0,0,0,0,0,0,0,0,0,0,0,0,0,
0,0,0,0,0,0,0,0,0,0,0,0,0,0,0,0,
0,0,0,0,0,0,0,872,872,872,872,872,0,0,0,0,
0,0,0,0,0,0,0,872,872,872,872,872,0,0,0,0,
0,0,0,0,0,0,0,872,872,872,872,872,0,0,0,0,
0,0,0,0,0,0,0,872,872,872,872,872,0,0,0,0,
0,0,0,0,0,872,0,872,872,872,872,872,0,0,0,0,
0,0,0,0,0,872,872,872,872,872,872,0,0,0,0,0
</chunk>
    <chunk x="-32" y="0" width="16" height="16">
0,0,0,0,0,0,0,0,0,0,0,0,0,0,0,872,
0,0,0,0,0,0,0,0,0,0,0,0,0,0,0,0,
0,0,0,0,0,0,0,0,0,0,0,0,0,0,0,0,
0,0,0,0,0,0,0,0,0,0,0,0,0,0,0,0,
0,0,0,0,0,0,0,0,0,0,0,0,0,0,0,0,
0,0,0,0,0,0,0,0,0,0,0,0,0,0,0,0,
0,0,0,0,0,0,0,0,0,0,0,0,0,0,0,0,
0,0,0,0,0,0,0,0,0,0,0,0,0,0,0,0,
0,0,0,0,0,0,0,0,0,0,0,0,0,0,0,0,
0,0,0,0,0,0,0,0,0,0,0,0,0,0,0,0,
0,0,0,0,0,0,0,0,0,0,0,0,0,0,0,0,
0,0,0,0,0,0,0,0,0,0,0,0,0,0,0,0,
0,0,0,0,0,0,0,0,0,0,0,0,0,0,0,0,
0,0,0,0,0,0,0,0,0,0,0,0,0,0,0,0,
0,0,0,0,0,0,0,0,0,0,0,0,0,0,0,0,
0,0,0,0,0,0,0,0,0,0,0,0,0,0,0,0
</chunk>
    <chunk x="-16" y="0" width="16" height="16">
872,872,872,872,872,872,872,0,0,0,0,0,0,0,0,0,
0,872,872,872,872,872,872,0,0,0,0,0,0,0,0,0,
0,872,872,872,872,872,0,0,0,0,0,0,0,0,0,0,
0,872,872,872,872,872,0,0,0,0,0,0,0,0,0,0,
0,872,872,872,872,872,872,872,0,0,0,0,0,0,0,0,
0,872,872,872,872,872,872,872,872,872,872,0,0,0,0,0,
0,872,872,872,872,872,872,872,872,872,872,872,872,872,872,872,
0,872,872,872,872,872,872,872,872,872,872,872,872,872,872,872,
0,0,0,872,872,872,872,872,872,872,872,872,872,872,872,872,
0,0,0,0,0,0,0,0,0,0,0,0,0,0,0,0,
0,0,0,0,0,0,0,0,0,0,0,0,0,0,0,0,
0,0,0,0,0,0,0,0,0,0,0,0,0,0,0,0,
0,0,0,0,0,0,0,0,0,0,0,0,0,0,0,0,
0,0,0,0,0,0,0,0,0,0,0,0,0,0,0,0,
0,0,0,0,0,0,0,0,0,0,0,0,0,0,0,0,
0,0,0,0,0,0,0,0,0,0,0,0,0,0,0,0
</chunk>
    <chunk x="0" y="0" width="16" height="16">
0,0,0,872,872,872,872,872,872,872,0,0,0,0,0,0,
0,0,0,872,872,872,872,872,0,0,0,0,0,0,0,0,
0,0,0,872,872,872,872,872,0,0,0,0,0,0,0,0,
0,0,0,872,872,872,872,872,0,0,0,0,0,0,0,0,
0,0,0,872,872,872,872,872,0,0,0,0,0,0,0,0,
0,0,0,872,872,872,872,872,0,0,0,0,0,0,0,0,
872,872,872,872,872,872,872,872,0,0,0,0,0,0,0,0,
872,872,872,872,872,872,872,872,0,0,0,0,0,0,0,0,
872,872,872,872,872,0,0,0,0,0,0,0,0,0,0,0,
0,0,0,0,0,0,0,0,0,0,0,0,0,0,0,0,
0,0,0,0,0,0,0,0,0,0,0,0,0,0,0,0,
0,0,0,0,0,0,0,0,0,0,0,0,0,0,0,0,
0,0,0,0,0,0,0,0,0,0,0,0,0,0,0,0,
0,0,0,0,0,0,0,0,0,0,0,0,0,0,0,0,
0,0,0,0,0,0,0,0,0,0,0,0,0,0,0,0,
0,0,0,0,0,0,0,0,0,0,0,0,0,0,0,0
</chunk>
    <chunk x="-32" y="16" width="16" height="16">
0,0,0,0,0,0,0,0,0,0,0,0,0,0,0,0,
0,0,0,0,0,0,0,0,0,0,0,0,0,0,0,0,
0,0,0,0,0,0,0,0,0,0,0,0,0,0,0,0,
0,0,0,0,0,0,0,0,0,0,0,0,0,0,0,0,
0,0,0,0,0,0,0,0,0,0,0,0,0,0,0,0,
0,0,0,0,872,872,872,0,0,0,0,0,0,0,0,0,
0,0,0,0,872,872,872,872,0,0,0,0,0,0,0,0,
0,0,0,0,872,872,872,872,0,0,0,0,0,0,0,0,
0,0,0,0,0,0,0,0,0,0,0,0,0,0,0,0,
0,0,0,0,0,0,0,0,0,0,0,0,0,0,0,0,
0,0,0,0,0,0,0,0,0,0,0,0,0,0,0,0,
0,0,0,0,0,0,0,0,0,0,0,0,0,0,0,0,
0,0,0,0,0,0,0,0,0,0,0,0,0,0,0,0,
0,0,0,0,0,0,0,0,0,0,0,0,0,0,0,0,
0,0,0,0,0,0,0,0,0,0,0,0,0,0,0,0,
0,0,0,0,0,0,0,0,0,0,0,0,0,0,0,0
</chunk>
    <chunk x="-16" y="16" width="16" height="16">
0,0,0,0,0,0,0,0,0,0,0,0,0,0,0,0,
0,0,0,0,0,0,0,0,0,0,0,0,0,0,0,0,
0,0,0,0,0,0,0,0,0,0,0,0,0,0,0,0,
0,0,0,0,872,872,872,872,872,872,0,0,0,0,0,0,
0,0,0,0,872,872,872,872,872,872,0,0,0,0,0,0,
0,0,0,0,872,872,872,872,872,872,0,0,0,0,0,0,
0,0,0,0,872,872,872,872,872,872,0,0,0,0,0,0,
0,0,0,0,0,872,872,872,872,872,0,0,0,0,0,0,
0,0,0,0,0,0,0,0,0,0,0,0,0,0,0,0,
0,0,0,0,0,0,0,0,0,0,0,0,0,0,0,0,
0,0,0,0,0,0,0,0,0,0,0,0,0,0,0,0,
0,0,0,0,0,0,0,0,0,0,0,0,0,0,0,0,
0,0,0,0,0,0,0,0,0,0,0,0,0,0,0,0,
0,0,0,0,0,0,0,0,0,0,0,0,0,0,0,0,
0,0,0,0,0,0,0,0,0,0,0,0,0,0,0,0,
0,0,0,0,0,0,0,0,0,0,0,0,0,0,0,0
</chunk>
    <chunk x="0" y="16" width="16" height="16">
0,0,0,0,0,0,0,0,0,0,0,0,0,0,0,0,
0,0,0,0,0,0,0,0,0,0,0,0,0,0,0,0,
0,0,0,0,0,0,0,0,0,0,0,0,0,0,0,0,
0,0,0,0,0,0,0,0,0,0,0,0,0,0,0,0,
0,0,0,872,872,872,872,872,872,872,872,0,0,0,0,0,
0,0,0,0,872,872,872,872,872,872,872,872,0,0,0,0,
0,0,0,872,872,872,872,872,872,872,872,872,0,0,0,0,
0,0,0,872,872,872,872,872,872,872,872,872,0,0,0,0,
0,0,0,0,0,0,0,0,0,0,0,0,0,0,0,0,
0,0,0,0,0,0,0,0,0,0,0,0,0,0,0,0,
0,0,0,0,0,0,0,0,0,0,0,0,0,0,0,0,
0,0,0,0,0,0,0,0,0,0,0,0,0,0,0,0,
0,0,0,0,0,0,0,0,0,0,0,0,0,0,0,0,
0,0,0,0,0,0,0,0,0,0,0,0,0,0,0,0,
0,0,0,0,0,0,0,0,0,0,0,0,0,0,0,0,
0,0,0,0,0,0,0,0,0,0,0,0,0,0,0,0
</chunk>
   </data>
  </layer>
  <layer id="45" name="Walls_under_water" width="16" height="24">
   <data encoding="csv">
    <chunk x="-16" y="-16" width="16" height="16">
0,0,0,0,0,0,0,0,0,0,0,0,0,0,0,0,
0,0,0,0,0,0,0,0,0,0,0,0,0,0,0,0,
0,0,0,0,0,0,0,0,0,0,0,0,0,0,0,0,
0,0,0,0,0,0,0,0,0,0,0,0,0,0,0,0,
0,0,0,0,0,0,0,0,0,0,0,0,0,0,0,0,
0,0,0,0,0,0,0,0,0,0,0,0,0,0,0,0,
0,0,0,0,0,0,0,0,0,0,0,0,0,0,0,0,
0,0,0,0,0,0,0,0,0,0,0,0,0,0,0,0,
0,0,0,0,0,0,0,0,0,0,0,0,0,0,0,0,
0,0,0,0,0,0,0,0,0,0,0,0,0,0,0,0,
0,0,0,0,0,0,0,0,0,0,0,0,0,0,0,0,
879,0,0,0,0,0,0,0,0,0,0,0,0,0,0,0,
0,0,0,0,0,0,0,0,0,0,0,0,0,0,0,0,
877,0,0,0,0,0,0,0,0,0,0,0,0,0,0,0,
0,0,0,0,0,0,0,0,0,0,0,0,0,0,0,0,
0,0,0,0,0,0,0,0,0,0,0,0,0,0,0,0
</chunk>
    <chunk x="0" y="-16" width="16" height="16">
0,0,0,0,0,0,0,0,0,0,0,0,0,0,0,0,
0,0,0,0,0,0,0,0,0,0,0,0,0,0,0,0,
0,0,0,0,0,0,0,0,0,0,0,0,0,0,0,0,
0,0,0,0,0,0,0,0,0,0,0,0,0,0,0,0,
0,0,0,0,0,0,0,0,0,0,0,0,0,0,0,0,
0,0,0,0,0,0,0,0,0,0,0,0,0,0,0,0,
0,0,0,0,0,0,0,0,0,0,0,0,0,0,0,0,
0,0,0,0,0,0,0,0,0,0,0,0,0,0,0,0,
0,0,0,0,0,0,0,0,0,0,0,0,0,0,0,0,
0,0,0,0,0,0,0,0,0,0,0,0,0,0,0,0,
0,0,0,0,0,0,0,0,879,0,0,0,0,0,0,0,
0,0,0,0,0,0,0,0,0,0,0,0,0,0,0,0,
0,0,0,0,0,0,0,0,0,0,0,0,0,0,0,0,
0,0,0,0,0,0,0,0,877,0,0,0,0,0,0,0,
0,0,0,0,0,0,0,0,0,0,0,0,0,0,0,0,
0,0,0,0,0,0,0,0,0,0,0,0,0,0,0,0
</chunk>
    <chunk x="-16" y="0" width="16" height="16">
0,873,874,874,874,0,0,0,0,0,0,0,0,0,0,0,
0,0,883,0,0,0,0,0,0,0,0,0,0,0,0,0,
0,0,0,873,874,0,0,0,0,0,0,0,0,0,0,0,
0,0,0,0,0,0,0,0,0,0,0,0,0,0,0,0,
0,0,0,0,0,0,0,0,0,0,0,0,0,0,0,0,
0,0,0,0,0,0,0,0,0,0,0,0,0,0,0,0,
0,0,0,873,874,874,0,0,0,0,0,0,0,0,0,0,
0,0,0,0,879,873,874,874,874,874,874,874,874,874,874,874,
0,0,0,0,0,0,0,0,0,0,0,0,0,0,0,0,
0,0,0,0,0,0,0,0,0,0,0,0,0,0,0,0,
0,0,0,0,0,0,0,0,0,0,0,0,0,0,0,0,
0,0,0,0,0,0,0,0,0,0,0,0,0,0,0,0,
0,0,0,0,0,0,0,0,0,0,0,0,0,0,0,0,
0,0,0,0,0,0,0,0,0,0,0,0,0,0,0,0,
0,0,0,0,0,0,0,0,0,0,0,0,0,0,0,0,
0,0,0,0,0,0,0,0,0,0,0,0,0,0,0,0
</chunk>
    <chunk x="0" y="0" width="16" height="16">
0,0,0,0,0,874,874,875,0,0,0,0,0,0,0,0,
0,0,0,0,0,0,0,0,0,0,0,0,0,0,0,0,
0,0,0,0,874,875,877,0,0,0,0,0,0,0,0,0,
0,0,0,0,0,0,0,0,0,0,0,0,0,0,0,0,
0,0,0,0,0,0,0,0,0,0,0,0,0,0,0,0,
0,0,0,0,0,0,876,0,0,0,0,0,0,0,0,0,
0,0,0,874,874,875,0,0,0,0,0,0,0,0,0,0,
874,874,874,875,0,0,0,0,0,0,0,0,0,0,0,0,
0,0,0,0,0,0,0,0,0,0,0,0,0,0,0,0,
0,0,0,0,0,0,0,0,0,0,0,0,0,0,0,0,
0,0,0,0,0,0,0,0,0,0,0,0,0,0,0,0,
0,0,0,0,0,0,0,0,0,0,0,0,0,0,0,0,
0,0,0,0,0,0,0,0,0,0,0,0,0,0,0,0,
0,0,0,0,0,0,0,0,0,0,0,0,0,0,0,0,
0,0,0,0,0,0,0,0,0,0,0,0,0,0,0,0,
0,0,0,0,0,0,0,0,0,0,0,0,0,0,0,0
</chunk>
    <chunk x="-32" y="16" width="16" height="16">
0,0,0,0,0,0,0,0,0,0,0,0,0,0,0,0,
0,0,0,0,0,0,0,0,0,0,0,0,0,0,0,0,
0,0,0,0,0,0,0,0,0,0,0,0,0,0,0,0,
0,0,0,0,0,0,0,0,0,0,0,0,0,0,0,0,
0,0,0,0,0,0,0,0,0,0,0,0,0,0,0,0,
0,0,0,0,874,874,874,874,0,0,0,0,0,0,0,0,
0,0,0,0,0,0,0,0,0,0,0,0,0,0,0,0,
0,0,0,0,0,0,0,873,874,0,0,0,0,0,0,0,
0,0,0,0,0,0,0,0,0,0,0,0,0,0,0,0,
0,0,0,0,0,0,0,0,0,0,0,0,0,0,0,0,
0,0,0,0,0,0,0,0,0,0,0,0,0,0,0,0,
0,0,0,0,0,0,0,0,0,0,0,0,0,0,0,0,
0,0,0,0,0,0,0,0,0,0,0,0,0,0,0,0,
0,0,0,0,0,0,0,0,0,0,0,0,0,0,0,0,
0,0,0,0,0,0,0,0,0,0,0,0,0,0,0,0,
0,0,0,0,0,0,0,0,0,0,0,0,0,0,0,0
</chunk>
    <chunk x="-16" y="16" width="16" height="16">
0,0,0,0,0,0,0,0,0,0,0,0,0,0,0,0,
0,0,0,0,0,0,0,0,0,0,0,0,0,0,0,0,
0,0,0,0,0,0,0,0,0,0,0,0,0,0,0,0,
0,0,0,0,874,874,874,874,874,0,0,0,0,0,0,0,
0,0,0,0,0,876,0,0,878,0,0,0,0,0,0,0,
0,0,0,0,0,0,0,0,0,0,0,0,0,0,0,0,
0,0,0,0,0,0,879,0,0,0,0,0,0,0,0,0,
0,0,0,0,0,0,0,0,0,0,0,0,0,0,0,0,
0,0,0,0,0,0,0,0,0,0,0,0,0,0,0,0,
0,0,0,0,0,0,0,0,0,0,0,0,0,0,0,0,
0,0,0,0,0,0,0,0,0,0,0,0,0,0,0,0,
0,0,0,0,0,0,0,0,0,0,0,0,0,0,0,0,
0,0,0,0,0,0,0,0,0,0,0,0,0,0,0,0,
0,0,0,0,0,0,0,0,0,0,0,0,0,0,0,0,
0,0,0,0,0,0,0,0,0,0,0,0,0,0,0,0,
0,0,0,0,0,0,0,0,0,0,0,0,0,0,0,0
</chunk>
    <chunk x="0" y="16" width="16" height="16">
0,0,0,0,0,0,0,0,0,0,0,0,0,0,0,0,
0,0,0,0,0,0,0,0,0,0,0,0,0,0,0,0,
0,0,0,0,0,0,0,0,0,0,0,0,0,0,0,0,
0,0,0,0,0,0,0,0,0,0,0,0,0,0,0,0,
0,0,0,0,874,874,874,874,874,874,0,0,0,0,0,0,
0,0,0,0,875,0,878,0,0,0,873,874,0,0,0,0,
0,0,0,0,0,882,0,0,0,876,0,0,0,0,0,0,
0,0,0,0,0,0,0,0,0,0,0,0,0,0,0,0,
0,0,0,0,0,0,0,0,0,0,0,0,0,0,0,0,
0,0,0,0,0,0,0,0,0,0,0,0,0,0,0,0,
0,0,0,0,0,0,0,0,0,0,0,0,0,0,0,0,
0,0,0,0,0,0,0,0,0,0,0,0,0,0,0,0,
0,0,0,0,0,0,0,0,0,0,0,0,0,0,0,0,
0,0,0,0,0,0,0,0,0,0,0,0,0,0,0,0,
0,0,0,0,0,0,0,0,0,0,0,0,0,0,0,0,
0,0,0,0,0,0,0,0,0,0,0,0,0,0,0,0
</chunk>
   </data>
  </layer>
  <layer id="46" name="Water_details" width="16" height="24">
   <data encoding="csv">
    <chunk x="-32" y="-16" width="16" height="16">
0,0,0,0,0,0,0,0,0,0,0,0,0,0,0,0,
0,0,0,0,0,0,0,0,0,0,0,0,0,0,0,0,
0,0,0,0,0,0,0,0,0,0,0,0,0,0,0,0,
0,0,0,0,0,0,0,0,0,0,0,0,0,0,0,0,
0,0,0,0,0,0,0,0,0,0,0,0,0,0,0,0,
0,0,0,0,0,0,0,0,0,0,0,0,0,0,0,0,
0,0,0,0,0,0,0,0,0,0,0,0,0,0,0,0,
0,0,0,0,0,0,0,0,0,0,0,0,0,0,0,0,
0,0,0,0,0,0,0,0,0,0,0,0,0,0,0,0,
0,0,0,0,0,0,0,0,0,0,0,0,0,0,0,0,
0,0,0,0,0,0,0,0,0,0,0,0,0,0,0,0,
0,0,0,0,0,0,0,0,0,0,0,0,0,0,0,0,
0,0,0,0,0,0,0,0,0,0,0,0,0,0,0,1254,
0,0,0,0,0,0,0,0,0,0,0,0,0,0,0,1291,
0,0,0,0,0,0,0,0,0,0,0,0,0,0,0,1119,
0,0,0,0,0,0,0,0,0,0,0,0,0,0,0,1156
</chunk>
    <chunk x="-16" y="-16" width="16" height="16">
0,0,0,0,0,0,0,0,0,0,0,0,0,0,0,0,
0,0,0,0,0,0,0,0,0,0,0,0,0,0,0,0,
0,0,0,0,0,0,0,0,0,0,0,0,0,0,0,0,
0,0,0,0,0,0,0,0,0,0,0,0,0,0,0,0,
0,0,0,0,0,0,0,0,0,0,0,0,0,0,0,0,
0,0,0,0,0,0,0,0,0,0,0,0,0,0,0,0,
0,0,0,0,0,0,0,0,0,0,0,0,0,0,0,0,
0,0,0,0,0,0,0,0,0,0,0,0,0,0,0,0,
0,0,0,0,0,0,0,0,0,0,0,0,0,0,0,0,
0,0,0,0,0,0,0,0,0,0,0,0,0,0,0,0,
0,0,0,0,0,0,0,0,0,0,0,0,0,0,0,0,
0,0,0,0,0,0,0,0,0,0,0,0,0,0,0,0,
1255,1256,1257,0,0,0,0,0,0,0,0,0,0,0,0,0,
1292,1293,1294,0,0,0,0,0,0,0,0,0,0,0,0,0,
1120,1121,1122,1123,1124,1125,1126,1127,0,0,0,0,0,0,0,0,
1157,1158,1159,1160,1161,1162,1163,1164,0,0,0,0,0,0,0,0
</chunk>
    <chunk x="0" y="-16" width="16" height="16">
0,0,0,0,0,0,0,0,0,0,0,0,0,0,0,0,
0,0,0,0,0,0,0,0,0,0,0,0,0,0,0,0,
0,0,0,0,0,0,0,0,0,0,0,0,0,0,0,0,
0,0,0,0,0,0,0,0,0,0,0,0,0,0,0,0,
0,0,0,0,0,0,0,0,0,0,0,0,0,0,0,0,
0,0,0,0,0,0,0,0,0,0,0,0,0,0,0,0,
0,0,0,0,0,0,0,0,0,0,0,0,0,0,0,0,
0,0,0,0,0,0,0,0,0,0,0,0,0,0,0,0,
0,0,0,0,0,0,0,0,0,0,0,0,0,0,0,0,
0,0,0,0,0,0,0,0,0,0,0,0,0,0,0,0,
0,0,0,0,0,0,0,0,0,0,0,0,0,0,0,0,
0,0,0,0,0,0,1252,1253,1254,1255,1256,0,0,0,0,0,
0,0,0,0,0,0,1289,1290,1291,1292,1293,0,0,0,0,0,
0,0,0,0,0,0,1326,1327,1328,1329,1330,0,0,0,0,0,
0,0,0,0,0,1115,1116,1117,1118,1119,1120,1121,0,0,0,0,
0,0,0,0,0,1152,1153,1154,1155,1156,1157,1158,0,0,0,0
</chunk>
    <chunk x="-32" y="0" width="16" height="16">
0,0,0,0,0,0,0,0,0,0,0,0,0,0,0,1193,
0,0,0,0,0,0,0,0,0,0,0,0,0,0,0,0,
0,0,0,0,0,0,0,0,0,0,0,0,0,0,0,0,
0,0,0,0,0,0,0,0,0,0,0,0,0,0,0,0,
0,0,0,0,0,0,0,0,0,0,0,0,0,0,0,0,
0,0,0,0,0,0,0,0,0,0,0,0,0,0,0,0,
0,0,0,0,0,0,0,0,0,0,0,0,0,0,0,0,
0,0,0,0,0,0,0,0,0,0,0,0,0,0,0,0,
0,0,0,0,0,0,0,0,0,0,0,0,0,0,0,0,
0,0,0,0,0,0,0,0,0,0,0,0,0,0,0,0,
0,0,0,0,0,0,0,0,0,0,0,0,0,0,0,0,
0,0,0,0,0,0,0,0,0,0,0,0,0,0,0,0,
0,0,0,0,0,0,0,0,0,0,0,0,0,0,0,0,
0,0,0,0,0,0,0,0,0,0,0,0,0,0,0,0,
0,0,0,0,0,0,0,0,0,0,0,0,0,0,0,0,
0,0,0,0,0,0,0,0,0,0,0,0,0,0,0,0
</chunk>
    <chunk x="-16" y="0" width="16" height="16">
1194,1195,1196,1197,1198,1199,1200,1201,0,0,0,0,0,0,0,0,
0,1141,1142,1143,1144,0,0,0,0,0,0,0,0,0,0,0,
0,1178,1179,1180,1181,0,0,0,0,0,0,0,0,0,0,0,
0,988,989,990,991,992,993,994,0,0,0,0,0,0,0,0,
0,1025,1026,1027,1028,1029,1030,1031,0,0,0,0,0,0,0,0,
0,1062,1063,1064,1065,1066,1067,1068,0,0,0,0,0,0,0,0,
0,0,0,0,0,0,0,0,0,0,0,0,0,983,984,985,
0,0,0,0,0,0,0,0,0,0,0,0,0,1020,1021,1022,
0,0,0,0,0,0,0,0,0,0,0,0,0,1057,1058,1059,
0,0,0,0,0,0,0,0,0,0,0,0,0,0,0,0,
0,0,0,0,0,0,0,0,0,0,0,0,0,0,0,0,
0,0,0,0,0,0,0,0,0,0,0,0,0,0,0,0,
0,0,0,0,0,0,0,0,0,0,0,0,0,0,0,0,
0,0,0,0,0,0,0,0,0,0,0,0,0,0,0,0,
0,0,0,0,0,0,0,0,0,0,0,0,0,0,0,0,
0,0,0,0,0,0,0,0,0,0,0,0,0,0,0,0
</chunk>
    <chunk x="0" y="0" width="16" height="16">
0,0,0,0,0,1189,1190,1191,1192,1193,1194,1195,0,0,0,0,
0,0,0,0,0,1226,1227,1228,1229,1230,1231,1232,0,0,0,0,
0,0,0,0,0,0,0,0,0,0,0,0,0,0,0,0,
0,0,0,0,0,0,0,0,0,0,0,0,0,0,0,0,
0,0,0,0,0,1252,1253,1254,0,0,0,0,0,0,0,0,
0,0,0,0,0,1289,1290,1291,0,0,0,0,0,0,0,0,
986,987,988,989,990,991,992,993,0,0,0,0,0,0,0,0,
1023,1024,1025,1026,1027,1028,1029,1030,0,0,0,0,0,0,0,0,
1060,1061,1062,1063,1064,1065,0,0,0,0,0,0,0,0,0,0,
0,0,0,0,0,0,0,0,0,0,0,0,0,0,0,0,
0,0,0,0,0,0,0,0,0,0,0,0,0,0,0,0,
0,0,0,0,0,0,0,0,0,0,0,0,0,0,0,0,
0,0,0,0,0,0,0,0,0,0,0,0,0,0,0,0,
0,0,0,0,0,0,0,0,0,0,0,0,0,0,0,0,
0,0,0,0,0,0,0,0,0,0,0,0,0,0,0,0,
0,0,0,0,0,0,0,0,0,0,0,0,0,0,0,0
</chunk>
    <chunk x="-32" y="16" width="16" height="16">
0,0,0,0,0,0,0,0,0,0,0,0,0,0,0,0,
0,0,0,0,0,0,0,0,0,0,0,0,0,0,0,0,
0,0,0,0,0,0,0,0,0,0,0,0,0,0,0,0,
0,0,0,0,0,0,0,0,0,0,0,0,0,0,0,0,
0,0,0,0,0,0,0,0,0,0,0,0,0,0,0,0,
0,0,0,0,1252,1253,1254,1255,1256,0,0,0,0,0,0,0,
0,0,0,0,1289,1290,1291,1292,1293,0,0,0,0,0,0,0,
0,0,0,0,1326,1327,1328,1329,1330,0,0,0,0,0,0,0,
0,0,0,0,0,0,0,0,0,0,0,0,0,0,0,0,
0,0,0,0,0,0,0,0,0,0,0,0,0,0,0,0,
0,0,0,0,0,0,0,0,0,0,0,0,0,0,0,0,
0,0,0,0,0,0,0,0,0,0,0,0,0,0,0,0,
0,0,0,0,0,0,0,0,0,0,0,0,0,0,0,0,
0,0,0,0,0,0,0,0,0,0,0,0,0,0,0,0,
0,0,0,0,0,0,0,0,0,0,0,0,0,0,0,0,
0,0,0,0,0,0,0,0,0,0,0,0,0,0,0,0
</chunk>
    <chunk x="-16" y="16" width="16" height="16">
0,0,0,0,0,0,0,0,0,0,0,0,0,0,0,0,
0,0,0,0,0,0,0,0,0,0,0,0,0,0,0,0,
0,0,0,0,0,0,0,0,0,0,0,0,0,0,0,0,
0,0,0,0,0,1252,1253,1254,1255,1256,0,0,0,0,0,0,
0,0,0,0,0,1289,1290,1291,1292,1293,0,0,0,0,0,0,
0,0,0,1105,1106,1107,1108,1109,0,0,0,0,0,0,0,0,
0,966,967,968,969,970,971,972,973,974,975,976,0,0,0,0,
0,1003,1004,1005,1006,1007,1008,1009,1010,1011,1012,1013,0,0,0,0,
0,0,0,0,0,0,0,0,0,0,0,0,0,0,0,0,
0,0,0,0,0,0,0,0,0,0,0,0,0,0,0,0,
0,0,0,0,0,0,0,0,0,0,0,0,0,0,0,0,
0,0,0,0,0,0,0,0,0,0,0,0,0,0,0,0,
0,0,0,0,0,0,0,0,0,0,0,0,0,0,0,0,
0,0,0,0,0,0,0,0,0,0,0,0,0,0,0,0,
0,0,0,0,0,0,0,0,0,0,0,0,0,0,0,0,
0,0,0,0,0,0,0,0,0,0,0,0,0,0,0,0
</chunk>
    <chunk x="0" y="16" width="16" height="16">
0,0,0,0,0,0,0,0,0,0,0,0,0,0,0,0,
0,0,0,0,0,0,0,0,0,0,0,0,0,0,0,0,
0,0,0,0,0,0,0,0,0,0,0,0,0,0,0,0,
0,0,0,0,0,0,0,0,0,0,0,0,0,0,0,0,
0,0,0,0,0,1130,1131,1132,1133,1134,1135,1136,0,0,0,0,
0,0,0,0,0,1167,1168,1169,1170,1171,1172,1173,0,0,0,0,
0,0,1268,1269,1270,1271,1272,1273,1274,1275,1252,1253,0,0,0,0,
0,0,1305,1306,1307,1308,1309,1310,1311,1312,1289,1290,0,0,0,0,
0,0,0,0,0,0,0,0,0,0,0,0,0,0,0,0,
0,0,0,0,0,0,0,0,0,0,0,0,0,0,0,0,
0,0,0,0,0,0,0,0,0,0,0,0,0,0,0,0,
0,0,0,0,0,0,0,0,0,0,0,0,0,0,0,0,
0,0,0,0,0,0,0,0,0,0,0,0,0,0,0,0,
0,0,0,0,0,0,0,0,0,0,0,0,0,0,0,0,
0,0,0,0,0,0,0,0,0,0,0,0,0,0,0,0,
0,0,0,0,0,0,0,0,0,0,0,0,0,0,0,0
</chunk>
   </data>
  </layer>
  <layer id="48" name="Water_details2" width="16" height="24">
   <data encoding="csv">
    <chunk x="-32" y="-16" width="16" height="16">
0,0,0,0,0,0,0,0,0,0,0,0,0,0,0,0,
0,0,0,0,0,0,0,0,0,0,0,0,0,0,0,0,
0,0,0,0,0,0,0,0,0,0,0,0,0,0,0,0,
0,0,0,0,0,0,0,0,0,0,0,0,0,0,0,0,
0,0,0,0,0,0,0,0,0,0,0,0,0,0,0,0,
0,0,0,0,0,0,0,0,0,0,0,0,0,0,0,0,
0,0,0,0,0,0,0,0,0,0,0,0,0,0,0,0,
0,0,0,0,0,0,0,0,0,0,0,0,0,0,0,0,
0,0,0,0,0,0,0,0,0,0,0,0,0,0,0,0,
0,0,0,0,0,0,0,0,0,0,0,0,0,0,0,0,
0,0,0,0,0,0,0,0,0,0,0,0,0,0,0,1140,
0,0,0,0,0,0,0,0,0,0,0,0,0,0,0,1177,
0,0,0,0,0,0,0,0,0,0,0,0,0,0,0,0,
0,0,0,0,0,0,0,0,0,0,0,0,0,0,0,1141,
0,0,0,0,0,0,0,0,0,0,0,0,0,0,0,1178,
0,0,0,0,0,0,0,0,0,0,0,0,0,0,0,0
</chunk>
    <chunk x="-16" y="-16" width="16" height="16">
0,0,0,0,0,0,0,0,0,0,0,0,0,0,0,0,
0,0,0,0,0,0,0,0,0,0,0,0,0,0,0,0,
0,0,0,0,0,0,0,0,0,0,0,0,0,0,0,0,
0,0,0,0,0,0,0,0,0,0,0,0,0,0,0,0,
0,0,0,0,0,0,0,0,0,0,0,0,0,0,0,0,
0,0,0,0,0,0,0,0,0,0,0,0,0,0,0,0,
0,0,0,0,0,0,0,0,0,0,0,0,0,0,0,0,
0,0,0,0,0,0,0,0,0,0,0,0,0,0,0,0,
0,0,0,0,0,0,0,0,0,0,0,0,0,0,0,0,
0,0,0,0,0,0,0,0,0,0,0,0,0,0,0,0,
1141,1142,1143,1144,0,0,0,0,0,0,0,0,0,0,0,0,
1178,1179,1180,1181,0,0,0,0,0,0,0,0,0,0,0,0,
0,0,0,0,0,0,0,0,0,0,0,0,0,0,0,0,
1142,1143,0,0,0,0,0,0,0,0,0,0,0,0,0,0,
1179,1180,0,0,0,0,0,0,0,0,0,0,0,0,0,0,
0,0,0,0,0,0,0,0,0,0,0,0,0,0,0,0
</chunk>
    <chunk x="0" y="-16" width="16" height="16">
0,0,0,0,0,0,0,0,0,0,0,0,0,0,0,0,
0,0,0,0,0,0,0,0,0,0,0,0,0,0,0,0,
0,0,0,0,0,0,0,0,0,0,0,0,0,0,0,0,
0,0,0,0,0,0,0,0,0,0,0,0,0,0,0,0,
0,0,0,0,0,0,0,0,0,0,0,0,0,0,0,0,
0,0,0,0,0,0,0,0,0,0,0,0,0,0,0,0,
0,0,0,0,0,0,0,0,0,0,0,0,0,0,0,0,
0,0,0,0,0,0,0,0,0,0,0,0,0,0,0,0,
0,0,0,0,0,0,0,0,0,0,0,0,0,0,0,0,
0,0,0,0,0,0,0,0,0,0,0,0,0,0,0,0,
0,0,0,0,0,0,0,0,0,0,0,0,0,0,0,0,
0,0,0,0,0,0,0,0,0,0,0,0,0,0,0,0,
0,0,0,0,0,1130,1131,1132,1133,1134,1135,1136,0,0,0,0,
0,0,0,0,0,1167,1168,1169,1170,1171,1172,1173,0,0,0,0,
0,0,0,0,0,0,0,0,0,0,0,0,0,0,0,0,
0,0,0,0,0,0,0,0,0,0,0,0,0,0,0,0
</chunk>
    <chunk x="-16" y="0" width="16" height="16">
0,1252,1253,1254,1255,0,0,0,0,0,0,0,0,0,0,0,
0,1289,1290,1291,1292,0,0,0,0,0,0,0,0,0,0,0,
0,1326,1327,1328,1329,0,0,0,0,0,0,0,0,0,0,0,
0,0,0,0,0,0,0,0,0,0,0,0,0,0,0,0,
0,0,0,0,0,0,0,0,0,0,0,0,0,0,0,0,
0,0,0,0,0,0,0,0,0,0,0,0,0,0,0,0,
0,1105,1106,1107,1108,1109,0,0,0,0,0,0,0,0,0,0,
0,1262,1263,1264,1265,1266,1267,1268,1269,1270,1271,1272,1273,1274,1275,1276,
0,0,0,1301,1302,1303,1304,1305,1306,1307,1308,1309,1310,1311,1312,1313,
0,0,0,0,0,0,0,0,0,0,0,0,0,0,0,0,
0,0,0,0,0,0,0,0,0,0,0,0,0,0,0,0,
0,0,0,0,0,0,0,0,0,0,0,0,0,0,0,0,
0,0,0,0,0,0,0,0,0,0,0,0,0,0,0,0,
0,0,0,0,0,0,0,0,0,0,0,0,0,0,0,0,
0,0,0,0,0,0,0,0,0,0,0,0,0,0,0,0,
0,0,0,0,0,0,0,0,0,0,0,0,0,0,0,0
</chunk>
    <chunk x="0" y="0" width="16" height="16">
0,0,0,0,1252,1253,1254,1255,1256,0,0,0,0,0,0,0,
0,0,0,0,1289,1290,1291,1292,0,0,0,0,0,0,0,0,
0,0,1116,1117,1118,1119,1120,1121,0,0,0,0,0,0,0,0,
0,0,1153,1154,1155,1156,1157,1158,0,0,0,0,0,0,0,0,
0,0,1190,1191,1192,1193,1194,1195,0,0,0,0,0,0,0,0,
0,0,0,0,0,0,0,0,0,0,0,0,0,0,0,0,
0,0,0,0,0,1184,1185,1186,0,0,0,0,0,0,0,0,
0,0,0,0,0,0,0,0,0,0,0,0,0,0,0,0,
0,0,0,0,0,0,0,0,0,0,0,0,0,0,0,0,
0,0,0,0,0,0,0,0,0,0,0,0,0,0,0,0,
0,0,0,0,0,0,0,0,0,0,0,0,0,0,0,0,
0,0,0,0,0,0,0,0,0,0,0,0,0,0,0,0,
0,0,0,0,0,0,0,0,0,0,0,0,0,0,0,0,
0,0,0,0,0,0,0,0,0,0,0,0,0,0,0,0,
0,0,0,0,0,0,0,0,0,0,0,0,0,0,0,0,
0,0,0,0,0,0,0,0,0,0,0,0,0,0,0,0
</chunk>
    <chunk x="-32" y="16" width="16" height="16">
0,0,0,0,0,0,0,0,0,0,0,0,0,0,0,0,
0,0,0,0,0,0,0,0,0,0,0,0,0,0,0,0,
0,0,0,0,0,0,0,0,0,0,0,0,0,0,0,0,
0,0,0,0,0,0,0,0,0,0,0,0,0,0,0,0,
0,0,0,0,0,0,0,0,0,0,0,0,0,0,0,0,
0,0,0,0,1105,1106,1107,1108,1109,0,0,0,0,0,0,0,
0,0,0,0,1253,1254,1255,1256,1257,1258,0,0,0,0,0,0,
0,0,0,0,1290,1291,1292,1293,1294,1295,0,0,0,0,0,0,
0,0,0,0,1327,1328,1329,1330,1331,1332,0,0,0,0,0,0,
0,0,0,0,1364,1365,1366,1367,1368,1369,0,0,0,0,0,0,
0,0,0,0,0,0,0,0,0,0,0,0,0,0,0,0,
0,0,0,0,0,0,0,0,0,0,0,0,0,0,0,0,
0,0,0,0,0,0,0,0,0,0,0,0,0,0,0,0,
0,0,0,0,0,0,0,0,0,0,0,0,0,0,0,0,
0,0,0,0,0,0,0,0,0,0,0,0,0,0,0,0,
0,0,0,0,0,0,0,0,0,0,0,0,0,0,0,0
</chunk>
    <chunk x="-16" y="16" width="16" height="16">
0,0,0,0,0,0,0,0,0,0,0,0,0,0,0,0,
0,0,0,0,0,0,0,0,0,0,0,0,0,0,0,0,
0,0,0,0,0,0,0,0,0,0,0,0,0,0,0,0,
0,0,0,0,0,0,0,0,0,0,0,0,0,0,0,0,
0,0,0,0,0,0,0,0,0,0,0,0,0,0,0,0,
0,0,0,0,0,0,0,1130,1131,1132,1133,1134,1135,1136,1137,0,
0,0,0,0,0,0,0,1167,1168,1169,1170,1171,1172,1173,1174,0,
0,0,0,0,0,0,0,0,0,0,0,0,0,0,0,0,
0,0,0,0,0,0,0,0,0,0,0,0,0,0,0,0,
0,0,0,0,0,0,0,0,0,0,0,0,0,0,0,0,
0,0,0,0,0,0,0,0,0,0,0,0,0,0,0,0,
0,0,0,0,0,0,0,0,0,0,0,0,0,0,0,0,
0,0,0,0,0,0,0,0,0,0,0,0,0,0,0,0,
0,0,0,0,0,0,0,0,0,0,0,0,0,0,0,0,
0,0,0,0,0,0,0,0,0,0,0,0,0,0,0,0,
0,0,0,0,0,0,0,0,0,0,0,0,0,0,0,0
</chunk>
    <chunk x="0" y="16" width="16" height="16">
0,0,0,0,0,0,0,0,0,0,0,0,0,0,0,0,
0,0,0,0,0,0,0,0,0,0,0,0,0,0,0,0,
0,0,0,0,0,0,0,0,0,0,0,0,0,0,0,0,
0,0,0,0,0,0,0,0,0,0,0,0,0,0,0,0,
0,0,0,0,0,0,0,0,0,0,0,0,0,0,0,0,
0,0,0,0,1184,1185,1186,0,0,0,0,0,0,0,0,0,
0,0,0,0,0,0,0,0,0,0,0,0,0,0,0,0,
0,0,0,0,0,0,0,0,0,1184,1185,1186,0,0,0,0,
0,0,0,0,0,0,0,0,0,0,0,0,0,0,0,0,
0,0,0,0,0,0,0,0,0,0,0,0,0,0,0,0,
0,0,0,0,0,0,0,0,0,0,0,0,0,0,0,0,
0,0,0,0,0,0,0,0,0,0,0,0,0,0,0,0,
0,0,0,0,0,0,0,0,0,0,0,0,0,0,0,0,
0,0,0,0,0,0,0,0,0,0,0,0,0,0,0,0,
0,0,0,0,0,0,0,0,0,0,0,0,0,0,0,0,
0,0,0,0,0,0,0,0,0,0,0,0,0,0,0,0
</chunk>
   </data>
  </layer>
  <layer id="55" name="Floor3" width="16" height="24">
   <data encoding="csv">
    <chunk x="-16" y="0" width="16" height="16">
0,0,0,0,0,0,0,0,0,0,0,0,0,0,0,0,
0,0,0,0,0,0,0,0,0,0,0,0,0,0,0,0,
0,0,0,0,0,0,0,0,0,0,0,0,0,0,0,0,
0,0,0,0,0,0,0,0,0,0,0,0,0,0,0,0,
0,0,0,0,0,0,0,0,0,0,0,0,0,0,0,0,
0,0,0,0,0,0,0,0,0,0,0,0,0,0,0,0,
0,0,0,0,0,0,0,0,0,0,0,0,0,0,0,0,
0,0,0,0,0,0,0,0,0,0,0,0,0,0,0,0,
0,0,0,0,0,0,0,0,0,0,0,0,0,0,0,0,
0,0,0,0,0,0,0,0,0,0,0,0,0,0,0,0,
0,0,0,0,0,0,0,0,0,0,0,0,0,0,0,0,
0,0,0,0,0,0,0,0,0,0,0,0,0,0,0,0,
0,0,0,0,0,0,0,0,0,0,0,0,0,0,0,0,
0,0,0,0,0,0,0,0,0,0,0,0,0,0,0,0,
0,0,0,0,0,0,3953,3953,0,0,0,0,0,0,0,0,
0,0,0,0,0,0,3953,3953,0,0,0,0,0,0,0,0
</chunk>
    <chunk x="-32" y="16" width="16" height="16">
0,0,0,0,0,0,0,0,0,0,0,0,0,0,0,0,
0,0,0,0,0,0,0,0,0,0,0,0,0,0,0,0,
0,0,0,0,0,0,206,206,206,206,206,206,0,0,0,0,
0,0,0,0,0,206,206,206,206,206,206,206,0,0,0,0,
0,0,0,0,152,235,152,153,206,206,206,206,0,0,0,0,
0,0,0,0,181,264,181,156,206,206,206,206,0,0,0,0,
0,0,0,0,0,0,0,185,153,206,206,206,206,206,206,206,
0,0,0,0,0,0,0,214,156,206,206,206,206,206,206,206,
0,0,0,0,0,0,0,0,0,0,0,0,0,0,0,0,
0,0,0,0,0,0,0,0,0,0,0,0,0,0,0,0,
0,0,0,0,0,0,0,0,0,0,0,0,0,0,0,0,
0,0,0,0,0,0,0,0,0,0,0,0,0,0,0,0,
0,0,0,0,0,0,0,0,0,0,0,0,0,0,0,0,
0,0,0,0,0,0,0,0,0,0,0,0,0,0,0,0,
0,0,0,0,0,0,0,0,0,0,0,0,0,0,0,0,
0,0,0,0,0,0,0,0,0,0,0,0,0,0,0,0
</chunk>
    <chunk x="-16" y="16" width="16" height="16">
0,0,0,0,0,0,3953,3953,0,0,0,0,0,0,0,0,
0,0,0,0,0,0,3953,3953,0,0,0,0,0,0,0,0,
0,0,0,0,151,235,235,152,235,153,0,0,0,0,0,0,
0,0,0,0,154,264,155,181,155,156,0,0,0,0,0,0,
0,0,0,0,207,0,0,0,0,240,206,206,3953,0,0,0,
0,0,0,0,207,0,0,0,0,240,206,206,3953,0,0,0,
206,206,206,206,238,0,0,0,0,205,206,206,206,0,0,0,
206,206,206,206,238,0,0,0,0,205,206,206,206,0,0,0,
0,0,0,0,0,0,0,0,0,0,0,0,0,0,0,0,
0,0,0,0,0,0,0,0,0,0,0,0,0,0,0,0,
0,0,0,0,0,0,0,0,0,0,0,0,0,0,0,0,
0,0,0,0,0,0,0,0,0,0,0,0,0,0,0,0,
0,0,0,0,0,0,0,0,0,0,0,0,0,0,0,0,
0,0,0,0,0,0,0,0,0,0,0,0,0,0,0,0,
0,0,0,0,0,0,0,0,0,0,0,0,0,0,0,0,
0,0,0,0,0,0,0,0,0,0,0,0,0,0,0,0
</chunk>
   </data>
  </layer>
  <layer id="73" name="floor3_details" width="16" height="24">
   <data encoding="csv">
    <chunk x="-16" y="0" width="16" height="16">
0,0,0,0,0,0,0,0,0,0,0,0,0,0,0,0,
0,0,0,0,0,0,0,0,0,0,0,0,0,0,0,0,
0,0,0,0,0,0,0,0,0,0,0,0,0,0,0,0,
0,0,0,0,0,0,0,0,0,0,0,0,0,0,0,0,
0,0,0,0,0,0,0,0,0,0,0,0,0,0,0,0,
0,0,0,0,0,0,0,0,0,0,0,0,0,0,0,0,
0,0,0,0,0,0,0,0,0,0,0,0,0,0,0,0,
0,0,0,0,0,0,0,0,0,0,0,0,0,0,0,0,
0,0,0,0,0,0,0,0,0,0,0,0,0,0,0,0,
0,0,0,0,0,0,0,0,0,0,0,0,0,0,0,0,
0,0,0,0,0,0,0,0,0,0,0,0,0,0,0,0,
0,0,0,0,0,0,0,0,0,0,0,0,0,0,0,0,
0,0,0,0,0,0,0,0,0,0,0,0,0,0,0,0,
0,0,0,0,0,0,0,0,0,0,0,0,0,0,0,0,
0,0,0,0,0,0,0,0,0,0,0,0,0,0,0,0,
0,0,0,0,0,0,4216,0,0,0,0,0,0,0,0,0
</chunk>
    <chunk x="-32" y="16" width="16" height="16">
0,0,0,0,0,0,0,0,0,0,0,0,0,0,0,0,
0,0,0,0,0,0,0,0,0,0,0,0,0,0,0,0,
0,0,0,0,0,0,0,0,0,0,0,0,0,0,0,0,
0,0,0,0,0,4217,0,0,0,0,0,0,0,0,0,0,
0,0,0,0,0,0,0,0,0,0,0,0,0,0,0,0,
0,0,0,0,0,0,0,0,0,0,4233,0,0,0,0,0,
0,0,0,0,0,0,0,0,0,0,0,0,0,4216,0,0,
0,0,0,0,0,0,0,0,0,0,0,0,0,0,0,0,
0,0,0,0,0,0,0,0,0,0,0,0,0,0,0,0,
0,0,0,0,0,0,0,0,0,0,0,0,0,0,0,0,
0,0,0,0,0,0,0,0,0,0,0,0,0,0,0,0,
0,0,0,0,0,0,0,0,0,0,0,0,0,0,0,0,
0,0,0,0,0,0,0,0,0,0,0,0,0,0,0,0,
0,0,0,0,0,0,0,0,0,0,0,0,0,0,0,0,
0,0,0,0,0,0,0,0,0,0,0,0,0,0,0,0,
0,0,0,0,0,0,0,0,0,0,0,0,0,0,0,0
</chunk>
    <chunk x="-16" y="16" width="16" height="16">
0,0,0,0,0,0,0,0,0,0,0,0,0,0,0,0,
0,0,0,0,0,0,0,4236,0,0,0,0,0,0,0,0,
0,0,0,0,0,0,0,0,0,0,0,0,0,0,0,0,
0,0,0,0,0,0,0,0,0,0,0,0,0,0,0,0,
0,0,0,0,4218,0,0,0,0,0,0,0,0,0,0,0,
0,0,0,0,0,0,0,0,0,4237,0,0,0,0,0,0,
2147487885,0,4217,0,2147487885,0,0,0,0,0,0,4218,0,0,0,0,
0,0,0,0,0,0,0,0,0,0,0,0,0,0,0,0,
0,0,0,0,0,0,0,0,0,0,0,0,0,0,0,0,
0,0,0,0,0,0,0,0,0,0,0,0,0,0,0,0,
0,0,0,0,0,0,0,0,0,0,0,0,0,0,0,0,
0,0,0,0,0,0,0,0,0,0,0,0,0,0,0,0,
0,0,0,0,0,0,0,0,0,0,0,0,0,0,0,0,
0,0,0,0,0,0,0,0,0,0,0,0,0,0,0,0,
0,0,0,0,0,0,0,0,0,0,0,0,0,0,0,0,
0,0,0,0,0,0,0,0,0,0,0,0,0,0,0,0
</chunk>
   </data>
  </layer>
  <layer id="56" name="plates3" width="16" height="24">
   <data encoding="csv">
    <chunk x="-32" y="16" width="16" height="16">
0,0,0,0,0,0,0,0,0,0,0,0,0,0,0,0,
0,0,0,0,0,0,0,4545,4546,4548,4549,0,0,0,0,0,
0,0,0,0,0,0,4558,4559,4547,4561,4562,0,0,0,0,0,
0,0,0,0,0,0,4597,4598,4560,4600,4601,0,0,0,0,0,
0,0,0,0,0,0,4604,4605,4586,4606,4607,0,0,0,0,0,
0,0,0,0,0,0,0,4636,4611,4637,0,0,0,0,0,0,
0,0,0,0,0,0,0,0,0,0,0,0,0,0,0,0,
0,0,0,0,0,0,0,0,0,0,0,0,0,0,0,0,
0,0,0,0,0,0,0,0,0,0,0,0,0,0,0,0,
0,0,0,0,0,0,0,0,0,0,0,0,0,0,0,0,
0,0,0,0,0,0,0,0,0,0,0,0,0,0,0,0,
0,0,0,0,0,0,0,0,0,0,0,0,0,0,0,0,
0,0,0,0,0,0,0,0,0,0,0,0,0,0,0,0,
0,0,0,0,0,0,0,0,0,0,0,0,0,0,0,0,
0,0,0,0,0,0,0,0,0,0,0,0,0,0,0,0,
0,0,0,0,0,0,0,0,0,0,0,0,0,0,0,0
</chunk>
   </data>
  </layer>
  <layer id="54" name="floor3_dark" width="16" height="24">
   <data encoding="csv">
    <chunk x="-32" y="0" width="16" height="16">
0,0,0,0,0,0,0,0,0,0,0,0,0,0,0,0,
0,0,0,0,0,0,0,0,0,0,0,0,0,0,0,0,
0,0,0,0,0,0,0,0,0,0,0,0,0,0,0,0,
0,0,0,0,0,0,0,0,0,0,0,0,0,0,0,0,
0,0,0,0,0,0,0,0,0,0,0,0,0,0,0,0,
0,0,0,0,0,0,0,0,0,0,0,0,0,0,0,0,
0,0,0,0,0,0,0,0,0,0,0,0,0,0,0,0,
0,0,0,0,0,0,0,0,0,0,0,0,0,0,0,0,
0,0,0,0,0,0,0,0,0,0,0,0,0,0,0,0,
0,0,0,0,0,0,0,0,0,0,0,0,0,0,0,0,
0,0,0,0,0,0,0,0,0,0,0,0,0,0,0,0,
0,0,0,0,4208,0,0,0,0,0,0,0,0,0,0,0,
0,0,0,0,4208,0,0,0,0,0,0,0,0,0,0,0,
0,0,0,0,4208,0,0,0,0,0,0,0,0,0,4213,4208,
0,0,0,0,4208,0,0,0,0,0,0,0,0,0,4208,4208,
0,0,0,0,0,0,0,0,0,0,0,0,0,0,4208,4208
</chunk>
    <chunk x="-16" y="0" width="16" height="16">
0,0,0,0,0,0,0,0,0,0,0,0,0,0,0,0,
0,0,0,0,0,0,0,0,0,0,0,0,0,0,0,0,
0,0,0,0,0,0,0,0,0,0,0,0,0,0,0,0,
0,0,0,0,0,0,0,0,0,0,0,0,0,0,0,0,
0,0,0,0,0,0,0,0,0,0,0,0,0,0,0,0,
0,0,0,0,0,0,0,0,0,0,0,0,0,0,0,0,
0,0,0,0,0,0,0,0,0,0,0,0,0,0,0,0,
0,0,0,0,0,0,0,0,0,0,0,0,0,0,0,0,
0,0,0,0,0,0,0,0,0,0,0,0,0,0,0,0,
0,0,0,0,0,0,0,0,0,0,0,0,0,0,0,0,
0,0,0,0,0,0,0,0,0,0,0,0,0,0,0,0,
0,0,0,0,0,0,0,0,0,0,0,0,0,0,0,0,
0,0,0,0,0,0,0,0,0,4208,4208,0,0,0,0,0,
4208,4208,4208,4208,4208,4208,4208,4208,4208,4213,4208,4208,4208,0,0,0,
4208,4208,4208,4208,4208,4208,4193,4194,4208,4208,4208,4208,4208,0,0,0,
4208,4208,4208,4208,4208,4208,4209,4207,4208,4208,4208,4208,4208,0,0,0
</chunk>
    <chunk x="-32" y="16" width="16" height="16">
0,0,0,0,0,0,0,0,0,0,0,0,0,0,4208,4208,
0,0,0,0,4208,4208,4208,4208,4208,4208,4208,4208,0,0,4208,4208,
0,0,0,0,4208,4208,4193,4225,4225,4225,4194,4208,4208,0,4213,4208,
0,0,0,0,4208,4193,4226,0,0,0,4224,4194,4208,0,0,0,
0,0,0,0,4225,4226,0,0,0,0,0,4207,4208,0,0,0,
0,0,0,0,0,0,0,0,0,0,0,4207,4208,4208,4208,4208,
0,0,0,0,0,0,0,0,0,0,0,4224,4225,4225,4225,4225,
0,0,0,0,0,0,0,0,0,0,0,0,0,0,0,0,
0,0,0,0,0,0,0,0,0,0,0,0,0,0,0,0,
0,0,0,0,0,0,0,0,0,0,0,0,0,0,0,0,
0,0,0,0,0,0,0,0,0,0,0,0,0,0,0,0,
0,0,0,0,0,0,0,0,0,0,0,0,0,0,0,0,
0,0,0,0,0,0,0,0,0,0,0,0,0,0,0,0,
0,0,0,0,0,0,0,0,0,0,0,0,0,0,0,0,
0,0,0,0,0,0,0,0,0,0,0,0,0,0,0,0,
0,0,0,0,0,0,0,0,0,0,0,0,0,0,0,0
</chunk>
    <chunk x="-16" y="16" width="16" height="16">
4208,4208,4208,4208,4208,4208,4209,4207,4208,0,4213,4208,4208,0,0,0,
4208,4213,4208,4213,4213,4213,4209,4207,4213,4213,4213,4208,4208,0,0,0,
4208,4208,4208,4208,4193,4225,4226,4224,4225,4194,4213,4213,4208,0,0,0,
4213,4208,4208,4208,4209,0,0,0,0,4207,4208,4208,4213,0,0,0,
4213,4208,4208,4208,4209,0,0,0,0,4207,4208,4208,4225,0,0,0,
4213,4208,4208,4208,4209,0,0,0,0,4224,4225,4194,0,0,0,0,
4225,4225,4225,4225,4226,0,0,0,0,0,0,4207,0,0,0,0,
0,0,0,0,0,0,0,0,0,0,0,4207,0,0,0,0,
0,0,0,0,0,0,0,0,0,0,0,0,0,0,0,0,
0,0,0,0,0,0,0,0,0,0,0,0,0,0,0,0,
0,0,0,0,0,0,0,0,0,0,0,0,0,0,0,0,
0,0,0,0,0,0,0,0,0,0,0,0,0,0,0,0,
0,0,0,0,0,0,0,0,0,0,0,0,0,0,0,0,
0,0,0,0,0,0,0,0,0,0,0,0,0,0,0,0,
0,0,0,0,0,0,0,0,0,0,0,0,0,0,0,0,
0,0,0,0,0,0,0,0,0,0,0,0,0,0,0,0
</chunk>
   </data>
  </layer>
  <layer id="74" name="floor3_dark_details" width="16" height="24">
   <data encoding="csv">
    <chunk x="-16" y="0" width="16" height="16">
0,0,0,0,0,0,0,0,0,0,0,0,0,0,0,0,
0,0,0,0,0,0,0,0,0,0,0,0,0,0,0,0,
0,0,0,0,0,0,0,0,0,0,0,0,0,0,0,0,
0,0,0,0,0,0,0,0,0,0,0,0,0,0,0,0,
0,0,0,0,0,0,0,0,0,0,0,0,0,0,0,0,
0,0,0,0,0,0,0,0,0,0,0,0,0,0,0,0,
0,0,0,0,0,0,0,0,0,0,0,0,0,0,0,0,
0,0,0,0,0,0,0,0,0,0,0,0,0,0,0,0,
0,0,0,0,0,0,0,0,0,0,0,0,0,0,0,0,
0,0,0,0,0,0,0,0,0,0,0,0,0,0,0,0,
0,0,0,0,0,0,0,0,0,0,0,0,0,0,0,0,
0,0,0,0,0,0,0,0,0,0,0,0,0,0,0,0,
0,0,0,0,0,0,0,0,0,0,0,0,0,0,0,0,
0,0,0,0,0,0,0,0,0,0,0,0,0,0,0,0,
0,4182,0,0,0,0,0,0,0,4203,0,0,0,0,0,0,
0,0,0,0,0,0,0,0,0,0,0,4199,0,0,0,0
</chunk>
    <chunk x="-32" y="16" width="16" height="16">
0,0,0,0,0,0,0,0,0,0,0,0,0,0,0,0,
0,0,0,0,0,0,0,0,0,0,0,0,0,0,0,4203,
0,0,0,0,0,0,0,0,0,0,0,0,0,0,0,0,
0,0,0,0,4203,0,0,0,0,0,0,0,0,0,0,0,
0,0,0,0,0,0,0,0,0,0,0,0,0,0,0,0,
0,0,0,0,0,0,0,0,0,0,0,0,0,0,0,0,
0,0,0,0,0,0,0,0,0,0,0,0,0,0,0,0,
0,0,0,0,0,0,0,0,0,0,0,0,0,0,0,0,
0,0,0,0,0,0,0,0,0,0,0,0,0,0,0,0,
0,0,0,0,0,0,0,0,0,0,0,0,0,0,0,0,
0,0,0,0,0,0,0,0,0,0,0,0,0,0,0,0,
0,0,0,0,0,0,0,0,0,0,0,0,0,0,0,0,
0,0,0,0,0,0,0,0,0,0,0,0,0,0,0,0,
0,0,0,0,0,0,0,0,0,0,0,0,0,0,0,0,
0,0,0,0,0,0,0,0,0,0,0,0,0,0,0,0,
0,0,0,0,0,0,0,0,0,0,0,0,0,0,0,0
</chunk>
    <chunk x="-16" y="16" width="16" height="16">
0,0,0,0,0,0,0,0,0,0,0,0,0,0,0,0,
0,0,0,0,4203,0,0,0,0,0,0,0,0,0,0,0,
0,4185,0,0,0,0,0,0,0,0,0,0,0,0,0,0,
0,0,0,0,0,0,0,0,0,0,0,4200,0,0,0,0,
0,0,0,0,0,0,0,0,0,0,0,0,0,0,0,0,
0,4203,0,0,0,0,0,0,0,0,0,0,0,0,0,0,
0,0,0,0,0,0,0,0,0,0,0,0,0,0,0,0,
0,0,0,0,0,0,0,0,0,0,0,0,0,0,0,0,
0,0,0,0,0,0,0,0,0,0,0,0,0,0,0,0,
0,0,0,0,0,0,0,0,0,0,0,0,0,0,0,0,
0,0,0,0,0,0,0,0,0,0,0,0,0,0,0,0,
0,0,0,0,0,0,0,0,0,0,0,0,0,0,0,0,
0,0,0,0,0,0,0,0,0,0,0,0,0,0,0,0,
0,0,0,0,0,0,0,0,0,0,0,0,0,0,0,0,
0,0,0,0,0,0,0,0,0,0,0,0,0,0,0,0,
0,0,0,0,0,0,0,0,0,0,0,0,0,0,0,0
</chunk>
   </data>
  </layer>
  <layer id="58" name="plates4" width="16" height="24">
   <data encoding="csv">
    <chunk x="-32" y="0" width="16" height="16">
0,0,0,0,0,0,0,0,0,0,0,0,0,0,0,0,
0,0,0,0,0,0,0,0,0,0,0,0,0,0,0,0,
0,0,0,0,0,0,0,0,0,0,0,0,0,0,0,0,
0,0,0,0,0,0,0,0,0,0,0,0,0,0,0,0,
0,0,0,0,0,0,0,0,0,0,0,0,0,0,0,0,
0,0,0,0,0,0,0,0,0,0,0,0,0,0,0,0,
0,0,0,0,0,0,0,0,0,0,0,0,0,0,0,0,
0,0,0,0,0,0,0,0,0,0,0,0,0,0,0,0,
0,0,0,0,0,0,0,0,0,0,0,0,0,0,0,0,
0,0,0,0,0,0,0,0,0,0,0,0,0,0,0,0,
0,0,0,0,0,0,0,0,0,0,0,0,0,0,0,0,
0,0,0,0,0,0,0,0,0,0,0,0,0,0,0,0,
0,0,0,0,0,0,0,0,0,0,0,0,0,0,0,0,
0,0,0,0,0,0,0,0,0,0,0,0,0,4597,4598,0,
0,0,0,0,0,0,0,0,0,0,0,0,0,4610,4611,0,
0,0,0,0,0,0,0,0,0,0,0,0,0,0,0,0
</chunk>
   </data>
  </layer>
  <layer id="52" name="Floor2" width="16" height="24">
   <data encoding="csv">
    <chunk x="-32" y="-16" width="16" height="16">
0,0,0,0,0,0,0,0,0,0,0,0,0,0,0,0,
0,0,0,0,0,0,0,0,0,0,0,0,0,0,0,0,
0,0,0,0,0,0,0,0,0,0,0,0,0,0,0,0,
0,0,0,0,0,0,0,0,0,0,0,0,0,0,0,0,
0,0,0,0,0,0,0,0,0,0,0,0,0,0,0,0,
0,0,0,0,0,0,0,0,0,0,0,0,0,0,0,0,
0,0,0,0,0,0,0,0,0,0,0,0,0,0,0,0,
0,0,0,0,0,0,0,0,0,0,0,0,0,0,0,0,
0,0,0,0,0,0,0,0,0,0,0,0,0,0,0,0,
0,0,0,0,0,0,0,0,0,0,0,0,0,0,0,0,
0,0,0,0,3953,3953,0,0,0,0,0,0,0,0,0,0,
0,0,0,0,3953,3953,0,0,0,0,0,0,0,0,0,0,
0,0,0,0,3953,3953,0,0,0,0,0,0,0,0,0,0,
0,0,0,0,3953,3953,0,0,0,0,0,0,0,0,0,0,
0,0,0,0,3953,3953,0,0,0,0,0,0,0,0,0,0,
0,0,0,0,3953,3953,0,0,0,0,0,3953,0,0,0,0
</chunk>
    <chunk x="-32" y="0" width="16" height="16">
0,0,0,0,3953,3953,0,0,0,3953,3953,3953,0,0,0,0,
0,0,0,0,3953,3953,0,3953,0,3953,3953,3953,3953,3953,0,0,
0,0,0,0,3953,3953,0,3953,3953,3953,3953,3953,3953,3953,0,3953,
0,0,0,0,3953,3953,3953,3953,3953,3953,3953,3953,3953,3953,3953,3953,
0,0,0,0,3953,3953,3953,3953,3953,3953,3953,3953,3953,3953,3953,3953,
0,0,0,0,3953,3953,3953,3953,3953,3953,3953,3953,3953,3953,3953,3953,
0,0,0,0,3953,3953,3953,3953,3953,3953,3953,3953,3953,3953,3953,3953,
0,0,0,0,3953,3953,3953,3953,3953,3953,3953,3953,3953,3953,3953,3953,
0,0,0,0,3953,3953,3953,3953,3953,3953,3953,3953,3953,3953,3953,3953,
0,0,0,0,3953,3953,3953,3953,3953,3953,3953,3953,3953,3953,3953,3953,
0,0,0,0,0,0,3953,3953,3953,3953,3953,3953,3953,3953,3953,3953,
0,0,0,0,0,0,3953,3953,3953,3953,3953,3953,3953,3953,3953,3953,
0,0,0,0,0,0,3953,3953,3953,3953,3953,3953,3953,3953,3953,3939,
0,0,0,0,0,0,3953,3953,3953,3953,3953,3953,3953,3953,3939,3960,
0,0,0,0,0,0,3953,3953,0,3953,3953,3953,3953,3953,3956,3977,
0,0,0,0,0,0,3953,0,0,0,0,0,3953,3953,4838,4839
</chunk>
    <chunk x="-16" y="0" width="16" height="16">
0,0,0,0,0,0,0,0,0,0,0,0,0,0,0,0,
0,0,0,0,0,0,0,0,0,0,0,0,0,0,0,0,
0,0,0,0,0,0,0,0,0,0,0,0,0,0,0,0,
0,0,0,0,0,0,0,0,0,0,0,0,0,0,0,0,
0,0,0,0,0,0,0,0,0,0,0,0,0,0,0,0,
0,0,0,0,0,0,0,0,0,0,0,0,0,0,0,0,
0,0,0,0,0,0,0,0,0,0,0,0,0,0,0,0,
0,0,0,0,0,0,0,0,0,0,0,0,0,0,0,0,
0,0,0,0,0,0,0,0,0,0,0,0,0,0,0,0,
0,0,0,0,0,0,0,0,0,0,0,0,0,0,0,0,
3953,0,0,0,0,0,0,0,0,0,0,0,0,0,0,0,
3953,3953,3953,3953,3953,3953,3953,3953,3953,3953,3953,3953,3953,3953,3953,3953,
3944,3970,3940,3970,3970,3944,4671,4673,3944,3940,3970,3945,3953,3953,3953,3953,
3961,3987,3957,3987,3987,3961,4688,4690,3961,3957,3987,3962,3941,3953,3953,3953,
0,0,0,0,0,0,4705,4707,0,0,0,3979,3958,3953,3953,3953,
0,0,0,0,0,0,0,0,0,0,0,4903,4904,3953,3953,3953
</chunk>
    <chunk x="0" y="0" width="16" height="16">
0,0,0,0,0,0,0,0,0,0,0,0,0,0,0,0,
0,0,0,0,0,0,0,0,0,0,0,3953,0,0,0,0,
0,0,0,0,0,0,0,0,0,0,0,3953,0,0,0,0,
0,0,0,0,0,0,0,0,0,0,0,3953,0,0,0,0,
0,0,0,0,0,0,0,0,0,0,0,3953,0,0,0,0,
0,0,0,0,0,0,0,0,0,0,0,3953,0,0,0,0,
0,0,0,0,0,0,0,0,0,0,0,3953,0,0,0,0,
0,0,0,0,0,0,0,0,0,0,0,3953,0,0,0,0,
0,0,0,0,0,0,0,0,0,0,0,3953,0,0,0,0,
0,0,0,0,0,0,3953,3953,0,0,0,3953,0,0,0,0,
0,0,3953,3953,3953,3953,3953,3953,3953,3953,0,3953,0,0,0,0,
3953,3953,3953,3953,3953,3953,3953,3953,3953,3953,3953,3953,0,0,0,0,
3953,3953,3953,3953,3953,3953,3953,3953,3953,3953,3953,3953,0,0,0,0,
3953,3953,4909,4911,3953,3953,3953,3953,3953,3953,3953,3953,0,0,0,0,
3953,3953,4926,4928,3953,3953,3953,3953,3953,3953,3953,3953,0,0,0,0,
3953,3953,3953,3953,3953,3953,3953,3953,3953,3953,3953,3953,0,0,0,0
</chunk>
    <chunk x="-32" y="16" width="16" height="16">
0,0,0,0,0,0,0,0,0,0,0,0,0,0,4855,4856,
0,0,0,0,0,0,0,0,0,0,0,0,0,0,4872,4873,
0,0,0,0,0,0,0,0,0,0,0,0,0,0,3954,0,
0,0,0,0,0,0,0,0,0,0,0,0,0,0,0,0,
0,0,0,0,0,0,0,0,0,0,0,0,0,0,0,0,
0,0,0,0,0,0,0,0,0,0,0,0,0,0,0,0,
0,0,0,0,0,0,0,0,0,0,0,0,0,0,0,0,
0,0,0,0,0,0,0,0,0,0,0,0,0,0,0,0,
0,0,0,0,0,0,0,0,0,0,0,0,0,0,0,0,
0,0,0,0,0,0,0,0,0,0,0,0,0,0,0,0,
0,0,0,0,0,0,0,0,0,0,0,0,0,0,0,0,
0,0,0,0,0,0,0,0,0,0,0,0,0,0,0,0,
0,0,0,0,0,0,0,0,0,0,0,0,0,0,0,0,
0,0,0,0,0,0,0,0,0,0,0,0,0,0,0,0,
0,0,0,0,0,0,0,0,0,0,0,0,0,0,0,0,
0,0,0,0,0,0,0,0,0,0,0,0,0,0,0,0
</chunk>
    <chunk x="-16" y="16" width="16" height="16">
0,0,0,0,0,0,0,0,0,0,0,4920,4921,3953,3953,3953,
0,0,0,0,0,0,0,0,0,0,0,4937,4938,3953,3953,3953,
0,0,0,0,0,0,0,0,0,0,0,0,3952,3953,3953,3953,
0,0,0,0,0,0,0,0,0,0,0,0,3952,3953,3953,3953,
0,0,0,0,0,0,0,0,0,0,0,0,3221229484,3953,3953,3953,
0,0,0,0,0,0,0,0,0,0,0,0,3952,3953,3953,3953,
0,0,0,0,0,0,0,0,0,0,0,0,4011,3953,3953,3953,
0,0,0,0,0,0,0,0,0,0,0,0,3952,206,206,206,
0,0,0,0,0,0,0,0,0,0,0,0,0,0,0,0,
0,0,0,0,0,0,0,0,0,0,0,0,0,0,0,0,
0,0,0,0,0,0,0,0,0,0,0,0,0,0,0,0,
0,0,0,0,0,0,0,0,0,0,0,0,0,0,0,0,
0,0,0,0,0,0,0,0,0,0,0,0,0,0,0,0,
0,0,0,0,0,0,0,0,0,0,0,0,0,0,0,0,
0,0,0,0,0,0,0,0,0,0,0,0,0,0,0,0,
0,0,0,0,0,0,0,0,0,0,0,0,0,0,0,0
</chunk>
    <chunk x="0" y="16" width="16" height="16">
3953,3953,3953,3953,3953,0,0,0,0,0,0,3953,0,0,0,0,
3953,0,0,0,0,0,0,0,0,0,0,3953,0,0,0,0,
3953,3953,3953,3953,3953,3953,3953,3953,3953,3953,3953,206,0,0,0,0,
3953,3953,3953,3953,151,235,152,3940,235,152,153,206,0,0,0,0,
3953,3953,3953,151,180,264,181,155,264,181,182,235,0,0,0,0,
3953,3953,3953,154,209,0,0,0,0,0,211,264,0,0,0,0,
3953,3953,3953,238,0,0,0,0,0,0,0,0,0,0,0,0,
206,206,206,238,0,0,0,0,0,0,0,0,0,0,0,0,
0,0,0,0,0,0,0,0,0,0,0,0,0,0,0,0,
0,0,0,0,0,0,0,0,0,0,0,0,0,0,0,0,
0,0,0,0,0,0,0,0,0,0,0,0,0,0,0,0,
0,0,0,0,0,0,0,0,0,0,0,0,0,0,0,0,
0,0,0,0,0,0,0,0,0,0,0,0,0,0,0,0,
0,0,0,0,0,0,0,0,0,0,0,0,0,0,0,0,
0,0,0,0,0,0,0,0,0,0,0,0,0,0,0,0,
0,0,0,0,0,0,0,0,0,0,0,0,0,0,0,0
</chunk>
   </data>
  </layer>
  <layer id="75" name="floor2_details" width="16" height="24">
   <data encoding="csv">
    <chunk x="-32" y="0" width="16" height="16">
0,0,0,0,0,0,0,0,0,0,0,0,0,0,0,0,
0,0,0,0,0,0,0,0,0,0,0,0,0,0,0,0,
0,0,0,0,0,0,0,0,0,0,0,0,0,0,0,0,
0,0,0,0,0,0,4233,0,0,0,0,0,0,0,0,0,
0,0,0,0,0,0,0,0,0,0,0,0,0,0,0,4233,
0,0,0,0,0,0,4237,0,0,0,0,0,0,0,0,4218,
0,0,0,0,0,0,0,0,0,0,4235,0,0,0,0,0,
0,0,0,0,0,0,0,0,0,0,0,0,0,0,0,0,
0,0,0,0,0,0,0,0,4216,0,0,0,4218,0,4219,0,
0,0,0,0,0,0,0,0,0,0,0,0,0,0,0,0,
0,0,0,0,0,0,0,0,0,0,0,0,0,0,0,0,
0,0,0,0,0,0,0,0,0,0,0,0,0,0,0,4218,
0,0,0,0,0,0,0,0,0,0,0,0,4216,0,0,0,
0,0,0,0,0,0,0,0,0,0,0,0,0,0,0,0,
0,0,0,0,0,0,0,0,0,0,0,0,0,0,0,0,
0,0,0,0,0,0,0,0,0,0,0,0,0,0,0,0
</chunk>
    <chunk x="-16" y="0" width="16" height="16">
0,0,0,0,0,0,0,0,0,0,0,0,0,0,0,0,
0,0,0,0,0,0,0,0,0,0,0,0,0,0,0,0,
0,0,0,0,0,0,0,0,0,0,0,0,0,0,0,0,
0,0,0,0,0,0,0,0,0,0,0,0,0,0,0,0,
0,0,0,0,0,0,0,0,0,0,0,0,0,0,0,0,
0,0,0,0,0,0,0,0,0,0,0,0,0,0,0,0,
0,0,0,0,0,0,0,0,0,0,0,0,0,0,0,0,
0,0,0,0,0,0,0,0,0,0,0,0,0,0,0,0,
0,0,0,0,0,0,0,0,0,0,0,0,0,0,0,0,
0,0,0,0,0,0,0,0,0,0,0,0,0,0,0,0,
0,0,0,0,0,0,0,0,0,0,0,0,0,0,0,0,
0,4233,0,0,0,0,4216,0,0,0,4216,0,0,0,0,0,
0,0,0,0,0,0,0,0,0,0,0,0,0,0,0,0,
0,0,0,0,0,0,0,0,0,0,0,0,4218,0,0,0,
0,0,0,0,0,0,0,0,0,0,0,0,0,0,0,0,
0,0,0,0,0,0,0,0,0,0,0,0,0,0,0,0
</chunk>
    <chunk x="0" y="0" width="16" height="16">
0,0,0,0,0,0,0,0,0,0,0,0,0,0,0,0,
0,0,0,0,0,0,0,0,0,0,0,0,0,0,0,0,
0,0,0,0,0,0,0,0,0,0,0,0,0,0,0,0,
0,0,0,0,0,0,0,0,0,0,0,0,0,0,0,0,
0,0,0,0,0,0,0,0,0,0,0,0,0,0,0,0,
0,0,0,0,0,0,0,0,0,0,0,0,0,0,0,0,
0,0,0,0,0,0,0,0,0,0,0,0,0,0,0,0,
0,0,0,0,0,0,0,0,0,0,0,0,0,0,0,0,
0,0,0,0,0,0,0,0,0,0,0,0,0,0,0,0,
0,0,0,0,0,0,0,0,0,0,0,0,0,0,0,0,
0,0,0,0,0,0,0,0,0,0,0,0,0,0,0,0,
0,0,0,0,0,0,0,0,0,0,0,0,0,0,0,0,
0,0,0,4216,0,0,0,0,0,0,0,0,0,0,0,0,
0,0,0,0,0,0,0,0,0,0,0,0,0,0,0,0,
0,0,0,0,4219,0,0,0,0,0,0,0,0,0,0,0,
0,0,0,0,0,0,0,0,0,0,0,0,0,0,0,0
</chunk>
    <chunk x="-32" y="16" width="16" height="16">
0,0,0,0,0,0,0,0,0,0,0,0,0,4216,4235,0,
0,0,0,0,0,0,0,0,0,0,0,0,0,0,0,0,
0,0,0,0,0,0,0,0,0,0,0,0,0,0,0,0,
0,0,0,0,0,0,0,0,0,0,0,0,0,0,0,0,
0,0,0,0,0,0,0,0,0,0,0,0,0,0,0,0,
0,0,0,0,0,0,0,0,0,0,0,0,0,0,0,0,
0,0,0,0,0,0,0,0,0,0,0,0,0,0,0,0,
0,0,0,0,0,0,0,0,0,0,0,0,0,0,0,0,
0,0,0,0,0,0,0,0,0,0,0,0,0,0,0,0,
0,0,0,0,0,0,0,0,0,0,0,0,0,0,0,0,
0,0,0,0,0,0,0,0,0,0,0,0,0,0,0,0,
0,0,0,0,0,0,0,0,0,0,0,0,0,0,0,0,
0,0,0,0,0,0,0,0,0,0,0,0,0,0,0,0,
0,0,0,0,0,0,0,0,0,0,0,0,0,0,0,0,
0,0,0,0,0,0,0,0,0,0,0,0,0,0,0,0,
0,0,0,0,0,0,0,0,0,0,0,0,0,0,0,0
</chunk>
    <chunk x="-16" y="16" width="16" height="16">
0,0,0,0,0,0,0,0,0,0,0,0,0,0,0,0,
0,0,0,0,0,0,0,0,0,0,0,0,0,0,0,0,
0,0,0,0,0,0,0,0,0,0,0,0,0,0,0,0,
0,0,0,0,0,0,0,0,0,0,0,0,0,0,0,0,
0,0,0,0,0,0,0,0,0,0,0,0,0,0,0,0,
0,0,0,0,0,0,0,0,0,0,0,0,4237,0,0,0,
0,0,0,0,0,0,0,0,0,0,0,0,0,0,0,0,
0,0,0,0,0,0,0,0,0,0,0,0,0,0,0,0,
0,0,0,0,0,0,0,0,0,0,0,0,0,0,0,0,
0,0,0,0,0,0,0,0,0,0,0,0,0,0,0,0,
0,0,0,0,0,0,0,0,0,0,0,0,0,0,0,0,
0,0,0,0,0,0,0,0,0,0,0,0,0,0,0,0,
0,0,0,0,0,0,0,0,0,0,0,0,0,0,0,0,
0,0,0,0,0,0,0,0,0,0,0,0,0,0,0,0,
0,0,0,0,0,0,0,0,0,0,0,0,0,0,0,0,
0,0,0,0,0,0,0,0,0,0,0,0,0,0,0,0
</chunk>
    <chunk x="0" y="16" width="16" height="16">
0,0,0,0,0,0,0,0,0,0,0,0,0,0,0,0,
0,0,0,0,0,0,0,0,0,0,0,0,0,0,0,0,
0,0,0,0,0,0,0,0,0,0,0,0,0,0,0,0,
0,0,0,4218,0,0,0,0,0,0,0,0,0,0,0,0,
4217,0,0,0,0,0,0,0,0,0,0,0,0,0,0,0,
0,0,0,4237,0,0,0,0,0,0,0,0,0,0,0,0,
0,0,0,0,0,0,0,0,0,0,0,0,0,0,0,0,
0,0,0,0,0,0,0,0,0,0,0,0,0,0,0,0,
0,0,0,0,0,0,0,0,0,0,0,0,0,0,0,0,
0,0,0,0,0,0,0,0,0,0,0,0,0,0,0,0,
0,0,0,0,0,0,0,0,0,0,0,0,0,0,0,0,
0,0,0,0,0,0,0,0,0,0,0,0,0,0,0,0,
0,0,0,0,0,0,0,0,0,0,0,0,0,0,0,0,
0,0,0,0,0,0,0,0,0,0,0,0,0,0,0,0,
0,0,0,0,0,0,0,0,0,0,0,0,0,0,0,0,
0,0,0,0,0,0,0,0,0,0,0,0,0,0,0,0
</chunk>
   </data>
  </layer>
  <layer id="50" name="plates2" width="16" height="24">
   <data encoding="csv">
    <chunk x="-32" y="0" width="16" height="16">
0,0,0,0,0,0,0,0,0,0,0,0,0,0,0,0,
0,0,0,0,0,0,0,0,0,4545,4546,4548,4549,0,0,0,
0,0,0,0,0,0,0,0,0,4558,4559,4561,4562,0,0,0,
0,0,0,0,0,0,0,0,4537,4566,4572,4574,4567,4544,0,0,
0,0,0,0,0,0,0,0,4550,4559,4585,4587,4561,4557,0,0,
0,0,0,0,0,0,0,0,4563,4572,4598,4600,4574,4570,0,0,
0,0,0,0,0,0,0,0,0,4585,4632,4633,4614,0,0,0,
0,0,0,0,0,0,0,0,0,0,0,0,0,0,0,0,
0,0,0,0,0,0,0,0,0,0,0,0,0,0,0,0,
0,0,0,0,0,0,0,0,0,0,0,0,0,0,0,0,
0,0,0,0,0,0,0,0,0,0,0,0,0,0,0,0,
0,0,0,0,0,0,0,0,0,0,0,0,0,0,0,0,
0,0,0,0,0,0,0,0,0,4546,4547,4548,4549,0,0,0,
0,0,0,0,0,0,0,0,0,4559,4560,4561,4562,0,0,0,
0,0,0,0,0,0,0,0,0,4572,4573,4574,4575,0,0,0,
0,0,0,0,0,0,0,0,0,4585,4586,4587,4588,0,0,0
</chunk>
    <chunk x="-16" y="0" width="16" height="16">
0,0,0,0,0,0,0,0,0,0,0,0,0,0,0,0,
0,0,0,0,0,0,0,0,0,0,0,0,0,0,0,0,
0,0,0,0,0,0,0,0,0,0,0,0,0,0,0,0,
0,0,0,0,0,0,0,0,0,0,0,0,0,0,0,0,
0,0,0,0,0,0,0,0,0,0,0,0,0,0,0,0,
0,0,0,0,0,0,0,0,0,0,0,0,0,0,0,0,
0,0,0,0,0,0,0,0,0,0,0,0,0,0,0,0,
0,0,0,0,0,0,0,0,0,0,0,0,0,0,0,0,
0,0,0,0,0,0,0,0,0,0,0,0,0,0,0,0,
0,0,0,0,0,0,0,0,0,0,0,0,0,0,0,0,
0,0,0,0,0,0,0,0,0,0,0,0,0,0,0,4537,
0,0,0,0,0,0,0,0,0,0,0,0,0,0,0,4550,
0,0,0,0,0,0,0,0,0,0,0,0,0,0,0,4563,
0,0,0,0,0,0,0,0,0,0,0,0,0,0,0,0,
0,0,0,0,0,0,0,0,0,0,0,0,0,0,0,4545,
0,0,0,0,0,0,0,0,0,0,0,0,0,0,0,4558
</chunk>
    <chunk x="0" y="0" width="16" height="16">
0,0,0,0,0,0,0,0,0,0,0,0,0,0,0,0,
0,0,0,0,0,0,0,0,0,0,0,0,0,0,0,0,
0,0,0,0,0,0,0,0,0,0,0,0,0,0,0,0,
0,0,0,0,0,0,0,0,0,0,0,0,0,0,0,0,
0,0,0,0,0,0,0,0,0,0,0,0,0,0,0,0,
0,0,0,0,0,0,0,0,0,0,0,0,0,0,0,0,
0,0,0,0,0,0,0,0,0,0,0,0,0,0,0,0,
0,0,0,0,0,0,0,0,0,0,0,0,0,0,0,0,
0,0,0,0,0,0,0,0,0,0,0,0,0,0,0,0,
0,0,0,0,0,0,0,0,0,0,0,0,0,0,0,0,
4538,0,0,0,0,0,0,0,0,0,0,0,0,0,0,0,
4551,0,0,0,0,0,0,0,0,0,0,0,0,0,0,0,
4564,0,0,0,0,0,0,0,0,0,0,0,0,0,0,0,
4546,0,0,0,0,0,0,0,0,0,0,0,0,0,0,0,
4547,0,0,0,0,0,0,0,0,0,0,0,0,0,0,0,
4560,0,0,0,0,0,0,0,0,0,0,0,0,0,0,0
</chunk>
    <chunk x="-32" y="16" width="16" height="16">
0,0,0,0,0,0,0,0,0,4598,4599,4600,4601,0,0,0,
0,0,0,0,0,0,0,0,0,4611,4612,4613,4614,0,0,0,
0,0,0,0,0,0,0,0,0,0,0,0,0,0,0,0,
0,0,0,0,0,0,0,0,0,0,0,0,0,0,0,0,
0,0,0,0,0,0,0,0,0,0,0,0,0,0,0,0,
0,0,0,0,0,0,0,0,0,0,0,0,0,0,0,0,
0,0,0,0,0,0,0,0,0,0,0,0,0,0,0,0,
0,0,0,0,0,0,0,0,0,0,0,0,0,0,0,0,
0,0,0,0,0,0,0,0,0,0,0,0,0,0,0,0,
0,0,0,0,0,0,0,0,0,0,0,0,0,0,0,0,
0,0,0,0,0,0,0,0,0,0,0,0,0,0,0,0,
0,0,0,0,0,0,0,0,0,0,0,0,0,0,0,0,
0,0,0,0,0,0,0,0,0,0,0,0,0,0,0,0,
0,0,0,0,0,0,0,0,0,0,0,0,0,0,0,0,
0,0,0,0,0,0,0,0,0,0,0,0,0,0,0,0,
0,0,0,0,0,0,0,0,0,0,0,0,0,0,0,0
</chunk>
    <chunk x="-16" y="16" width="16" height="16">
0,0,0,0,0,0,0,0,0,0,0,0,0,0,0,4571,
0,0,0,0,0,0,0,0,0,0,0,0,0,0,0,4584,
0,0,0,0,0,0,0,0,0,0,0,0,0,0,0,4597,
0,0,0,0,0,0,0,0,0,0,0,0,0,0,0,4610,
0,0,0,0,0,0,0,0,0,0,0,0,0,0,0,0,
0,0,0,0,0,0,0,0,0,0,0,0,0,0,0,0,
0,0,0,0,0,0,0,0,0,0,0,0,0,0,0,0,
0,0,0,0,0,0,0,0,0,0,0,0,0,0,0,0,
0,0,0,0,0,0,0,0,0,0,0,0,0,0,0,0,
0,0,0,0,0,0,0,0,0,0,0,0,0,0,0,0,
0,0,0,0,0,0,0,0,0,0,0,0,0,0,0,0,
0,0,0,0,0,0,0,0,0,0,0,0,0,0,0,0,
0,0,0,0,0,0,0,0,0,0,0,0,0,0,0,0,
0,0,0,0,0,0,0,0,0,0,0,0,0,0,0,0,
0,0,0,0,0,0,0,0,0,0,0,0,0,0,0,0,
0,0,0,0,0,0,0,0,0,0,0,0,0,0,0,0
</chunk>
    <chunk x="0" y="16" width="16" height="16">
4573,0,0,0,0,0,0,0,0,0,0,0,0,0,0,0,
4586,0,0,0,0,0,0,0,0,0,0,0,0,0,0,0,
4599,4600,4573,4574,4573,4574,4573,4574,4573,4573,4574,4544,0,0,0,0,
4612,4613,4611,4612,4613,4611,4612,4613,4611,4612,4613,4614,0,0,0,0,
0,0,0,0,0,0,0,0,0,0,0,0,0,0,0,0,
0,0,0,0,0,0,0,0,0,0,0,0,0,0,0,0,
0,0,0,0,0,0,0,0,0,0,0,0,0,0,0,0,
0,0,0,0,0,0,0,0,0,0,0,0,0,0,0,0,
0,0,0,0,0,0,0,0,0,0,0,0,0,0,0,0,
0,0,0,0,0,0,0,0,0,0,0,0,0,0,0,0,
0,0,0,0,0,0,0,0,0,0,0,0,0,0,0,0,
0,0,0,0,0,0,0,0,0,0,0,0,0,0,0,0,
0,0,0,0,0,0,0,0,0,0,0,0,0,0,0,0,
0,0,0,0,0,0,0,0,0,0,0,0,0,0,0,0,
0,0,0,0,0,0,0,0,0,0,0,0,0,0,0,0,
0,0,0,0,0,0,0,0,0,0,0,0,0,0,0,0
</chunk>
   </data>
  </layer>
  <layer id="49" name="floor2_dark" width="16" height="24">
   <data encoding="csv">
    <chunk x="-32" y="-16" width="16" height="16">
0,0,0,0,0,0,0,0,0,0,0,0,0,0,0,0,
0,0,0,0,0,0,0,0,0,0,0,0,0,0,0,0,
0,0,0,0,0,0,0,0,0,0,0,0,0,0,0,0,
0,0,0,0,0,0,0,0,0,0,0,0,0,0,0,0,
0,0,0,0,0,0,0,0,0,0,0,0,0,0,0,0,
0,0,0,0,0,0,0,0,0,0,0,0,0,0,0,0,
0,0,0,0,0,0,0,0,0,0,0,0,0,0,0,0,
0,0,0,0,0,0,0,0,0,0,0,0,0,0,0,0,
0,0,0,0,0,0,0,0,0,0,0,0,0,0,0,0,
0,0,0,0,0,0,0,0,0,0,0,0,0,0,0,0,
0,0,0,0,0,4207,4208,0,0,0,0,0,0,0,0,0,
0,0,0,0,0,4207,4208,0,0,0,0,0,0,0,0,0,
0,0,0,0,0,4207,4208,4208,0,0,0,0,0,0,0,0,
0,0,0,0,0,4207,4208,4208,4208,0,4208,0,0,4208,0,0,
0,0,0,0,0,4207,4208,4208,4208,0,4208,4208,0,4208,0,0,
0,0,0,0,0,4207,4208,4208,4208,0,4208,4208,4208,4208,4208,0
</chunk>
    <chunk x="-32" y="0" width="16" height="16">
0,0,0,0,0,4207,4208,4208,4208,4208,4208,4208,4208,4208,4208,0,
0,0,0,0,0,4207,4208,4208,4208,4193,4225,4225,4194,4208,4208,4213,
0,0,0,0,0,4207,4208,4208,4208,4209,0,0,4207,4208,4208,4207,
0,0,0,0,0,4224,4225,4225,4225,4226,0,0,4224,4225,4225,4194,
0,0,0,0,0,0,0,0,0,0,0,0,0,0,0,4207,
0,0,0,0,0,0,0,0,0,0,0,0,0,0,0,4207,
0,0,0,0,0,0,0,0,0,0,0,0,0,0,0,4207,
0,0,0,0,0,0,0,0,0,0,0,0,0,0,0,4207,
0,0,0,0,0,0,0,0,0,0,0,0,0,0,0,4207,
0,0,0,0,0,0,0,0,0,0,0,0,0,0,0,4207,
0,0,0,0,0,0,0,0,0,0,0,0,0,0,0,4224,
0,0,0,0,0,4208,4208,4208,4208,4208,4209,0,0,0,0,0,
0,0,0,0,0,4208,4208,4208,4208,4208,4209,0,0,0,0,0,
0,0,0,0,0,4208,4208,4208,4208,4208,4209,0,0,0,0,0,
0,0,0,0,0,4208,4208,4208,4208,4208,4209,0,0,0,0,0,
0,0,0,0,0,0,0,0,0,0,0,0,0,0,0,0
</chunk>
    <chunk x="-16" y="0" width="16" height="16">
0,0,0,0,0,0,0,0,0,0,0,0,0,0,0,0,
4213,0,0,0,0,0,0,0,0,0,0,0,0,0,0,0,
4213,0,0,0,0,0,0,0,0,0,0,0,0,0,0,0,
4213,0,0,0,0,0,0,0,0,0,0,0,0,0,0,0,
4213,0,0,0,0,0,0,0,0,0,0,0,0,0,0,0,
4213,0,0,0,0,0,0,0,0,0,0,0,0,0,0,0,
4213,0,0,0,0,0,0,0,0,0,0,0,0,0,0,0,
4213,0,0,0,0,0,0,0,0,0,0,0,0,0,0,0,
4213,0,0,0,0,0,0,0,0,0,0,0,0,0,0,0,
4213,4213,0,0,0,0,0,0,0,0,0,0,0,0,0,0,
4194,4213,4213,4213,4213,4213,4213,4213,4213,4213,4213,4213,4213,4213,4213,4213,
4224,4225,4225,4225,4225,4225,4225,4225,4225,4225,4225,4225,4225,4225,4225,4225,
0,0,0,0,0,0,0,0,0,0,0,0,0,0,0,0,
0,0,0,0,0,0,0,0,0,0,0,0,0,0,0,0,
0,0,0,0,0,0,0,0,0,0,0,0,0,0,0,0,
0,0,0,0,0,0,0,0,0,0,0,0,0,0,0,0
</chunk>
    <chunk x="0" y="0" width="16" height="16">
0,0,0,0,0,0,0,0,0,0,0,0,0,0,0,0,
0,0,0,0,0,0,0,0,0,0,0,0,0,0,0,0,
0,0,0,0,0,0,0,0,0,0,0,0,0,0,0,0,
0,0,0,0,0,0,0,0,0,0,0,0,0,0,0,0,
0,0,0,0,0,0,0,0,0,0,0,0,0,0,0,0,
0,0,0,0,0,0,0,0,0,0,0,0,0,0,0,0,
0,0,0,0,0,0,0,0,0,0,0,0,0,0,0,0,
0,0,0,0,0,0,0,0,0,0,0,0,0,0,0,0,
0,0,0,0,0,0,0,0,0,0,0,0,0,0,0,0,
0,0,0,0,0,0,0,4208,4208,0,0,0,0,0,0,0,
4208,4192,0,0,0,4208,4208,4208,4208,4208,0,4208,0,0,0,0,
4194,4208,4208,4208,4208,4208,4208,4208,4208,4208,4208,4208,0,0,0,0,
4207,4193,4225,4225,4194,4208,4208,4208,4208,4208,4208,4208,0,0,0,0,
4207,4209,0,0,4207,4208,4208,4208,4208,4208,4208,4208,0,0,0,0,
4207,4209,0,0,4207,4208,4208,4208,4208,4208,4208,4208,0,0,0,0,
4207,4209,0,0,4211,4208,4208,4208,4208,4208,4208,4208,0,0,0,0
</chunk>
    <chunk x="-32" y="16" width="16" height="16">
0,0,0,0,0,0,4208,4208,0,0,0,0,0,0,0,0,
0,0,0,0,0,0,0,0,0,0,0,0,0,0,0,0,
0,0,0,0,0,0,0,0,0,0,0,0,0,0,0,0,
0,0,0,0,0,0,0,0,0,0,0,0,0,0,0,0,
0,0,0,0,0,0,0,0,0,0,0,0,0,0,0,0,
0,0,0,0,0,0,0,0,0,0,0,0,0,0,0,0,
0,0,0,0,0,0,0,0,0,0,0,0,0,0,0,0,
0,0,0,0,0,0,0,0,0,0,0,0,0,0,0,0,
0,0,0,0,0,0,0,0,0,0,0,0,0,0,0,0,
0,0,0,0,0,0,0,0,0,0,0,0,0,0,0,0,
0,0,0,0,0,0,0,0,0,0,0,0,0,0,0,0,
0,0,0,0,0,0,0,0,0,0,0,0,0,0,0,0,
0,0,0,0,0,0,0,0,0,0,0,0,0,0,0,0,
0,0,0,0,0,0,0,0,0,0,0,0,0,0,0,0,
0,0,0,0,0,0,0,0,0,0,0,0,0,0,0,0,
0,0,0,0,0,0,0,0,0,0,0,0,0,0,0,0
</chunk>
    <chunk x="0" y="16" width="16" height="16">
4207,4210,0,0,4208,4208,0,0,0,0,0,0,0,0,0,0,
4207,4208,4208,4208,4208,4208,4208,4208,4208,4208,4208,4208,0,0,0,0,
4224,4225,4225,4225,4225,4225,4225,4225,4225,4225,4225,4225,0,0,0,0,
0,0,0,0,0,0,0,0,0,0,0,0,0,0,0,0,
0,0,0,0,0,0,0,0,0,0,0,0,0,0,0,0,
0,0,0,0,0,0,0,0,0,0,0,0,0,0,0,0,
0,0,0,0,0,0,0,0,0,0,0,0,0,0,0,0,
0,0,0,0,0,0,0,0,0,0,0,0,0,0,0,0,
0,0,0,0,0,0,0,0,0,0,0,0,0,0,0,0,
0,0,0,0,0,0,0,0,0,0,0,0,0,0,0,0,
0,0,0,0,0,0,0,0,0,0,0,0,0,0,0,0,
0,0,0,0,0,0,0,0,0,0,0,0,0,0,0,0,
0,0,0,0,0,0,0,0,0,0,0,0,0,0,0,0,
0,0,0,0,0,0,0,0,0,0,0,0,0,0,0,0,
0,0,0,0,0,0,0,0,0,0,0,0,0,0,0,0,
0,0,0,0,0,0,0,0,0,0,0,0,0,0,0,0
</chunk>
   </data>
  </layer>
  <layer id="76" name="floor2_dark" width="16" height="24">
   <data encoding="csv">
    <chunk x="-32" y="0" width="16" height="16">
0,0,0,0,0,0,0,0,0,0,0,0,0,0,0,0,
0,0,0,0,0,0,0,0,0,0,0,0,0,0,0,0,
0,0,0,0,0,0,0,0,0,0,0,0,0,0,0,0,
0,0,0,0,0,0,0,0,0,0,0,0,0,0,0,0,
0,0,0,0,0,0,0,0,0,0,0,0,0,0,0,0,
0,0,0,0,0,0,0,0,0,0,0,0,0,0,0,0,
0,0,0,0,0,0,0,0,0,0,0,0,0,0,0,0,
0,0,0,0,0,0,0,0,0,0,0,0,0,0,0,0,
0,0,0,0,0,0,0,0,0,0,0,0,0,0,0,0,
0,0,0,0,0,0,0,0,0,0,0,0,0,0,0,0,
0,0,0,0,0,0,0,0,0,0,0,0,0,0,0,0,
0,0,0,0,0,0,0,0,0,0,0,0,0,0,0,0,
0,0,0,0,0,0,0,4201,0,4182,0,0,0,0,0,0,
0,0,0,0,0,4203,0,0,4203,0,0,0,0,0,0,0,
0,0,0,0,0,0,0,0,0,0,0,0,0,0,0,0,
0,0,0,0,0,0,0,0,0,0,0,0,0,0,0,0
</chunk>
    <chunk x="0" y="0" width="16" height="16">
0,0,0,0,0,0,0,0,0,0,0,0,0,0,0,0,
0,0,0,0,0,0,0,0,0,0,0,0,0,0,0,0,
0,0,0,0,0,0,0,0,0,0,0,0,0,0,0,0,
0,0,0,0,0,0,0,0,0,0,0,0,0,0,0,0,
0,0,0,0,0,0,0,0,0,0,0,0,0,0,0,0,
0,0,0,0,0,0,0,0,0,0,0,0,0,0,0,0,
0,0,0,0,0,0,0,0,0,0,0,0,0,0,0,0,
0,0,0,0,0,0,0,0,0,0,0,0,0,0,0,0,
0,0,0,0,0,0,0,0,0,0,0,0,0,0,0,0,
0,0,0,0,0,0,0,0,0,0,0,0,0,0,0,0,
0,0,0,0,0,0,0,0,0,0,0,0,0,0,0,0,
0,0,0,0,0,0,0,0,0,0,0,0,0,0,0,0,
0,0,0,0,0,4184,0,0,0,0,0,0,0,0,0,0,
0,0,0,0,0,0,0,0,0,0,4199,0,0,0,0,0,
0,0,0,0,0,0,4182,0,4200,0,0,0,0,0,0,0,
0,0,0,0,0,0,0,0,0,0,0,0,0,0,0,0
</chunk>
   </data>
  </layer>
  <layer id="39" name="Floor" width="16" height="24">
   <data encoding="csv">
    <chunk x="-32" y="0" width="16" height="16">
0,0,0,0,0,0,0,0,0,0,0,0,0,0,3974,177,
0,0,0,0,0,0,0,0,0,0,0,0,0,0,3970,3940,
0,0,0,0,0,0,0,0,0,0,0,0,0,0,3987,3957,
0,0,0,0,0,0,0,0,0,0,0,0,0,0,0,0,
0,0,0,0,0,0,0,0,0,0,0,0,0,0,0,0,
0,0,0,0,0,0,0,0,0,0,0,0,0,0,0,0,
0,0,0,0,0,0,0,0,0,0,0,0,0,0,0,0,
0,0,0,0,0,0,0,0,0,0,0,0,0,0,0,0,
0,0,0,0,0,0,0,0,0,0,0,0,0,0,0,0,
0,0,0,0,0,0,0,0,0,0,0,0,0,0,0,0,
0,0,0,0,0,0,0,0,0,0,0,0,0,0,0,0,
0,0,0,0,0,0,0,0,0,0,0,0,0,0,0,0,
0,0,0,0,0,0,0,0,0,0,0,0,0,0,0,0,
0,0,0,0,0,0,0,0,0,0,0,0,0,0,0,0,
0,0,0,0,0,0,0,0,0,0,0,0,0,0,0,0,
0,0,0,0,0,0,0,0,0,0,0,0,0,0,0,0
</chunk>
    <chunk x="-16" y="0" width="16" height="16">
2147487639,274,0,0,0,0,0,0,0,0,0,3953,3953,3953,3953,0,
3941,207,0,0,0,0,0,3953,3953,3953,3953,3953,3953,3953,3953,3953,
3958,207,0,0,0,3953,3953,3953,3953,3953,3953,3953,3953,3953,3953,3953,
3952,238,0,176,177,3953,3953,3953,3953,3953,3953,3953,3953,3953,3953,3953,
2147487660,207,0,205,206,3953,3953,3953,3953,3953,3953,3953,3953,3953,3953,3953,
3952,207,0,234,3940,3953,3953,3953,3953,3953,3953,3953,3953,3953,3953,3953,
4011,238,239,263,264,182,235,3940,152,152,235,152,3940,235,152,235,
2147487660,267,268,178,0,211,264,181,155,155,264,181,155,181,181,264,
3969,3945,3953,267,177,177,2147487622,177,268,3936,3991,3936,3936,3974,3991,3936,
3986,3962,3970,3944,3944,3970,3970,3944,3970,3944,4671,4672,4672,4672,4673,3970,
0,3979,3987,3961,3961,3987,3948,3961,3947,3961,4688,4689,4689,4689,4690,3948,
0,0,0,0,0,0,0,0,3964,0,4705,4706,4706,4706,4707,3965,
0,0,0,0,0,0,0,0,0,0,0,0,0,0,0,0,
0,0,0,0,0,0,0,0,0,0,0,0,0,0,0,0,
0,0,0,0,0,0,0,0,0,0,0,0,0,0,0,0,
0,0,0,0,0,0,0,0,0,0,0,0,0,0,0,0
</chunk>
    <chunk x="0" y="0" width="16" height="16">
0,0,0,0,0,0,0,275,268,3991,177,3991,0,0,0,0,
3953,0,0,0,0,0,0,205,3953,3953,3953,0,0,0,0,0,
3953,3953,3953,0,0,0,0,205,3953,3953,3953,0,0,0,0,0,
3953,3953,3953,3953,177,178,0,205,3953,3953,3953,0,0,0,0,0,
3953,3953,3953,3953,206,207,0,205,3953,3953,3953,0,0,0,0,0,
3953,3953,3953,151,3944,236,0,205,3953,3953,3953,0,0,0,0,0,
152,3940,152,180,264,265,239,240,3953,3953,3953,0,0,0,0,0,
181,155,181,209,0,176,268,269,3953,3953,3953,0,0,0,0,0,
3936,3991,3991,177,268,269,3953,3943,3971,0,0,0,0,0,0,0,
3970,3944,3970,3970,3944,0,0,0,0,0,0,0,0,0,0,0,
3948,3961,3947,3987,3961,0,0,0,0,0,0,0,0,0,0,0,
0,0,0,0,0,0,0,0,0,0,0,0,0,0,0,0,
0,0,0,0,0,0,0,0,0,0,0,0,0,0,0,0,
0,0,0,0,0,0,0,0,0,0,0,0,0,0,0,0,
0,0,0,0,0,0,0,0,0,0,0,0,0,0,0,0,
0,0,0,0,0,0,0,0,0,0,0,0,0,0,0,0
</chunk>
   </data>
  </layer>
  <layer id="59" name="floor1_details" width="16" height="24">
   <data encoding="csv">
    <chunk x="-16" y="0" width="16" height="16">
0,0,0,0,0,0,0,0,0,0,0,0,0,0,0,0,
0,0,0,0,0,0,0,0,0,0,0,0,0,0,0,0,
0,0,0,0,0,0,0,0,0,0,4219,0,0,4233,0,0,
0,0,0,0,0,0,0,0,0,0,0,0,0,0,0,0,
0,0,0,0,0,0,0,0,0,0,0,0,0,0,0,0,
0,0,0,0,0,0,0,0,4233,0,0,0,0,0,0,4216,
0,0,0,0,0,0,0,0,0,0,0,4234,0,0,0,0,
0,0,0,0,0,0,0,0,0,0,0,0,0,0,0,0,
0,0,0,0,0,0,0,0,0,0,0,0,0,0,0,0,
0,0,0,0,0,0,0,0,0,0,0,0,0,0,0,0,
0,0,0,0,0,0,0,0,0,0,0,0,0,0,0,0,
0,0,0,0,0,0,0,0,0,0,0,0,0,0,0,0,
0,0,0,0,0,0,0,0,0,0,0,0,0,0,0,0,
0,0,0,0,0,0,0,0,0,0,0,0,0,0,0,0,
0,0,0,0,0,0,0,0,0,0,0,0,0,0,0,0,
0,0,0,0,0,0,0,0,0,0,0,0,0,0,0,0
</chunk>
    <chunk x="0" y="0" width="16" height="16">
0,0,0,0,0,0,0,4218,0,0,0,0,0,0,0,0,
0,0,0,0,0,0,0,0,0,0,0,0,0,0,0,0,
0,0,0,0,0,0,0,0,0,0,0,0,0,0,0,0,
0,0,0,0,0,0,0,0,0,0,0,0,0,0,0,0,
0,4216,0,0,0,4234,0,4233,0,0,0,0,0,0,0,0,
0,0,0,0,0,0,0,0,0,0,0,0,0,0,0,0,
0,0,0,0,0,0,0,4234,0,0,0,0,0,0,0,0,
0,0,0,0,0,0,0,0,0,0,0,0,0,0,0,0,
0,0,0,0,0,0,0,0,0,0,0,0,0,0,0,0,
0,0,0,0,0,0,0,0,0,0,0,0,0,0,0,0,
0,0,0,0,0,0,0,0,0,0,0,0,0,0,0,0,
0,0,0,0,0,0,0,0,0,0,0,0,0,0,0,0,
0,0,0,0,0,0,0,0,0,0,0,0,0,0,0,0,
0,0,0,0,0,0,0,0,0,0,0,0,0,0,0,0,
0,0,0,0,0,0,0,0,0,0,0,0,0,0,0,0,
0,0,0,0,0,0,0,0,0,0,0,0,0,0,0,0
</chunk>
   </data>
  </layer>
  <layer id="43" name="Floor1_dark" width="16" height="24">
   <data encoding="csv">
    <chunk x="-16" y="-16" width="16" height="16">
0,0,0,0,0,0,0,0,0,0,0,0,0,0,0,0,
0,0,0,0,0,0,0,0,0,0,0,0,0,0,0,0,
0,0,0,0,0,0,0,0,0,0,0,0,0,0,0,0,
0,0,0,0,0,0,0,0,0,0,0,0,0,0,0,0,
0,0,0,0,0,0,0,0,0,0,0,0,0,0,0,0,
0,0,0,0,0,0,0,0,0,0,0,0,0,0,0,0,
0,0,0,0,0,0,0,0,0,0,0,0,0,0,0,0,
0,0,0,0,0,0,0,0,0,0,0,0,0,0,0,0,
0,0,0,0,0,0,0,0,0,0,0,0,0,0,0,0,
0,0,0,0,0,0,0,0,0,0,0,0,0,0,0,0,
0,0,0,0,0,0,0,0,0,0,0,0,0,0,0,0,
0,0,0,0,0,0,0,0,0,0,0,0,0,0,0,0,
0,0,0,0,0,0,0,0,0,0,0,0,0,0,0,0,
0,0,0,0,0,0,0,0,0,4208,0,0,0,0,0,0,
0,0,0,0,0,0,0,0,0,4208,0,0,0,0,0,4208,
0,0,0,0,0,0,0,4213,0,4208,4208,0,0,0,0,4208
</chunk>
    <chunk x="-16" y="0" width="16" height="16">
0,0,0,0,0,0,4213,4213,0,4208,4208,4208,4208,4208,4208,4208,
0,0,0,0,0,0,4213,4208,4208,4208,4208,4193,4225,4194,4208,4208,
0,0,0,0,0,0,4213,4208,4193,4225,4225,4226,0,4224,4225,4225,
0,0,0,4190,4191,4213,4193,4225,4226,0,4195,4196,4196,4196,4197,0,
0,0,0,4207,4208,4208,4209,0,0,0,4212,4213,4213,4213,4214,0,
0,0,0,4224,4225,4225,4226,0,0,0,4229,4230,4230,4230,4231,0,
0,0,0,0,0,0,0,0,0,0,0,0,0,0,0,0,
0,0,0,0,0,0,0,0,0,0,0,0,0,0,0,0,
0,0,0,0,0,0,0,0,0,0,0,0,0,0,0,0,
0,0,0,0,0,0,0,0,0,0,0,0,0,0,0,0,
0,0,0,0,0,0,0,0,0,0,0,0,0,0,0,0,
0,0,0,0,0,0,0,0,0,0,0,0,0,0,0,0,
0,0,0,0,0,0,0,0,0,0,0,0,0,0,0,0,
0,0,0,0,0,0,0,0,0,0,0,0,0,0,0,0,
0,0,0,0,0,0,0,0,0,0,0,0,0,0,0,0,
0,0,0,0,0,0,0,0,0,0,0,0,0,0,0,0
</chunk>
    <chunk x="0" y="0" width="16" height="16">
0,0,4208,0,0,0,0,0,0,0,0,0,0,0,0,0,
4208,4208,4208,4208,0,0,0,0,0,0,0,0,0,0,0,0,
4194,4208,4208,4208,0,0,0,0,0,0,0,0,0,0,0,0,
4224,4225,4194,4208,4191,0,0,0,0,0,0,0,0,0,0,0,
0,0,4207,4208,4208,0,0,0,0,0,0,0,0,0,0,0,
0,0,4224,4225,4225,0,0,0,0,0,0,0,0,0,0,0,
0,0,0,0,0,0,0,0,0,0,0,0,0,0,0,0,
0,0,0,0,0,0,0,0,0,0,0,0,0,0,0,0,
0,0,0,0,0,0,0,0,0,0,0,0,0,0,0,0,
0,0,0,0,0,0,0,0,0,0,0,0,0,0,0,0,
0,0,0,0,0,0,0,0,0,0,0,0,0,0,0,0,
0,0,0,0,0,0,0,0,0,0,0,0,0,0,0,0,
0,0,0,0,0,0,0,0,0,0,0,0,0,0,0,0,
0,0,0,0,0,0,0,0,0,0,0,0,0,0,0,0,
0,0,0,0,0,0,0,0,0,0,0,0,0,0,0,0,
0,0,0,0,0,0,0,0,0,0,0,0,0,0,0,0
</chunk>
   </data>
  </layer>
  <layer id="57" name="plates1" width="16" height="24">
   <data encoding="csv">
    <chunk x="-16" y="0" width="16" height="16">
4623,4624,0,0,0,0,0,0,0,0,0,0,0,0,0,0,
4602,4603,0,0,0,0,0,0,0,0,0,0,0,0,0,0,
4563,4564,0,0,0,0,0,0,0,0,0,0,0,0,0,0,
4608,4609,0,0,0,0,0,0,0,0,0,0,0,0,0,0,
4569,4570,0,0,0,0,0,0,0,0,0,0,0,0,0,0,
4563,4564,0,0,0,0,0,0,0,0,0,0,0,0,0,0,
4602,4603,0,0,0,0,0,0,0,0,0,0,0,0,0,0,
4602,4567,4547,4568,0,0,0,0,0,0,0,0,0,0,0,0,
4636,4605,4580,4581,4542,4620,4539,4539,4617,4539,4542,4620,4539,4620,4617,4539,
0,4636,4630,4552,4555,4633,4552,4552,4630,4552,4555,4633,4552,4633,4630,4552,
0,0,0,0,0,0,0,0,0,0,0,0,0,0,0,0,
0,0,0,0,0,0,0,0,0,0,0,0,0,0,0,0,
0,0,0,0,0,0,0,0,0,0,0,0,0,0,0,0,
0,0,0,0,0,0,0,0,0,0,0,0,0,0,0,0,
0,0,0,0,0,0,0,0,0,0,0,0,0,0,0,0,
0,0,0,0,0,0,0,0,0,0,0,0,0,0,0,0
</chunk>
    <chunk x="0" y="0" width="16" height="16">
0,0,0,0,0,0,0,0,0,4547,4548,4549,0,0,0,0,
0,0,0,0,0,0,0,0,4545,4546,4561,4562,0,0,0,0,
0,0,0,0,0,0,0,0,4558,4559,4574,4575,0,0,0,0,
0,0,0,0,0,0,0,0,4571,4572,4587,4588,0,0,0,0,
0,0,0,0,0,0,0,0,4584,4585,4574,4575,0,0,0,0,
0,0,0,0,0,0,0,0,4597,4598,4587,4588,0,0,0,0,
0,0,0,0,0,0,0,0,4584,4585,4600,4601,0,0,0,0,
0,0,0,0,0,0,0,0,4597,4598,4613,4614,0,0,0,0,
4542,4620,4539,0,0,0,0,0,4610,4611,0,0,0,0,0,0,
4555,4633,4552,0,0,0,0,0,0,0,0,0,0,0,0,0,
0,0,0,0,0,0,4545,4546,4549,0,0,0,0,0,0,0,
0,0,0,0,0,4545,4566,4560,4567,4549,0,0,0,0,0,0,
0,0,0,0,0,4597,4598,4599,4600,4601,0,0,0,0,0,0,
0,0,0,0,0,4610,4611,4612,4613,4614,0,0,0,0,0,0,
0,0,0,0,0,0,0,0,0,0,0,0,0,0,0,0,
0,0,0,0,0,0,0,0,0,0,0,0,0,0,0,0
</chunk>
   </data>
  </layer>
 </group>
 <group id="80" name="Base">
  <layer id="69" name="Objects_under_walls2" width="16" height="24" visible="0">
   <data encoding="csv">
    <chunk x="-32" y="0" width="16" height="16">
0,0,0,0,0,0,0,0,0,0,0,0,0,0,0,0,
0,0,0,0,0,0,0,0,0,0,0,0,0,0,0,0,
0,0,0,0,0,0,0,0,0,0,0,0,0,0,0,0,
0,0,0,0,0,0,0,0,0,0,0,0,0,0,0,0,
0,0,0,0,0,0,0,0,0,0,0,0,0,0,0,0,
0,0,0,0,0,0,0,0,0,0,0,0,0,0,0,0,
0,0,0,0,0,0,0,0,0,0,0,0,0,0,0,0,
0,0,0,0,0,0,0,0,0,0,0,0,0,0,0,0,
0,0,0,0,0,0,0,0,0,0,0,0,0,0,0,0,
0,0,0,0,0,0,0,0,0,0,0,0,0,0,0,0,
0,0,0,0,0,0,0,0,0,0,0,0,0,0,0,0,
0,0,0,0,0,0,0,0,0,0,0,0,0,0,0,0,
0,0,0,0,7500,0,0,0,0,0,0,0,0,0,0,0,
0,0,0,0,7512,7527,7528,7523,0,0,0,0,0,0,0,0,
0,0,0,0,0,7539,7540,0,0,0,0,0,0,0,0,0,
0,0,0,0,0,0,0,0,0,0,0,0,0,0,0,0
</chunk>
    <chunk x="-16" y="0" width="16" height="16">
0,0,0,0,0,0,0,0,0,0,0,0,0,0,0,0,
0,0,0,0,0,0,0,0,0,0,0,0,0,0,0,0,
0,0,0,0,0,0,0,0,0,0,0,0,0,0,0,0,
0,0,0,0,0,0,0,0,0,0,0,0,0,0,0,0,
0,0,0,0,0,0,0,0,0,0,0,0,0,0,0,0,
0,0,0,0,0,0,0,0,0,0,0,0,0,0,0,0,
0,0,0,0,0,0,0,0,0,0,0,0,0,0,0,0,
0,0,0,0,0,0,0,0,0,0,0,0,0,0,0,0,
0,0,0,0,0,0,0,0,0,0,0,0,0,0,0,0,
0,0,0,0,0,0,5342,5343,5344,5345,0,0,0,0,0,5342,
0,0,0,0,0,0,5356,5357,5358,5359,0,0,0,0,0,5356,
0,0,0,0,0,0,5370,5371,5372,5373,0,0,0,0,0,5370,
0,0,7267,7268,7269,0,0,0,0,0,0,0,0,0,0,0,
0,0,7297,7298,7299,0,0,0,0,0,0,0,0,0,0,0,
6947,0,7327,7328,7329,0,0,0,0,0,0,0,0,0,0,0,
6947,0,0,0,0,0,0,0,0,0,0,0,0,0,2147490791,2147490790
</chunk>
    <chunk x="0" y="0" width="16" height="16">
0,0,0,0,0,0,0,0,0,0,0,0,0,0,0,0,
0,0,0,0,0,0,0,0,0,0,0,0,0,0,0,0,
0,0,0,0,0,0,0,0,0,0,0,0,0,0,0,0,
0,0,0,0,0,0,0,0,0,0,0,0,0,0,0,0,
0,0,0,0,0,0,0,0,7363,7364,7365,0,0,0,0,0,
0,0,0,0,0,0,0,0,7393,7394,7395,0,0,0,0,0,
0,0,0,0,0,0,0,0,7423,7424,7425,0,0,0,0,0,
0,0,0,0,0,0,0,0,0,0,0,0,0,0,0,0,
0,0,0,0,0,0,0,0,0,0,0,0,0,0,0,0,
5343,5344,5345,0,0,0,0,0,0,0,0,0,0,0,0,0,
5357,5358,5359,0,0,0,0,0,0,0,0,0,0,0,0,0,
5371,5372,5373,0,6824,6825,6826,0,6824,6825,6826,0,0,0,0,0,
0,0,0,0,6842,6843,6844,0,6842,6843,6844,0,0,0,0,0,
0,0,0,0,6860,6861,6862,0,6860,6861,6862,0,0,0,0,0,
0,0,0,0,6878,6879,6880,0,6878,6879,6880,0,0,0,0,0,
0,0,0,0,0,0,0,0,0,0,0,0,0,0,0,0
</chunk>
    <chunk x="-16" y="16" width="16" height="16">
6947,0,0,0,0,0,0,0,0,0,0,0,0,0,2147490821,2147490820,
6947,0,0,0,0,0,0,0,0,0,0,0,0,0,2147490851,2147490850,
6947,0,0,0,0,0,0,0,0,0,0,0,0,0,2147490881,2147490880,
0,0,0,0,0,0,0,0,0,0,0,0,0,0,0,0,
0,0,0,0,0,0,0,0,0,0,0,0,0,0,0,0,
0,0,0,0,0,0,0,0,0,0,0,0,0,0,0,0,
0,0,0,0,0,0,0,0,0,0,0,0,0,0,0,0,
0,0,0,0,0,0,0,0,0,0,0,0,0,0,0,0,
0,0,0,0,0,0,0,0,0,0,0,0,0,0,0,0,
0,0,0,0,0,0,0,0,0,0,0,0,0,0,0,0,
0,0,0,0,0,0,0,0,0,0,0,0,0,0,0,0,
0,0,0,0,0,0,0,0,0,0,0,0,0,0,0,0,
0,0,0,0,0,0,0,0,0,0,0,0,0,0,0,0,
0,0,0,0,0,0,0,0,0,0,0,0,0,0,0,0,
0,0,0,0,0,0,0,0,0,0,0,0,0,0,0,0,
0,0,0,0,0,0,0,0,0,0,0,0,0,0,0,0
</chunk>
   </data>
  </layer>
  <layer id="63" name="Objects_under_walls" width="16" height="24" visible="0">
   <data encoding="csv">
    <chunk x="-16" y="0" width="16" height="16">
0,0,0,0,0,0,0,0,0,0,0,0,0,0,0,0,
0,0,0,0,0,0,0,0,0,0,0,0,0,0,0,0,
0,0,0,0,0,0,0,0,0,0,0,0,0,0,0,0,
5714,5716,0,0,0,0,0,0,0,0,0,0,0,0,0,0,
0,0,0,0,0,0,0,0,0,0,0,0,0,0,0,0,
5714,5716,0,0,0,0,0,0,0,0,0,0,0,0,0,0,
0,0,0,0,0,0,0,0,0,0,0,0,0,0,0,0,
5714,5716,0,0,0,0,0,0,0,0,0,0,0,0,0,0,
0,0,0,5678,5678,5678,5678,5678,5678,5678,5678,5678,5678,5678,5678,5678,
0,0,0,0,0,0,0,0,0,0,0,0,0,0,0,0,
0,0,0,0,0,0,0,0,6842,6843,6844,6842,6843,6844,6842,6843,
0,0,0,0,0,0,0,0,6860,6861,6862,6860,6861,6862,6860,6861,
0,0,0,0,0,0,0,0,6878,6879,6880,6878,6879,6880,6878,6879,
0,0,0,0,0,0,0,0,0,0,0,0,0,0,0,0,
0,0,0,0,0,0,0,0,0,0,0,0,0,0,0,0,
0,0,0,0,0,0,0,0,0,0,0,0,0,0,0,0
</chunk>
    <chunk x="0" y="0" width="16" height="16">
0,0,0,0,0,0,0,0,0,0,0,0,0,0,0,0,
0,0,0,0,0,0,0,0,0,0,0,0,0,0,0,0,
0,0,0,0,0,0,0,0,0,0,0,0,0,0,0,0,
0,0,0,0,0,0,0,0,0,0,0,0,0,0,0,0,
0,0,0,0,0,0,0,0,0,0,0,0,0,0,0,0,
0,0,0,0,0,0,0,0,0,0,0,0,0,0,0,0,
0,0,0,0,0,0,0,0,0,0,0,0,0,0,0,0,
0,0,0,0,0,0,0,0,0,0,0,0,0,0,0,0,
5678,5678,5678,0,0,0,0,0,0,0,0,0,0,0,0,0,
0,0,0,0,0,0,0,0,0,0,0,0,0,0,0,0,
6844,0,0,0,0,0,0,0,0,0,0,0,0,0,0,0,
6862,0,0,0,0,0,0,0,0,0,0,0,0,0,0,0,
6880,0,0,0,0,0,0,0,0,0,0,0,0,0,0,0,
0,0,0,0,0,0,0,0,0,0,0,0,0,0,0,0,
0,0,0,0,0,0,0,0,0,0,0,0,0,0,0,0,
0,0,0,0,0,0,0,0,0,0,0,0,0,0,0,0
</chunk>
   </data>
  </layer>
  <layer id="38" name="Walls2" width="16" height="24">
   <data encoding="csv">
    <chunk x="-16" y="-16" width="16" height="16">
0,0,0,0,0,0,0,0,0,0,0,0,0,0,0,0,
0,0,0,0,0,0,0,0,0,0,0,0,0,0,0,0,
0,0,0,0,0,0,0,0,0,0,0,0,0,0,0,0,
0,0,0,0,0,0,0,0,0,0,0,0,0,0,0,0,
0,0,0,0,0,0,0,0,0,0,0,0,0,0,0,0,
0,0,0,0,0,0,0,0,0,0,0,0,0,0,0,0,
0,0,0,0,0,0,0,0,0,0,0,0,0,0,0,0,
0,0,0,0,0,0,0,0,0,0,0,0,0,0,0,0,
0,0,0,0,0,0,0,0,0,0,0,0,0,0,0,0,
0,0,0,0,0,0,0,0,0,0,0,0,0,0,0,0,
0,31,61,61,61,61,61,61,61,61,61,61,61,61,61,61,
0,60,61,61,61,61,61,61,61,61,61,61,61,61,61,61,
0,31,61,61,61,61,61,61,61,61,61,61,61,61,61,61,
0,60,61,61,61,61,61,61,61,61,61,61,61,61,61,61,
0,89,36,37,61,61,61,61,61,0,0,0,0,0,0,0,
0,118,39,40,61,61,0,0,0,0,0,0,0,0,0,0
</chunk>
    <chunk x="0" y="-16" width="16" height="16">
0,0,0,0,0,0,0,0,0,0,0,0,0,0,0,0,
0,0,0,0,0,0,0,0,0,0,0,0,0,0,0,0,
0,0,0,0,0,0,0,0,0,0,0,0,0,0,0,0,
0,0,0,0,0,0,0,0,0,0,0,0,0,0,0,0,
0,0,0,0,0,0,0,0,0,0,0,0,0,0,0,0,
0,0,0,0,0,0,0,0,0,0,0,0,0,0,0,0,
0,0,0,0,0,0,0,0,0,0,0,0,0,0,0,0,
0,0,0,0,0,0,0,0,0,0,0,0,0,0,0,0,
0,0,0,0,0,0,0,0,0,0,0,0,0,0,0,0,
0,0,0,0,0,0,0,0,0,0,0,0,0,0,0,0,
61,61,61,61,61,61,61,33,0,0,0,0,0,0,0,0,
61,61,61,61,61,61,61,62,0,0,0,0,0,0,0,0,
61,61,61,61,61,61,61,62,0,0,0,0,0,0,0,0,
61,61,61,61,61,61,61,62,0,0,0,0,0,0,0,0,
61,61,61,61,61,35,36,91,0,0,0,0,0,0,0,0,
0,0,0,61,61,38,39,120,4024,4071,4073,4071,0,0,0,0
</chunk>
    <chunk x="-32" y="0" width="16" height="16">
0,0,0,0,0,0,0,4064,0,0,0,0,0,0,4064,0,
0,0,0,0,0,0,0,0,0,0,0,0,0,0,0,0,
0,0,0,0,0,0,0,0,0,0,0,0,0,0,0,0,
0,0,0,0,0,0,4518,0,0,0,0,0,0,0,0,0,
0,0,0,0,0,0,0,0,0,0,0,0,0,0,0,0,
0,0,0,0,0,0,0,0,0,0,0,0,0,0,0,0,
0,0,0,0,0,0,0,0,0,0,0,0,0,0,0,0,
0,0,0,0,0,0,0,0,0,0,0,0,0,0,0,0,
0,0,0,0,0,0,0,0,0,0,0,0,0,0,0,0,
0,0,0,0,4073,4073,4073,4284,4285,4071,4466,4073,4071,4071,4025,0,
0,0,0,0,4090,4090,4370,4304,4305,4088,4089,4090,4088,4088,4042,0,
0,0,0,0,4107,4107,4107,4324,4325,4105,4106,4107,4105,4105,4059,0,
0,0,0,0,0,0,0,0,0,0,4055,0,0,0,4490,0,
0,0,0,0,0,0,0,0,0,0,4055,0,0,0,4510,0,
0,0,0,0,4047,3834,3834,0,0,0,4047,3835,0,0,4530,0,
0,0,0,0,3851,4362,4363,0,0,0,4364,3888,3889,3835,0,0
</chunk>
    <chunk x="-16" y="0" width="16" height="16">
0,0,68,69,37,0,0,0,0,0,0,0,0,0,0,0,
0,0,97,98,40,0,0,0,0,0,0,0,0,0,0,0,
0,0,126,127,69,0,0,0,0,0,0,0,0,0,0,0,
0,0,0,0,0,0,0,0,0,0,0,0,0,0,0,0,
0,0,0,0,0,0,0,0,0,0,0,0,0,0,0,0,
0,0,0,0,0,0,0,0,0,0,0,0,0,0,0,0,
0,0,0,0,0,0,0,0,0,0,0,0,0,0,0,0,
0,0,0,0,0,0,0,0,0,0,0,0,0,0,0,0,
0,0,0,0,0,0,0,0,0,0,0,0,0,0,0,0,
0,0,0,0,0,0,0,0,0,0,0,0,0,0,0,0,
0,0,0,0,0,0,0,0,0,0,0,0,0,0,0,0,
0,0,0,0,0,0,0,0,0,0,0,0,0,0,0,0,
0,0,0,0,0,0,0,0,0,0,0,0,0,0,0,0,
0,0,0,0,0,4041,4304,4305,4042,0,0,0,0,0,0,0,
0,0,0,0,0,4058,4324,4325,4059,0,0,0,0,4508,5754,5755,
0,0,0,4468,4073,4076,0,0,4075,4073,4469,0,0,4055,0,0
</chunk>
    <chunk x="0" y="0" width="16" height="16">
0,0,0,0,35,67,68,0,4041,4370,4090,4088,0,0,0,0,
0,0,0,0,38,96,0,0,4058,4105,4107,4105,0,0,0,0,
0,0,0,0,67,125,126,0,0,0,0,0,0,0,0,0,
0,0,0,0,0,0,0,0,0,0,0,0,0,0,0,0,
0,0,0,0,0,0,0,0,0,0,0,0,0,0,0,0,
0,0,0,0,0,0,0,0,0,0,0,0,0,0,0,0,
0,0,0,0,0,0,0,0,4511,0,0,0,0,0,0,0,
0,0,0,3833,3834,3889,3834,3889,4047,3889,3834,3834,0,0,0,0,
0,0,0,3850,4362,4363,4366,4367,4368,4364,4365,3851,0,0,0,0,
0,4468,4073,4063,4382,4383,4386,4387,4388,4384,4385,3868,0,0,0,0,
0,4488,4090,4080,4402,4403,4406,4407,4408,4404,4405,3885,0,0,0,0,
0,4508,4107,4097,4422,4423,0,0,0,4424,4425,3902,0,0,0,0,
0,4061,0,0,4442,4443,0,0,0,4444,4445,0,0,0,0,0,
0,4037,0,0,0,0,0,0,0,0,0,0,0,0,0,0,
4105,4054,0,0,0,0,0,0,0,0,0,0,0,0,0,0,
0,4465,4071,4071,0,0,4071,4073,4071,4073,4071,4073,0,0,0,0
</chunk>
    <chunk x="-32" y="16" width="16" height="16">
0,0,0,0,3838,4382,4383,4739,4740,4741,4384,4385,3839,3852,0,0,
0,0,0,0,3855,4402,4403,4756,4757,4758,4404,4405,3856,3852,0,0,
0,0,0,0,3872,4422,4423,4773,4774,4775,4424,4425,3873,3888,3834,4048,
0,0,0,0,0,4442,4443,0,0,0,4444,4445,4458,3868,3868,4065,
0,0,0,0,0,0,0,0,0,0,0,0,4478,3885,3885,4082,
0,0,0,0,0,0,0,0,0,0,0,0,4498,3902,3902,4099,
0,0,0,0,0,0,0,0,0,0,0,0,4518,0,0,0,
0,0,0,0,0,0,0,0,0,0,0,0,0,0,0,0,
0,0,0,0,0,0,0,0,0,0,0,0,0,0,0,0,
0,0,0,0,0,0,0,0,0,0,0,0,0,0,0,0,
0,0,0,0,0,0,0,0,0,0,0,0,0,0,0,0,
0,0,0,0,0,0,0,0,0,0,0,0,0,0,0,0,
0,0,0,0,0,0,0,0,0,0,0,0,0,0,0,0,
0,0,0,0,0,0,0,0,0,0,0,0,0,0,0,0,
0,0,0,0,0,0,0,0,0,0,0,0,0,0,0,0,
0,0,0,0,0,0,0,0,0,0,0,0,0,0,0,0
</chunk>
    <chunk x="-16" y="16" width="16" height="16">
0,0,0,4488,4090,4093,0,0,4092,4090,4489,0,0,4055,0,0,
0,0,0,4508,4107,4110,0,0,4109,4107,4509,0,0,4055,0,0,
0,0,0,4055,0,0,0,0,0,0,4470,0,0,4055,0,0,
4284,4285,4073,4470,0,0,0,0,0,0,4490,0,0,4465,0,0,
4304,4305,4090,4489,0,0,0,0,0,0,4510,0,0,4485,0,0,
4324,4325,4107,4509,0,0,0,0,0,0,0,0,0,4505,4107,4324,
0,0,0,4055,0,0,0,0,0,0,4471,0,0,0,0,0,
0,0,0,4055,0,0,0,0,0,0,4491,0,0,0,0,0,
0,0,0,0,0,0,0,0,0,0,0,0,0,0,0,0,
0,0,0,0,0,0,0,0,0,0,0,0,0,0,0,0,
0,0,0,0,0,0,0,0,0,0,0,0,0,0,0,0,
0,0,0,0,0,0,0,0,0,0,0,0,0,0,0,0,
0,0,0,0,0,0,0,0,0,0,0,0,0,0,0,0,
0,0,0,0,0,0,0,0,0,0,0,0,0,0,0,0,
0,0,0,0,0,0,0,0,0,0,0,0,0,0,0,0,
0,0,0,0,0,0,0,0,0,0,0,0,0,0,0,0
</chunk>
    <chunk x="0" y="16" width="16" height="16">
0,4485,4088,4088,0,0,4088,4090,4088,4090,4088,4090,0,0,0,0,
0,4505,4105,4105,0,0,4105,4107,4105,4107,4105,4107,0,0,0,0,
0,0,0,0,0,0,0,0,0,0,0,0,0,0,0,0,
0,0,0,0,0,0,0,0,0,0,0,0,0,0,0,0,
0,0,0,0,0,0,0,0,0,0,0,0,0,0,0,0,
4325,4107,4509,0,0,0,0,0,0,0,0,0,0,0,0,0,
0,0,4055,0,0,0,0,0,0,0,0,0,0,0,0,0,
0,0,4055,0,0,0,0,0,0,0,0,0,0,0,0,0,
0,0,0,0,0,0,0,0,0,0,0,0,0,0,0,0,
0,0,0,0,0,0,0,0,0,0,0,0,0,0,0,0,
0,0,0,0,0,0,0,0,0,0,0,0,0,0,0,0,
0,0,0,0,0,0,0,0,0,0,0,0,0,0,0,0,
0,0,0,0,0,0,0,0,0,0,0,0,0,0,0,0,
0,0,0,0,0,0,0,0,0,0,0,0,0,0,0,0,
0,0,0,0,0,0,0,0,0,0,0,0,0,0,0,0,
0,0,0,0,0,0,0,0,0,0,0,0,0,0,0,0
</chunk>
   </data>
  </layer>
  <layer id="37" name="Walls" width="16" height="24">
   <data encoding="csv">
    <chunk x="-32" y="-16" width="16" height="16">
0,0,0,0,0,0,0,0,0,0,0,0,0,0,0,0,
0,0,0,0,0,0,0,0,0,0,0,0,0,0,0,0,
0,0,0,0,0,0,0,0,0,0,0,0,0,0,0,0,
0,0,0,0,0,0,0,0,0,0,0,0,0,0,0,0,
0,0,0,0,0,0,0,0,0,0,0,0,0,0,0,0,
0,0,0,0,0,0,0,0,0,0,0,0,0,0,0,0,
0,0,0,0,0,0,0,0,0,0,0,0,0,0,0,0,
0,0,0,0,0,0,0,0,0,0,0,0,0,0,0,0,
0,0,0,0,0,0,0,0,0,0,0,0,0,0,0,0,
0,0,0,0,0,0,0,0,0,0,0,0,0,0,0,0,
0,0,0,0,0,0,3850,3851,3851,3851,3851,3851,3851,3851,3851,3852,
0,0,0,0,0,0,3850,3851,3851,3851,3851,3851,3851,3851,3851,3852,
0,0,0,0,0,0,3850,3851,3851,3851,3851,3851,3851,3851,3851,3852,
0,0,0,0,0,0,3850,3851,3851,3851,3851,3851,3851,3851,3851,3852,
0,0,0,0,0,0,3850,3851,3837,3842,4278,4279,3868,3843,3851,3852,
0,0,0,0,0,0,3850,3851,3844,3845,4298,4299,3885,3847,3851,3852
</chunk>
    <chunk x="-16" y="-16" width="16" height="16">
0,0,0,0,0,0,0,0,0,0,0,0,0,0,0,0,
0,0,0,0,0,0,0,0,0,0,0,0,0,0,0,0,
0,0,0,0,0,0,0,0,0,0,0,0,0,0,0,0,
0,0,0,0,0,0,0,0,0,0,0,0,0,0,0,0,
0,0,0,0,0,0,0,0,0,0,0,0,0,0,0,0,
0,0,0,0,0,0,0,0,0,0,0,0,0,0,0,0,
0,0,0,0,0,0,0,0,0,0,0,0,0,0,0,0,
0,0,0,0,0,0,0,0,0,0,0,0,0,0,0,0,
0,0,0,0,0,0,0,0,0,0,0,0,0,0,0,0,
0,0,0,0,0,0,0,0,0,0,0,0,0,0,0,0,
0,0,0,0,0,0,0,0,0,0,0,0,0,0,0,0,
0,0,0,0,0,0,0,0,0,0,0,0,0,0,0,0,
0,0,0,0,0,0,0,0,0,0,0,0,0,0,0,0,
0,0,0,0,0,0,0,0,0,0,0,0,0,0,0,0,
0,0,0,0,0,0,0,0,0,3851,4358,4359,3868,4360,4361,3851,
0,0,0,0,0,0,3851,4362,4363,3868,4382,4383,3885,4384,4385,3868
</chunk>
    <chunk x="0" y="-16" width="16" height="16">
0,0,0,0,0,0,0,0,0,0,0,0,0,0,0,0,
0,0,0,0,0,0,0,0,0,0,0,0,0,0,0,0,
0,0,0,0,0,0,0,0,0,0,0,0,0,0,0,0,
0,0,0,0,0,0,0,0,0,0,0,0,0,0,0,0,
0,0,0,0,0,0,0,0,0,0,0,0,0,0,0,0,
0,0,0,0,0,0,0,0,0,0,0,0,0,0,0,0,
0,0,0,0,0,0,0,0,0,0,0,0,0,0,0,0,
0,0,0,0,0,0,0,0,0,0,0,0,0,0,0,0,
0,0,0,0,0,0,0,0,0,0,0,0,0,0,0,0,
0,0,0,0,0,0,0,0,0,0,0,0,0,0,0,0,
0,0,0,0,0,0,0,0,0,0,0,0,0,0,0,0,
0,0,0,0,0,0,0,0,0,0,0,0,0,0,0,0,
0,0,0,0,0,0,0,0,0,0,0,0,0,0,0,0,
0,0,0,0,0,0,0,0,0,0,0,0,0,0,0,0,
0,0,0,0,0,0,0,0,0,0,0,0,0,0,0,0,
4364,4365,3851,0,0,0,0,0,0,0,0,0,0,0,0,0
</chunk>
    <chunk x="-32" y="0" width="16" height="16">
0,0,0,0,0,0,4458,0,3861,3862,4318,4319,3902,3864,0,4464,
0,0,0,0,0,0,4478,3885,3878,3879,4338,4339,0,3881,3859,4484,
0,0,0,0,0,0,4498,3902,3895,3896,0,0,0,3898,3876,4504,
0,0,0,0,0,0,0,0,0,0,0,0,0,0,0,4524,
0,0,0,0,0,0,0,0,0,0,0,0,0,0,0,0,
0,0,0,0,0,0,0,0,0,0,0,0,0,0,0,0,
0,0,0,0,0,0,0,0,0,0,0,0,0,0,0,0,
0,0,0,0,0,0,0,0,0,0,0,0,0,0,0,0,
0,0,0,0,0,0,0,0,0,0,0,0,0,0,0,0,
0,0,0,0,0,0,0,0,0,0,0,0,0,0,0,0,
0,0,0,0,0,0,0,0,0,0,0,0,0,0,0,0,
0,0,0,0,0,0,0,0,0,0,0,0,0,0,0,0,
0,0,0,0,0,0,0,0,0,0,0,0,0,0,0,0,
0,0,0,0,0,0,0,0,0,0,0,0,0,0,0,0,
0,0,0,0,0,0,0,0,0,0,0,0,0,0,0,0,
0,0,0,0,0,0,0,0,0,0,0,0,0,0,0,0
</chunk>
    <chunk x="-16" y="0" width="16" height="16">
0,0,0,0,0,3841,3868,4382,4383,3885,4402,4403,3902,4404,4405,3885,
0,0,0,0,0,3844,3885,4402,4403,3902,4422,4423,0,4424,4425,3902,
0,0,0,0,3867,3861,3902,4422,4423,0,4442,4443,0,4444,4445,0,
0,0,0,0,3884,3878,0,4442,4443,0,0,0,0,0,0,0,
0,0,0,0,3901,3895,0,0,0,0,0,0,0,0,0,0,
0,0,0,0,0,3912,0,0,0,0,0,0,0,0,0,0,
0,0,0,0,0,0,0,0,0,0,0,0,0,0,0,0,
0,0,0,0,0,0,0,0,0,0,0,0,0,0,0,0,
0,0,0,0,0,0,0,0,0,0,0,0,0,0,0,0,
0,0,0,0,0,0,0,0,0,0,0,0,0,0,0,0,
0,0,0,0,0,0,0,0,0,0,0,0,0,0,0,0,
0,0,0,0,0,0,0,0,0,0,0,0,0,0,0,0,
0,0,0,0,0,0,0,0,0,0,0,0,0,0,0,0,
0,0,0,0,0,0,0,0,0,0,0,0,0,0,0,0,
0,0,0,0,0,0,0,0,0,0,0,0,0,0,0,0,
0,0,0,0,0,0,0,0,0,0,0,0,0,0,0,0
</chunk>
    <chunk x="0" y="0" width="16" height="16">
4384,4385,3868,3843,0,0,0,0,0,0,0,0,0,0,0,0,
4404,4405,3885,3847,0,0,0,0,4470,0,0,0,0,0,0,0,
4424,4425,3902,3864,3869,0,0,0,4490,0,0,0,0,0,0,0,
4444,4445,0,3881,3886,0,0,0,4510,0,0,0,0,0,0,0,
0,0,0,3898,3903,0,0,0,0,0,0,0,0,0,0,0,
0,0,0,3915,0,0,0,0,0,0,0,0,0,0,0,0,
0,0,0,0,0,0,0,0,0,0,0,0,0,0,0,0,
0,0,0,0,0,0,0,0,0,0,0,0,0,0,0,0,
0,0,0,0,0,0,0,0,0,0,0,0,0,0,0,0,
0,0,0,0,0,0,0,0,0,0,0,0,0,0,0,0,
0,0,0,0,0,0,0,0,0,0,0,0,0,0,0,0,
0,0,0,0,0,0,0,0,0,0,0,0,0,0,0,0,
0,0,0,0,0,0,0,0,0,0,0,0,0,0,0,0,
0,0,0,0,0,0,0,0,0,0,0,0,0,0,0,0,
0,0,0,0,0,0,0,0,0,0,0,0,0,0,0,0,
0,0,0,0,0,0,0,0,0,0,0,0,0,0,0,0
</chunk>
    <chunk x="-32" y="16" width="16" height="16">
0,0,0,0,0,0,0,0,0,0,0,0,0,0,0,0,
0,0,0,0,0,0,0,0,0,0,0,0,0,0,0,0,
0,0,0,0,0,0,0,0,0,0,0,0,0,0,0,0,
0,0,0,0,0,0,0,0,0,0,0,0,0,0,0,4464,
0,0,0,0,0,0,0,0,0,0,0,0,0,0,0,4484,
0,0,0,0,0,0,0,0,0,0,0,0,0,0,0,4504,
0,0,0,0,0,0,0,0,0,0,0,0,0,0,0,4524,
0,0,0,0,0,0,0,0,0,0,0,0,0,0,0,0,
0,0,0,0,0,0,0,0,0,0,0,0,0,0,0,0,
0,0,0,0,0,0,0,0,0,0,0,0,0,0,0,0,
0,0,0,0,0,0,0,0,0,0,0,0,0,0,0,0,
0,0,0,0,0,0,0,0,0,0,0,0,0,0,0,0,
0,0,0,0,0,0,0,0,0,0,0,0,0,0,0,0,
0,0,0,0,0,0,0,0,0,0,0,0,0,0,0,0,
0,0,0,0,0,0,0,0,0,0,0,0,0,0,0,0,
0,0,0,0,0,0,0,0,0,0,0,0,0,0,0,0
</chunk>
    <chunk x="-16" y="16" width="16" height="16">
0,0,0,0,0,0,0,0,0,0,0,0,0,0,0,0,
0,0,0,0,0,0,0,0,0,0,0,0,0,0,0,0,
0,0,0,0,0,0,0,0,0,0,0,0,0,0,0,0,
0,0,0,4469,0,0,0,0,0,0,0,0,0,0,0,0,
0,0,0,0,0,0,0,0,0,0,0,0,0,0,0,0,
0,0,0,0,0,0,0,0,0,0,0,0,0,0,0,0,
0,0,0,0,0,0,0,0,0,0,0,0,0,0,0,0,
0,0,0,0,0,0,0,0,0,0,0,0,0,0,0,0,
0,0,0,0,0,0,0,0,0,0,0,0,0,0,0,0,
0,0,0,0,0,0,0,0,0,0,0,0,0,0,0,0,
0,0,0,0,0,0,0,0,0,0,0,0,0,0,0,0,
0,0,0,0,0,0,0,0,0,0,0,0,0,0,0,0,
0,0,0,0,0,0,0,0,0,0,0,0,0,0,0,0,
0,0,0,0,0,0,0,0,0,0,0,0,0,0,0,0,
0,0,0,0,0,0,0,0,0,0,0,0,0,0,0,0,
0,0,0,0,0,0,0,0,0,0,0,0,0,0,0,0
</chunk>
   </data>
  </layer>
  <group id="90" name="Door Open">
   <layer id="93" name="Tile Layer 36" width="16" height="24">
    <data encoding="csv">
     <chunk x="0" y="0" width="16" height="16">
0,0,0,0,0,0,0,0,0,0,0,0,0,0,0,0,
0,0,0,0,0,0,0,0,0,0,0,0,0,0,0,0,
0,0,0,0,0,0,0,0,0,0,0,0,0,0,0,0,
0,0,0,0,0,0,0,0,0,0,0,0,0,0,0,0,
0,0,0,0,0,0,0,0,0,0,0,0,0,0,0,0,
0,0,0,0,0,0,0,0,0,0,0,0,0,0,0,0,
0,0,0,0,0,0,0,0,0,0,0,0,0,0,0,0,
0,0,0,0,0,0,0,0,0,0,0,0,0,0,0,0,
0,0,0,0,0,0,0,0,0,0,0,0,0,0,0,0,
0,0,0,0,0,0,0,0,0,0,0,0,0,0,0,0,
0,0,0,0,0,0,0,0,0,0,0,0,0,0,0,0,
0,0,0,0,0,0,0,0,0,0,0,0,0,0,0,0,
0,0,0,0,0,0,0,0,0,0,0,0,0,0,0,0,
0,0,0,0,0,0,0,0,0,0,0,0,0,0,0,0,
0,0,0,0,0,0,0,0,0,0,0,0,0,0,0,0,
0,0,0,0,4284,4285,0,0,0,0,0,0,0,0,0,0
</chunk>
     <chunk x="0" y="16" width="16" height="16">
0,0,0,0,4304,4305,0,0,0,0,0,0,0,0,0,0,
0,0,0,0,4324,4325,0,0,0,0,0,0,0,0,0,0,
0,0,0,0,0,0,0,0,0,0,0,0,0,0,0,0,
0,0,0,0,0,0,0,0,0,0,0,0,0,0,0,0,
0,0,0,0,0,0,0,0,0,0,0,0,0,0,0,0,
0,0,0,0,0,0,0,0,0,0,0,0,0,0,0,0,
0,0,0,0,0,0,0,0,0,0,0,0,0,0,0,0,
0,0,0,0,0,0,0,0,0,0,0,0,0,0,0,0,
0,0,0,0,0,0,0,0,0,0,0,0,0,0,0,0,
0,0,0,0,0,0,0,0,0,0,0,0,0,0,0,0,
0,0,0,0,0,0,0,0,0,0,0,0,0,0,0,0,
0,0,0,0,0,0,0,0,0,0,0,0,0,0,0,0,
0,0,0,0,0,0,0,0,0,0,0,0,0,0,0,0,
0,0,0,0,0,0,0,0,0,0,0,0,0,0,0,0,
0,0,0,0,0,0,0,0,0,0,0,0,0,0,0,0,
0,0,0,0,0,0,0,0,0,0,0,0,0,0,0,0
</chunk>
    </data>
   </layer>
  </group>
  <group id="91" name="Door Close">
   <layer id="92" name="Tile Layer 35" width="16" height="24">
    <data encoding="csv">
     <chunk x="0" y="0" width="16" height="16">
0,0,0,0,0,0,0,0,0,0,0,0,0,0,0,0,
0,0,0,0,0,0,0,0,0,0,0,0,0,0,0,0,
0,0,0,0,0,0,0,0,0,0,0,0,0,0,0,0,
0,0,0,0,0,0,0,0,0,0,0,0,0,0,0,0,
0,0,0,0,0,0,0,0,0,0,0,0,0,0,0,0,
0,0,0,0,0,0,0,0,0,0,0,0,0,0,0,0,
0,0,0,0,0,0,0,0,0,0,0,0,0,0,0,0,
0,0,0,0,0,0,0,0,0,0,0,0,0,0,0,0,
0,0,0,0,0,0,0,0,0,0,0,0,0,0,0,0,
0,0,0,0,0,0,0,0,0,0,0,0,0,0,0,0,
0,0,0,0,0,0,0,0,0,0,0,0,0,0,0,0,
0,0,0,0,0,0,0,0,0,0,0,0,0,0,0,0,
0,0,0,0,0,0,0,0,0,0,0,0,0,0,0,0,
0,0,0,0,0,0,0,0,0,0,0,0,0,0,0,0,
0,0,0,0,0,0,0,0,0,0,0,0,0,0,0,0,
0,0,0,0,5736,5737,0,0,0,0,0,0,0,0,0,0
</chunk>
     <chunk x="0" y="16" width="16" height="16">
0,0,0,0,5744,5745,0,0,0,0,0,0,0,0,0,0,
0,0,0,0,5752,5753,0,0,0,0,0,0,0,0,0,0,
0,0,0,0,0,0,0,0,0,0,0,0,0,0,0,0,
0,0,0,0,0,0,0,0,0,0,0,0,0,0,0,0,
0,0,0,0,0,0,0,0,0,0,0,0,0,0,0,0,
0,0,0,0,0,0,0,0,0,0,0,0,0,0,0,0,
0,0,0,0,0,0,0,0,0,0,0,0,0,0,0,0,
0,0,0,0,0,0,0,0,0,0,0,0,0,0,0,0,
0,0,0,0,0,0,0,0,0,0,0,0,0,0,0,0,
0,0,0,0,0,0,0,0,0,0,0,0,0,0,0,0,
0,0,0,0,0,0,0,0,0,0,0,0,0,0,0,0,
0,0,0,0,0,0,0,0,0,0,0,0,0,0,0,0,
0,0,0,0,0,0,0,0,0,0,0,0,0,0,0,0,
0,0,0,0,0,0,0,0,0,0,0,0,0,0,0,0,
0,0,0,0,0,0,0,0,0,0,0,0,0,0,0,0,
0,0,0,0,0,0,0,0,0,0,0,0,0,0,0,0
</chunk>
    </data>
   </layer>
  </group>
  <layer id="65" name="Objects0" width="16" height="24">
   <data encoding="csv">
    <chunk x="-32" y="0" width="16" height="16">
0,0,0,0,0,0,0,5346,5347,0,0,0,0,2147488995,2147488994,0,
0,0,0,0,0,0,0,5360,5361,0,0,0,0,2147489009,2147489008,0,
0,0,0,0,0,0,0,5374,5375,0,0,0,0,2147489023,2147489022,0,
0,0,0,0,0,0,0,0,0,0,0,0,0,0,0,0,
0,0,0,0,0,0,0,0,0,0,0,0,0,0,0,0,
0,0,0,0,0,0,0,0,0,0,0,0,0,0,0,0,
0,0,0,0,0,0,0,0,0,0,0,0,0,0,0,0,
0,0,0,0,0,0,0,0,0,0,0,0,0,0,0,0,
0,0,0,0,0,0,0,0,0,0,0,0,0,0,0,0,
0,0,0,0,0,0,0,0,0,0,0,0,0,0,0,0,
0,0,0,0,0,0,0,0,0,0,0,0,0,0,0,0,
0,0,0,0,0,0,0,0,0,0,0,0,0,0,0,0,
0,0,0,0,0,0,0,0,0,0,0,0,0,6424,0,0,
0,0,0,0,0,0,0,0,0,0,0,0,0,6444,0,0,
0,0,0,0,0,0,0,0,0,0,0,0,0,0,0,0,
0,0,0,0,0,0,0,0,0,0,0,0,0,0,0,0
</chunk>
    <chunk x="-16" y="0" width="16" height="16">
0,0,0,0,5350,0,0,0,0,0,0,0,0,0,0,0,
0,0,0,0,0,0,0,0,0,0,0,0,0,0,0,0,
0,0,0,0,0,0,0,0,0,0,0,0,0,0,0,0,
0,0,0,0,0,0,0,0,0,0,0,0,0,0,0,0,
0,0,0,0,0,0,0,0,0,0,0,0,0,0,0,0,
0,0,0,0,0,0,0,0,0,0,0,0,0,0,0,0,
0,0,0,0,0,0,0,0,0,0,0,0,0,0,0,0,
0,0,0,0,0,0,0,0,0,0,0,0,0,0,0,0,
0,0,0,0,0,0,0,0,0,0,0,0,0,0,0,0,
0,0,0,0,0,0,0,0,0,0,0,0,0,0,0,0,
0,0,0,0,7211,7212,7213,0,0,0,0,0,0,0,0,0,
0,0,0,0,7241,7242,7243,0,0,0,0,0,0,0,0,0,
0,0,0,0,0,0,0,0,0,0,0,0,0,0,0,0,
0,0,0,0,0,0,0,0,0,0,0,0,0,0,0,0,
0,0,0,0,0,0,0,0,0,0,0,0,0,0,0,0,
0,0,0,0,0,0,0,0,0,0,0,0,0,0,0,0
</chunk>
    <chunk x="0" y="0" width="16" height="16">
0,0,0,0,0,0,0,0,0,0,0,0,0,0,0,0,
0,0,0,0,0,0,0,0,0,7151,7152,7153,0,0,0,0,
0,0,0,0,0,0,0,0,0,7181,7182,7183,0,0,0,0,
0,0,0,0,0,0,0,0,0,5383,0,0,0,0,0,0,
0,0,0,0,0,0,0,0,0,0,0,0,0,0,0,0,
0,0,0,0,0,0,0,0,0,0,0,0,0,0,0,0,
0,0,0,0,0,0,0,0,0,0,0,0,0,0,0,0,
0,0,0,0,0,0,0,0,0,0,0,0,0,0,0,0,
0,0,0,0,0,0,0,0,0,0,0,0,0,0,0,0,
0,0,0,0,2147488995,2147488994,0,0,0,5346,5347,0,0,0,0,0,
0,0,0,0,2147489009,2147489008,0,0,0,5360,5361,0,0,0,0,0,
0,0,0,0,2147489023,2147489022,0,0,0,5374,5375,0,0,0,0,0,
0,0,0,0,0,0,0,0,0,0,0,0,0,0,0,0,
0,0,0,0,0,0,0,0,0,0,0,0,0,0,0,0,
0,0,0,0,0,0,0,0,0,0,0,0,0,0,0,0,
0,0,0,0,0,0,0,0,0,0,0,0,0,0,0,0
</chunk>
    <chunk x="-32" y="16" width="16" height="16">
0,0,0,0,0,0,7460,7461,0,7460,7461,0,0,0,0,0,
0,0,0,0,0,0,7472,7473,0,7472,7473,0,0,0,0,0,
0,0,0,0,0,0,7484,7485,0,7484,7485,0,0,0,0,0,
0,0,0,0,0,0,0,0,0,0,0,0,0,0,0,0,
0,0,0,0,0,0,0,0,0,0,0,0,0,0,0,0,
0,0,0,0,0,0,0,0,0,0,0,0,0,0,0,0,
0,0,0,0,0,0,0,0,6878,0,6880,0,0,0,0,0,
0,0,0,0,0,0,0,0,0,0,0,0,0,0,0,0,
0,0,0,0,0,0,0,0,0,0,0,0,0,0,0,0,
0,0,0,0,0,0,0,0,0,0,0,0,0,0,0,0,
0,0,0,0,0,0,0,0,0,0,0,0,0,0,0,0,
0,0,0,0,0,0,0,0,0,0,0,0,0,0,0,0,
0,0,0,0,0,0,0,0,0,0,0,0,0,0,0,0,
0,0,0,0,0,0,0,0,0,0,0,0,0,0,0,0,
0,0,0,0,0,0,0,0,0,0,0,0,0,0,0,0,
0,0,0,0,0,0,0,0,0,0,0,0,0,0,0,0
</chunk>
   </data>
  </layer>
  <layer id="41" name="Objects2" width="16" height="24">
   <data encoding="csv">
    <chunk x="-16" y="-16" width="16" height="16">
0,0,0,0,0,0,0,0,0,0,0,0,0,0,0,0,
0,0,0,0,0,0,0,0,0,0,0,0,0,0,0,0,
0,0,0,0,0,0,0,0,0,0,0,0,0,0,0,0,
0,0,0,0,0,0,0,0,0,0,0,0,0,0,0,0,
0,0,0,0,0,0,0,0,0,0,0,0,0,0,0,0,
0,0,0,0,0,0,0,0,0,0,0,0,0,0,0,0,
0,0,0,0,0,0,0,0,0,0,0,0,0,0,0,0,
0,0,0,0,0,0,0,0,0,0,0,0,0,0,0,0,
0,0,0,0,0,0,0,0,0,0,0,0,0,0,0,0,
0,0,0,0,0,0,0,0,0,0,0,0,0,0,0,0,
0,0,0,0,0,0,0,0,0,0,0,0,0,0,0,0,
0,0,0,0,0,0,0,0,0,0,0,0,0,0,0,0,
0,0,0,0,0,0,0,0,0,0,0,0,0,0,0,0,
0,0,0,0,0,0,0,0,0,0,0,0,0,0,0,0,
0,0,0,0,0,0,0,0,0,0,0,0,4426,4427,0,0,
0,0,0,0,0,0,0,0,0,0,0,0,4446,4447,0,0
</chunk>
    <chunk x="0" y="-16" width="16" height="16">
0,0,0,0,0,0,0,0,0,0,0,0,0,0,0,0,
0,0,0,0,0,0,0,0,0,0,0,0,0,0,0,0,
0,0,0,0,0,0,0,0,0,0,0,0,0,0,0,0,
0,0,0,0,0,0,0,0,0,0,0,0,0,0,0,0,
0,0,0,0,0,0,0,0,0,0,0,0,0,0,0,0,
0,0,0,0,0,0,0,0,0,0,0,0,0,0,0,0,
0,0,0,0,0,0,0,0,0,0,0,0,0,0,0,0,
0,0,0,0,0,0,0,0,0,0,0,0,0,0,0,0,
0,0,0,0,0,0,0,0,0,0,0,0,0,0,0,0,
0,0,0,0,0,0,0,0,0,0,0,0,0,0,0,0,
0,0,0,0,0,0,0,0,0,0,0,0,0,0,0,0,
0,0,0,0,0,0,0,0,0,0,0,0,0,0,0,0,
0,0,0,0,0,0,0,0,0,0,0,0,0,0,0,0,
0,0,0,0,0,0,0,0,0,0,0,0,0,0,0,0,
0,0,0,0,0,0,0,0,0,0,0,0,0,0,0,0,
0,0,0,0,0,0,0,0,0,0,4333,4334,0,0,0,0
</chunk>
    <chunk x="-32" y="0" width="16" height="16">
0,0,0,0,0,0,0,0,0,0,0,0,0,0,2147489659,2147489658,
0,0,0,0,0,0,0,0,0,0,0,0,0,0,2147489703,2147489702,
0,0,0,0,0,0,0,0,0,0,0,0,0,0,2147489747,2147489746,
0,0,0,0,0,0,0,0,0,0,0,0,0,0,2147489791,2147489790,
0,0,0,0,0,0,0,0,0,0,0,0,0,0,0,0,
0,0,0,0,0,0,0,0,0,0,0,0,0,0,0,0,
0,0,0,0,0,0,0,0,0,0,0,0,0,0,0,0,
0,0,0,0,0,0,0,0,0,0,0,0,0,0,0,0,
0,0,0,0,0,0,0,0,0,0,0,0,0,0,0,0,
0,0,0,0,0,0,0,0,0,0,0,4333,4334,4335,0,0,
0,0,0,0,0,0,0,0,0,0,4447,4353,4354,4355,0,0,
0,0,0,0,0,0,0,0,0,0,0,4373,4374,4375,0,0,
0,0,0,0,0,0,0,0,0,0,0,0,0,0,0,0,
0,0,0,0,0,0,0,0,0,0,0,0,0,0,0,0,
0,0,0,0,0,0,0,0,0,0,0,0,0,0,0,0,
0,0,0,0,0,0,0,0,0,0,0,0,0,0,0,0
</chunk>
    <chunk x="-16" y="0" width="16" height="16">
2147489657,0,0,0,0,0,5596,5597,0,0,0,0,0,0,0,0,
2147489701,0,0,0,0,0,5600,5601,0,0,0,0,0,0,0,0,
2147489745,0,0,0,0,0,0,0,0,0,0,0,0,0,0,0,
2147489789,0,0,0,0,0,0,0,0,0,4433,4434,2147488082,2147488082,4435,0,
0,4430,4431,4432,0,0,0,0,0,0,4453,4454,2147488102,4454,4455,0,
0,0,0,4452,0,0,0,0,0,0,4473,4474,2147488122,4474,4475,0,
0,0,0,0,0,0,0,0,4290,0,0,0,0,0,0,0,
0,0,0,0,0,0,0,0,4310,0,0,0,0,0,0,0,
0,0,0,0,0,0,0,0,4330,0,0,0,0,0,0,0,
0,0,0,0,0,0,0,0,0,0,0,0,0,0,0,0,
0,0,0,0,0,0,0,0,0,0,0,0,0,0,0,0,
0,0,7405,7406,7407,0,0,0,0,0,0,0,0,0,0,0,
0,0,7435,7436,7437,0,0,0,0,0,0,0,0,0,0,0,
0,0,0,0,0,0,0,0,0,0,0,0,0,0,0,0,
0,0,0,0,0,0,0,0,0,0,0,0,0,0,0,0,
0,0,0,0,5596,4427,0,0,0,5596,4427,0,0,0,0,0
</chunk>
    <chunk x="0" y="0" width="16" height="16">
0,0,5596,5597,0,0,0,0,0,0,4353,4354,0,0,0,0,
0,0,5600,5601,0,0,0,0,0,0,4373,4374,0,0,0,0,
0,0,0,0,0,0,0,0,0,0,7983,7984,0,0,0,0,
0,0,0,0,0,0,0,0,0,0,7995,7996,0,0,0,0,
0,0,0,0,0,4430,4431,4432,0,0,0,0,0,0,0,0,
0,0,0,0,0,0,0,0,0,0,0,0,0,0,0,0,
4290,0,0,0,0,0,0,0,0,0,0,0,0,0,0,0,
4310,0,0,0,0,0,0,0,0,0,0,0,0,0,0,0,
4330,0,0,0,0,0,0,0,0,0,0,0,0,0,0,0,
0,0,0,0,0,0,0,0,0,0,0,0,0,0,0,0,
0,0,0,0,0,0,0,0,0,0,0,0,0,0,0,0,
0,0,0,0,0,0,0,0,0,0,0,0,0,0,0,0,
0,0,0,0,0,0,0,0,0,0,0,0,0,0,0,0,
0,0,0,0,0,0,0,0,0,0,0,0,0,0,0,0,
0,0,0,0,0,0,0,0,0,0,0,0,0,0,0,0,
0,0,0,0,0,0,0,0,0,0,0,0,0,0,0,0
</chunk>
    <chunk x="-32" y="16" width="16" height="16">
0,0,0,0,0,0,0,0,0,0,0,0,0,0,0,0,
0,0,0,0,0,0,0,0,0,0,0,0,0,0,0,0,
0,0,0,0,0,0,0,0,0,0,0,0,0,0,0,0,
0,0,0,0,0,0,0,0,0,0,0,0,0,4333,4335,0,
0,0,0,0,0,0,0,0,0,0,0,0,0,4353,4355,0,
0,0,0,0,0,0,0,0,0,0,0,0,0,4373,4375,0,
0,0,0,0,0,0,0,0,0,0,0,0,0,0,0,0,
0,0,0,0,0,0,0,0,0,0,0,0,0,0,0,0,
0,0,0,0,0,0,0,0,0,0,0,0,0,0,0,0,
0,0,0,0,0,0,0,0,0,0,0,0,0,0,0,0,
0,0,0,0,0,0,0,0,0,0,0,0,0,0,0,0,
0,0,0,0,0,0,0,0,0,0,0,0,0,0,0,0,
0,0,0,0,0,0,0,0,0,0,0,0,0,0,0,0,
0,0,0,0,0,0,0,0,0,0,0,0,0,0,0,0,
0,0,0,0,0,0,0,0,0,0,0,0,0,0,0,0,
0,0,0,0,0,0,0,0,0,0,0,0,0,0,0,0
</chunk>
    <chunk x="-16" y="16" width="16" height="16">
0,0,0,0,5600,4447,0,0,0,5600,4447,0,0,0,0,0,
0,0,0,0,0,0,0,0,0,0,0,0,0,0,0,0,
0,0,0,0,0,0,0,0,0,0,0,0,0,0,0,0,
0,0,0,0,0,0,0,0,0,0,0,0,0,0,0,0,
0,0,0,0,4391,4392,4393,4393,4394,4395,0,0,0,0,0,0,
0,0,0,0,4411,4412,4413,4413,4414,4415,0,0,0,0,0,0,
0,0,0,0,0,0,0,0,0,0,0,0,0,0,0,0,
0,0,0,0,0,0,0,0,0,0,0,0,0,0,0,0,
0,0,0,0,0,0,0,0,0,0,0,0,0,0,0,0,
0,0,0,0,0,0,0,0,0,0,0,0,0,0,0,0,
0,0,0,0,0,0,0,0,0,0,0,0,0,0,0,0,
0,0,0,0,0,0,0,0,0,0,0,0,0,0,0,0,
0,0,0,0,0,0,0,0,0,0,0,0,0,0,0,0,
0,0,0,0,0,0,0,0,0,0,0,0,0,0,0,0,
0,0,0,0,0,0,0,0,0,0,0,0,0,0,0,0,
0,0,0,0,0,0,0,0,0,0,0,0,0,0,0,0
</chunk>
    <chunk x="0" y="16" width="16" height="16">
0,0,0,0,0,0,0,0,0,0,0,0,0,0,0,0,
0,0,4371,4372,0,0,4373,4374,4374,4375,0,0,0,0,0,0,
0,0,0,0,0,0,0,0,0,0,0,0,0,0,0,0,
0,0,0,0,0,0,0,0,0,0,0,0,0,0,0,0,
0,0,0,0,0,0,0,0,0,0,0,0,0,0,0,0,
0,0,0,0,0,0,0,0,0,0,0,0,0,0,0,0,
0,0,0,0,0,0,0,0,0,0,0,0,0,0,0,0,
0,0,0,0,0,0,0,0,0,0,0,0,0,0,0,0,
0,0,0,0,0,0,0,0,0,0,0,0,0,0,0,0,
0,0,0,0,0,0,0,0,0,0,0,0,0,0,0,0,
0,0,0,0,0,0,0,0,0,0,0,0,0,0,0,0,
0,0,0,0,0,0,0,0,0,0,0,0,0,0,0,0,
0,0,0,0,0,0,0,0,0,0,0,0,0,0,0,0,
0,0,0,0,0,0,0,0,0,0,0,0,0,0,0,0,
0,0,0,0,0,0,0,0,0,0,0,0,0,0,0,0,
0,0,0,0,0,0,0,0,0,0,0,0,0,0,0,0
</chunk>
   </data>
  </layer>
  <layer id="61" name="Objects3" width="16" height="24">
   <data encoding="csv">
    <chunk x="-32" y="0" width="16" height="16">
0,0,0,0,0,0,0,0,0,0,0,0,0,0,0,0,
0,0,0,0,0,0,0,0,0,0,0,0,0,0,0,0,
0,0,0,0,0,0,0,0,0,0,0,0,0,0,0,0,
0,0,0,0,0,0,0,0,0,0,0,0,0,0,0,0,
0,0,0,0,0,0,0,0,0,0,0,0,0,0,0,0,
0,0,0,0,0,0,0,0,0,0,0,0,0,0,0,0,
0,0,0,0,0,0,0,0,0,0,0,0,0,0,0,0,
0,0,0,0,0,0,0,0,0,0,0,0,0,0,0,0,
0,0,0,0,0,0,0,0,0,0,0,0,0,0,0,0,
0,0,0,0,0,0,0,0,0,0,0,0,0,0,0,0,
0,0,0,0,0,0,0,0,0,0,0,7637,7638,7639,0,0,
0,0,0,0,0,0,0,0,0,0,0,7649,7650,7651,0,0,
0,0,0,0,0,0,0,0,0,0,0,0,0,0,0,0,
0,0,0,0,0,0,0,0,0,0,0,0,0,0,0,0,
0,0,0,0,0,0,0,0,0,0,0,0,0,0,0,0,
0,0,0,0,0,0,0,0,0,0,0,0,0,0,0,0
</chunk>
    <chunk x="-16" y="0" width="16" height="16">
0,0,0,0,0,0,0,0,0,0,0,0,0,0,0,0,
0,0,0,0,0,0,7460,7461,0,0,0,0,0,0,0,0,
0,0,0,0,0,0,7472,7473,0,0,2147490914,0,0,0,2147490910,0,
0,0,0,0,0,0,7484,7485,0,0,2147490944,0,0,0,2147490940,0,
0,0,0,0,0,0,0,0,0,0,2147490974,2147490973,2147490972,2147490971,2147490970,0,
0,0,0,0,0,0,0,0,0,0,0,0,0,0,0,0,
0,0,0,0,0,0,0,0,0,0,0,0,0,0,0,0,
0,0,0,0,0,0,0,0,0,0,0,0,0,0,0,0,
0,0,0,0,0,0,0,0,0,0,0,0,0,0,0,0,
0,0,0,0,0,0,0,0,0,0,0,0,0,0,0,0,
0,0,0,0,0,0,0,0,0,0,0,0,0,0,0,0,
0,0,0,0,0,0,0,0,0,0,0,0,0,0,0,0,
0,0,0,0,0,0,0,0,0,0,0,0,0,0,0,0,
0,0,0,0,0,0,0,0,0,0,0,0,0,0,0,0,
0,0,0,0,0,0,0,0,0,0,0,0,0,0,0,0,
0,0,0,0,0,0,0,0,0,0,0,0,0,0,0,0
</chunk>
    <chunk x="0" y="0" width="16" height="16">
0,0,0,0,0,0,0,0,0,0,0,0,0,0,0,0,
0,7460,7461,0,0,0,0,0,0,0,0,0,0,0,0,0,
0,7472,7473,0,0,0,0,0,0,0,0,0,0,0,0,0,
0,7484,7485,0,0,0,0,0,0,0,0,0,0,0,0,0,
0,0,0,0,0,0,0,0,0,0,0,0,0,0,0,0,
0,0,0,0,0,0,0,0,0,0,0,0,0,0,0,0,
0,0,0,0,0,0,0,0,0,0,0,0,0,0,0,0,
0,0,0,0,0,0,0,0,0,0,0,0,0,0,0,0,
0,0,0,0,0,0,0,0,0,0,0,0,0,0,0,0,
0,0,0,0,0,0,0,0,0,0,0,0,0,0,0,0,
0,0,0,0,0,0,0,0,0,0,0,0,0,0,0,0,
0,0,0,0,0,0,0,0,0,0,0,0,0,0,0,0,
0,0,0,0,0,0,0,0,0,0,0,0,0,0,0,0,
0,0,0,0,0,0,0,0,0,0,0,0,0,0,0,0,
0,0,0,0,0,0,0,0,0,0,0,0,0,0,0,0,
0,0,0,0,0,0,0,0,0,0,0,0,0,0,0,0
</chunk>
    <chunk x="0" y="16" width="16" height="16">
0,0,0,0,0,0,0,0,0,0,0,0,0,0,0,0,
0,0,0,0,0,0,0,0,0,0,0,0,0,0,0,0,
0,0,0,0,0,0,0,0,0,0,0,0,0,0,0,0,
0,0,0,0,0,0,0,0,0,0,0,0,0,0,0,0,
0,0,0,0,0,0,0,0,0,0,0,0,0,0,0,0,
0,0,0,0,0,0,0,0,0,0,0,0,0,0,0,0,
0,7486,0,0,0,0,0,0,0,0,0,0,0,0,0,0,
0,0,0,0,0,0,0,0,0,0,0,0,0,0,0,0,
0,0,0,0,0,0,0,0,0,0,0,0,0,0,0,0,
0,0,0,0,0,0,0,0,0,0,0,0,0,0,0,0,
0,0,0,0,0,0,0,0,0,0,0,0,0,0,0,0,
0,0,0,0,0,0,0,0,0,0,0,0,0,0,0,0,
0,0,0,0,0,0,0,0,0,0,0,0,0,0,0,0,
0,0,0,0,0,0,0,0,0,0,0,0,0,0,0,0,
0,0,0,0,0,0,0,0,0,0,0,0,0,0,0,0,
0,0,0,0,0,0,0,0,0,0,0,0,0,0,0,0
</chunk>
   </data>
  </layer>
  <layer id="64" name="Objects4" width="16" height="24">
   <data encoding="csv">
    <chunk x="-32" y="0" width="16" height="16">
0,0,0,0,0,0,0,0,0,0,0,0,0,0,0,0,
0,0,0,0,0,0,0,0,0,0,0,0,0,0,0,0,
0,0,0,0,0,0,0,2147490936,2147490935,2147490934,0,0,0,0,0,0,
0,0,0,0,0,0,0,2147490966,2147490965,2147490964,0,0,0,0,0,0,
0,0,0,0,0,0,0,2147490996,2147490995,2147490994,0,0,0,0,0,0,
0,0,0,0,0,0,0,0,0,0,0,0,0,0,0,0,
0,0,0,0,0,0,0,0,0,0,0,0,0,0,0,0,
0,0,0,0,0,0,0,0,0,0,0,0,0,0,0,0,
0,0,0,0,0,0,0,0,0,0,0,0,0,0,0,0,
0,0,0,0,0,0,0,0,0,0,0,0,0,0,0,0,
0,0,0,0,0,0,0,0,0,0,0,0,0,0,0,0,
0,0,0,0,0,0,0,0,0,0,0,0,0,0,0,0,
0,0,0,0,0,0,0,0,0,0,0,0,0,0,0,0,
0,0,0,0,0,0,0,0,0,0,0,0,0,7988,7989,0,
0,0,0,0,0,0,0,0,0,0,0,0,0,8000,8001,0,
0,0,0,0,0,0,0,0,0,0,0,0,0,0,0,0
</chunk>
    <chunk x="-16" y="0" width="16" height="16">
0,0,0,0,0,0,0,0,0,0,0,0,0,0,0,0,
0,0,0,0,0,0,0,0,0,0,0,0,0,0,0,0,
0,0,0,0,0,0,0,0,0,0,0,0,0,0,0,0,
0,0,0,0,0,0,0,0,0,0,0,0,0,0,0,0,
0,0,0,0,0,0,0,0,0,0,0,0,0,0,0,0,
0,0,0,0,0,0,0,0,0,0,0,0,0,5018,0,0,
0,0,0,0,0,0,0,0,0,0,0,0,0,0,0,0,
0,7983,7984,0,0,0,0,0,0,0,0,0,0,0,0,0,
0,7995,7996,0,0,0,0,0,0,0,0,0,0,0,0,0,
0,0,0,0,0,0,0,0,0,0,0,0,0,0,0,0,
0,0,0,0,0,0,0,0,0,0,0,0,0,0,0,0,
0,0,0,0,0,0,0,0,0,0,0,0,0,0,0,0,
0,0,0,0,0,0,0,0,0,0,0,0,0,0,0,0,
0,0,0,0,0,0,0,0,0,0,0,0,0,0,0,0,
0,0,0,0,0,0,0,0,0,0,0,0,0,0,0,0,
0,0,0,0,0,0,0,0,0,0,0,0,0,0,0,0
</chunk>
    <chunk x="0" y="0" width="16" height="16">
0,0,0,0,0,0,0,0,0,0,0,0,0,0,0,0,
0,0,0,0,0,0,0,0,0,0,0,0,0,0,0,0,
0,0,0,0,0,0,0,0,0,0,0,0,0,0,0,0,
0,0,0,0,0,0,0,0,0,0,0,0,0,0,0,0,
0,0,0,0,0,0,0,0,0,0,0,0,0,0,0,0,
0,0,0,0,0,0,0,0,0,0,0,0,0,0,0,0,
0,0,0,0,0,0,0,0,0,0,0,0,0,0,0,0,
0,0,0,0,0,0,0,0,0,0,0,0,0,0,0,0,
0,0,0,0,0,0,0,0,0,0,0,0,0,0,0,0,
0,0,0,0,0,0,0,0,0,0,0,0,0,0,0,0,
0,7276,7277,0,0,0,0,0,0,0,0,0,0,0,0,0,
0,7306,7307,0,0,0,0,0,0,0,0,0,0,0,0,0,
0,7336,7337,0,0,0,0,0,0,0,0,0,0,0,0,0,
0,0,0,0,0,0,0,0,0,0,0,0,0,0,0,0,
0,0,0,0,0,0,0,0,0,0,0,0,0,0,0,0,
0,0,0,0,0,5351,5352,0,0,0,0,0,0,0,0,0
</chunk>
    <chunk x="-16" y="16" width="16" height="16">
0,7274,7275,7288,0,0,0,0,0,0,0,0,0,0,0,0,
0,7304,7305,7318,0,0,0,0,0,0,0,0,0,0,0,0,
0,7334,7335,7348,0,0,0,0,0,0,0,0,0,0,0,0,
0,7374,7375,0,0,0,0,0,0,0,0,0,0,0,0,0,
0,0,0,0,0,0,0,0,0,0,0,0,0,0,0,0,
0,0,0,0,0,0,0,0,0,0,0,0,0,0,0,0,
0,0,0,0,0,0,0,0,0,0,0,0,0,0,0,0,
0,0,0,0,0,0,0,0,0,0,0,0,0,0,0,0,
0,0,0,0,0,0,0,0,0,0,0,0,0,0,0,0,
0,0,0,0,0,0,0,0,0,0,0,0,0,0,0,0,
0,0,0,0,0,0,0,0,0,0,0,0,0,0,0,0,
0,0,0,0,0,0,0,0,0,0,0,0,0,0,0,0,
0,0,0,0,0,0,0,0,0,0,0,0,0,0,0,0,
0,0,0,0,0,0,0,0,0,0,0,0,0,0,0,0,
0,0,0,0,0,0,0,0,0,0,0,0,0,0,0,0,
0,0,0,0,0,0,0,0,0,0,0,0,0,0,0,0
</chunk>
    <chunk x="0" y="16" width="16" height="16">
0,0,0,0,0,5365,5366,0,0,0,0,0,0,0,0,0,
0,0,0,0,0,5379,5380,0,7218,7219,7220,0,0,0,0,0,
0,0,0,0,0,0,0,0,7248,7249,7250,0,0,0,0,0,
0,0,0,0,0,0,0,0,0,0,0,0,0,0,0,0,
0,0,0,0,0,0,0,0,0,0,0,0,0,0,0,0,
0,0,0,0,0,0,0,0,0,0,0,0,0,0,0,0,
0,0,0,0,0,0,0,0,0,0,0,0,0,0,0,0,
0,0,0,0,0,0,0,0,0,0,0,0,0,0,0,0,
0,0,0,0,0,0,0,0,0,0,0,0,0,0,0,0,
0,0,0,0,0,0,0,0,0,0,0,0,0,0,0,0,
0,0,0,0,0,0,0,0,0,0,0,0,0,0,0,0,
0,0,0,0,0,0,0,0,0,0,0,0,0,0,0,0,
0,0,0,0,0,0,0,0,0,0,0,0,0,0,0,0,
0,0,0,0,0,0,0,0,0,0,0,0,0,0,0,0,
0,0,0,0,0,0,0,0,0,0,0,0,0,0,0,0,
0,0,0,0,0,0,0,0,0,0,0,0,0,0,0,0
</chunk>
   </data>
  </layer>
  <layer id="66" name="Objects5" width="16" height="24">
   <data encoding="csv">
    <chunk x="-32" y="0" width="16" height="16">
0,0,0,0,0,0,0,0,0,0,0,0,0,0,0,0,
0,0,0,0,0,0,0,0,0,0,0,0,2147490797,2147490796,0,0,
0,0,0,0,0,0,0,0,0,0,0,0,2147490827,2147490826,0,0,
0,0,0,0,0,0,0,0,0,0,0,0,2147490857,2147490856,0,0,
0,0,0,0,0,0,0,0,0,0,0,0,2147490887,2147490886,0,0,
0,0,0,0,0,0,0,0,0,0,0,0,0,0,0,0,
0,0,0,0,0,0,0,0,0,0,0,0,0,0,0,0,
0,0,0,0,0,0,0,0,0,0,0,0,0,0,0,0,
0,0,0,0,0,0,0,0,0,0,0,0,0,0,0,0,
0,0,0,0,0,0,0,0,0,0,0,0,0,0,0,0,
0,0,0,0,0,0,0,0,0,0,0,0,0,7457,0,0,
0,0,0,0,0,0,0,0,0,0,0,0,0,7469,0,0,
0,0,0,0,0,0,0,0,0,0,0,0,0,7481,0,0,
0,0,0,0,0,0,0,0,0,0,0,0,0,0,0,0,
0,0,0,0,0,0,0,0,0,0,0,0,0,0,0,0,
0,0,0,0,0,0,0,0,0,0,0,0,0,0,0,0
</chunk>
    <chunk x="-16" y="0" width="16" height="16">
0,0,0,0,0,0,0,0,0,0,0,0,0,0,0,0,
0,0,0,0,0,0,0,0,0,0,0,0,0,0,0,0,
0,0,0,0,0,0,0,0,0,0,0,0,0,0,0,0,
0,0,0,0,0,0,0,7654,7655,7656,0,4968,4969,0,0,0,
0,0,0,0,0,0,0,7666,7667,7668,0,4995,4996,0,0,0,
0,0,0,0,0,0,0,0,0,0,0,5022,5023,0,0,0,
0,0,0,0,0,0,0,0,0,0,0,0,0,0,0,0,
0,0,0,0,0,0,0,0,0,0,0,0,0,0,0,0,
0,7990,0,0,0,0,0,0,0,0,0,0,0,0,0,0,
0,8002,0,0,0,0,0,0,0,0,0,0,0,0,0,0,
0,0,0,0,0,0,0,0,0,0,0,0,0,0,0,0,
0,0,0,0,0,0,0,0,0,0,0,0,0,0,0,0,
0,0,0,0,0,0,0,0,0,0,0,0,0,0,0,0,
0,0,0,0,0,0,0,0,0,0,0,0,0,0,0,0,
0,0,0,0,0,0,0,0,0,0,0,0,0,0,0,0,
0,0,0,0,0,0,0,0,0,0,0,0,0,0,0,0
</chunk>
    <chunk x="0" y="0" width="16" height="16">
0,0,0,0,0,0,0,0,0,0,0,0,0,0,0,0,
0,0,0,0,0,0,0,0,0,0,0,0,0,0,0,0,
0,0,0,0,0,0,0,0,0,0,0,0,0,0,0,0,
0,0,7710,0,0,0,0,0,0,0,0,0,0,0,0,0,
0,0,0,0,0,0,0,0,0,0,0,0,0,0,0,0,
0,0,0,0,0,0,0,0,0,0,0,0,0,0,0,0,
0,0,0,0,0,0,0,0,0,0,0,0,0,0,0,0,
0,0,0,0,0,0,0,0,0,0,0,0,0,0,0,0,
0,0,0,0,0,0,0,0,0,0,0,0,0,0,0,0,
0,0,0,0,0,0,0,0,0,0,0,0,0,0,0,0,
0,0,0,0,0,0,0,0,0,0,0,0,0,0,0,0,
0,0,0,0,0,0,0,0,0,0,0,0,0,0,0,0,
0,0,0,0,0,0,0,0,0,0,0,0,0,0,0,0,
0,0,0,0,0,0,0,0,0,0,0,0,0,0,0,0,
0,0,0,0,0,0,0,0,0,0,0,0,0,0,0,0,
0,0,0,0,0,0,0,0,0,0,0,0,0,0,0,0
</chunk>
    <chunk x="-16" y="16" width="16" height="16">
0,0,0,0,0,0,0,0,0,0,0,0,0,0,0,0,
0,0,0,0,0,0,0,0,0,0,0,0,0,0,0,0,
0,0,0,0,0,0,0,0,0,0,0,0,0,0,0,0,
0,0,0,0,0,0,0,0,0,0,0,0,0,0,0,0,
0,0,0,0,0,0,0,0,0,0,0,0,0,0,0,0,
0,0,0,0,0,0,0,0,0,0,0,0,0,0,7940,7941,
0,0,0,0,0,0,0,0,0,0,0,0,0,0,7952,7953,
0,0,0,0,0,0,0,0,0,0,0,0,0,0,0,0,
0,0,0,0,0,0,0,0,0,0,0,0,0,0,0,0,
0,0,0,0,0,0,0,0,0,0,0,0,0,0,0,0,
0,0,0,0,0,0,0,0,0,0,0,0,0,0,0,0,
0,0,0,0,0,0,0,0,0,0,0,0,0,0,0,0,
0,0,0,0,0,0,0,0,0,0,0,0,0,0,0,0,
0,0,0,0,0,0,0,0,0,0,0,0,0,0,0,0,
0,0,0,0,0,0,0,0,0,0,0,0,0,0,0,0,
0,0,0,0,0,0,0,0,0,0,0,0,0,0,0,0
</chunk>
    <chunk x="0" y="16" width="16" height="16">
0,0,0,0,0,7372,7373,7374,0,0,0,0,0,0,0,0,
0,0,0,0,0,7402,7403,7404,0,0,0,0,0,0,0,0,
0,0,0,0,0,7432,7433,7434,0,0,0,0,0,0,0,0,
0,0,0,0,0,0,0,0,0,0,0,0,0,0,0,0,
0,0,0,0,0,0,0,0,0,0,0,0,0,0,0,0,
0,0,0,0,0,0,0,0,0,0,0,0,0,0,0,0,
0,0,0,0,0,0,0,0,0,0,0,0,0,0,0,0,
0,0,0,0,0,0,0,0,0,0,0,0,0,0,0,0,
0,0,0,0,0,0,0,0,0,0,0,0,0,0,0,0,
0,0,0,0,0,0,0,0,0,0,0,0,0,0,0,0,
0,0,0,0,0,0,0,0,0,0,0,0,0,0,0,0,
0,0,0,0,0,0,0,0,0,0,0,0,0,0,0,0,
0,0,0,0,0,0,0,0,0,0,0,0,0,0,0,0,
0,0,0,0,0,0,0,0,0,0,0,0,0,0,0,0,
0,0,0,0,0,0,0,0,0,0,0,0,0,0,0,0,
0,0,0,0,0,0,0,0,0,0,0,0,0,0,0,0
</chunk>
   </data>
  </layer>
  <layer id="72" name="Objects6" width="16" height="24">
   <data encoding="csv">
    <chunk x="-32" y="0" width="16" height="16">
0,0,0,0,0,0,0,0,0,0,0,0,0,0,0,0,
0,0,0,0,0,0,0,0,0,0,0,0,0,0,0,0,
0,0,0,0,0,0,0,0,0,0,0,0,0,0,0,0,
0,0,0,0,0,0,0,0,0,0,0,0,0,0,0,0,
0,0,0,0,0,0,0,0,0,0,0,0,0,0,0,0,
0,0,0,0,0,0,0,0,0,0,0,0,0,0,0,0,
0,0,0,0,0,0,0,0,0,0,0,0,0,0,0,0,
0,0,0,0,0,0,0,0,0,0,0,0,0,0,0,0,
0,0,0,0,0,0,0,0,0,0,0,0,0,0,0,4966,
0,0,0,0,0,0,0,0,0,0,0,0,0,0,0,4993,
0,0,0,0,0,0,0,0,0,0,0,0,0,0,0,5020,
0,0,0,0,0,0,0,0,0,0,0,0,0,0,0,0,
0,0,0,0,0,0,0,0,0,0,0,0,0,0,0,0,
0,0,0,0,0,0,0,0,0,0,0,0,0,0,0,0,
0,0,0,0,0,0,0,0,0,0,0,0,0,0,0,0,
0,0,0,0,0,0,0,0,0,0,0,0,0,0,0,0
</chunk>
    <chunk x="-16" y="0" width="16" height="16">
0,0,0,0,0,0,0,0,0,0,0,0,0,0,0,0,
0,0,0,0,0,0,0,0,0,0,0,0,0,0,0,0,
0,0,0,0,0,0,0,0,0,0,0,0,0,0,0,0,
0,0,0,0,0,0,0,0,0,0,0,0,0,0,0,0,
0,0,0,0,0,0,0,0,0,0,0,0,0,0,0,0,
0,0,0,0,0,0,0,0,0,0,0,0,0,0,0,0,
0,0,4964,4965,0,0,0,0,0,0,0,0,0,0,0,0,
0,0,4991,4992,0,0,0,0,0,0,0,0,0,0,0,0,
4967,0,5018,5019,0,0,0,0,0,0,0,0,0,0,0,0,
4994,0,0,0,0,0,0,0,0,0,0,0,0,0,0,0,
5021,0,0,0,0,0,0,0,0,0,0,0,0,0,0,0,
0,0,0,0,0,0,0,0,0,0,0,0,0,0,0,0,
0,0,0,0,0,0,0,0,5210,5211,5212,0,0,0,0,0,
0,0,0,0,0,0,0,0,5237,5238,5239,0,0,0,0,0,
0,0,0,0,0,0,0,0,5264,5265,5266,0,0,0,0,0,
0,0,0,0,0,0,0,0,0,0,0,0,0,0,0,0
</chunk>
    <chunk x="0" y="0" width="16" height="16">
0,0,0,0,0,0,0,0,0,5128,5129,0,0,0,0,0,
0,0,0,0,0,0,0,0,0,5155,5156,0,0,0,0,0,
0,0,0,0,0,0,0,0,0,5182,5183,0,0,0,0,0,
0,0,0,0,0,0,0,0,0,0,0,0,0,0,0,0,
0,0,0,0,0,0,0,0,0,0,0,0,0,0,0,0,
0,0,0,0,0,0,0,0,0,0,0,0,0,0,0,0,
0,0,0,0,0,0,0,0,0,0,0,0,0,0,0,0,
0,0,0,0,0,0,0,0,0,0,0,0,0,0,0,0,
0,0,0,0,0,0,0,0,0,0,0,0,0,0,0,0,
0,0,0,0,0,0,0,0,0,0,0,0,0,0,0,0,
0,0,0,0,0,0,0,0,0,0,0,0,0,0,0,0,
0,0,0,0,0,0,0,0,0,0,0,0,0,0,0,0,
0,0,0,0,0,0,0,0,0,0,0,0,0,0,0,0,
0,0,0,0,0,0,0,0,0,0,0,0,0,0,0,0,
0,0,0,0,0,0,0,0,0,0,0,0,0,0,0,0,
0,0,0,0,0,0,0,0,0,0,0,0,0,0,0,0
</chunk>
    <chunk x="-32" y="16" width="16" height="16">
0,0,0,0,0,0,0,0,0,0,0,0,0,0,0,0,
0,0,0,0,0,0,0,0,0,0,0,0,0,0,0,0,
0,0,0,0,0,0,0,0,0,0,0,0,0,0,0,0,
0,0,0,0,0,0,0,0,0,0,0,0,0,4964,4965,0,
0,0,0,0,0,0,0,0,0,0,0,0,0,4991,4992,0,
0,0,0,0,0,0,0,0,0,0,0,0,0,5018,5019,0,
0,0,0,0,0,0,0,0,0,0,0,0,0,0,0,0,
0,0,0,0,0,0,0,0,0,0,0,0,0,0,0,0,
0,0,0,0,0,0,0,0,0,0,0,0,0,0,0,0,
0,0,0,0,0,0,0,0,0,0,0,0,0,0,0,0,
0,0,0,0,0,0,0,0,0,0,0,0,0,0,0,0,
0,0,0,0,0,0,0,0,0,0,0,0,0,0,0,0,
0,0,0,0,0,0,0,0,0,0,0,0,0,0,0,0,
0,0,0,0,0,0,0,0,0,0,0,0,0,0,0,0,
0,0,0,0,0,0,0,0,0,0,0,0,0,0,0,0,
0,0,0,0,0,0,0,0,0,0,0,0,0,0,0,0
</chunk>
    <chunk x="0" y="16" width="16" height="16">
0,0,4964,4965,0,0,0,0,0,0,0,0,0,0,0,0,
0,0,4991,4992,0,0,0,0,0,0,0,0,0,0,0,0,
0,0,5018,5019,0,0,0,0,0,0,0,0,0,0,0,0,
0,0,0,0,0,0,0,0,0,0,0,0,0,0,0,0,
0,0,0,0,0,0,0,0,0,0,0,0,0,0,0,0,
0,0,0,0,0,0,0,0,0,0,0,0,0,0,0,0,
0,0,0,0,0,0,0,0,0,0,0,0,0,0,0,0,
0,0,0,0,0,0,0,0,0,0,0,0,0,0,0,0,
0,0,0,0,0,0,0,0,0,0,0,0,0,0,0,0,
0,0,0,0,0,0,0,0,0,0,0,0,0,0,0,0,
0,0,0,0,0,0,0,0,0,0,0,0,0,0,0,0,
0,0,0,0,0,0,0,0,0,0,0,0,0,0,0,0,
0,0,0,0,0,0,0,0,0,0,0,0,0,0,0,0,
0,0,0,0,0,0,0,0,0,0,0,0,0,0,0,0,
0,0,0,0,0,0,0,0,0,0,0,0,0,0,0,0,
0,0,0,0,0,0,0,0,0,0,0,0,0,0,0,0
</chunk>
   </data>
  </layer>
 </group>
 <group id="81" name="Overplayer">
  <layer id="83" name="Tomb" width="16" height="24">
   <data encoding="csv">
    <chunk x="-16" y="0" width="16" height="16">
0,0,0,0,0,0,0,0,0,0,0,0,0,0,0,0,
0,0,0,0,0,0,0,0,0,0,0,0,0,0,0,0,
0,0,0,0,0,0,0,0,0,0,0,2147490913,2147490912,2147490911,0,0,
0,0,0,0,0,0,0,0,0,0,0,2147490943,2147490942,2147490941,0,0,
0,0,0,0,0,0,0,0,0,0,0,0,0,0,0,0,
0,0,0,0,0,0,0,0,0,0,0,0,0,0,0,0,
0,0,0,0,0,0,0,0,0,0,0,0,0,0,0,0,
0,0,0,0,0,0,0,0,0,0,0,0,0,0,0,0,
0,0,0,0,0,0,0,0,0,0,0,0,0,0,0,0,
0,0,0,0,0,0,0,0,0,0,0,0,0,0,0,0,
0,0,0,0,0,0,0,0,0,0,0,0,0,0,0,0,
0,0,0,0,0,0,0,0,0,0,0,0,0,0,0,0,
0,0,0,0,0,0,0,0,0,0,0,0,0,0,0,0,
0,0,0,0,0,0,0,0,0,0,0,0,0,0,0,0,
0,0,0,0,0,0,0,0,0,0,0,0,0,0,0,0,
0,0,0,0,0,0,0,0,0,0,0,0,0,0,0,0
</chunk>
   </data>
  </layer>
  <layer id="85" name="Tile Layer 32" width="16" height="24">
   <data encoding="csv">
    <chunk x="-16" y="0" width="16" height="16">
0,0,0,0,0,0,0,0,0,0,0,0,0,0,0,0,
0,0,0,0,0,0,0,0,0,0,0,0,0,0,0,0,
0,0,0,0,0,0,0,0,0,0,0,0,0,0,0,0,
0,0,0,0,0,0,0,7654,7655,7656,0,0,0,0,0,0,
0,0,0,0,0,0,0,0,0,0,0,0,0,0,0,0,
0,0,0,0,0,0,0,0,0,0,0,0,0,0,0,0,
0,0,0,0,0,0,0,0,0,0,0,0,0,0,0,0,
0,0,0,0,0,0,0,0,0,0,0,0,0,0,0,0,
0,0,0,0,0,0,0,0,0,0,0,0,0,0,0,0,
0,0,0,0,0,0,0,0,0,0,0,0,0,0,0,0,
0,0,0,0,0,0,0,0,0,0,0,0,0,0,0,0,
0,0,0,0,0,0,0,0,0,0,0,0,0,0,0,0,
0,0,0,0,0,0,0,0,0,0,0,0,0,0,0,0,
0,0,0,0,0,0,0,0,0,0,0,0,0,0,0,0,
0,0,0,0,0,0,0,0,0,0,0,0,0,0,0,0,
0,0,0,0,0,0,0,0,0,0,0,0,0,0,0,0
</chunk>
   </data>
  </layer>
  <layer id="86" name="Wall" width="16" height="24">
   <data encoding="csv">
    <chunk x="-32" y="0" width="16" height="16">
0,0,0,0,0,0,0,0,0,0,0,0,0,0,0,0,
0,0,0,0,0,0,0,0,0,0,0,0,0,0,0,0,
0,0,0,0,0,0,0,0,0,0,0,0,0,0,0,0,
0,0,0,0,0,0,0,0,0,0,0,0,0,0,0,0,
0,0,0,0,0,0,0,0,0,0,0,0,0,0,0,0,
0,0,0,0,0,0,0,0,0,0,0,0,0,0,0,0,
0,0,0,0,0,0,0,0,0,0,0,0,0,0,0,0,
0,0,0,0,0,0,0,0,0,0,0,0,0,0,0,0,
0,0,0,0,0,0,0,0,0,0,0,0,0,0,0,0,
0,0,0,0,4073,4073,4073,4284,4285,4071,4466,4073,4071,4071,4025,0,
0,0,0,0,4090,4090,4370,4304,4305,4088,4089,4090,4088,4088,4042,0,
0,0,0,0,0,0,0,4324,4325,0,0,0,0,0,4471,0,
0,0,0,0,0,0,0,0,0,0,0,0,0,0,0,0,
0,0,0,0,0,0,0,0,0,0,0,0,0,0,0,0,
0,0,0,0,0,0,0,3834,3889,3834,0,0,0,0,0,0,
0,0,0,0,0,0,0,4722,4723,4724,0,0,0,0,0,0
</chunk>
    <chunk x="-16" y="0" width="16" height="16">
0,0,0,0,0,0,0,0,0,0,0,0,0,0,0,0,
0,0,0,0,0,0,0,0,0,0,0,0,0,0,0,0,
0,0,0,0,0,0,0,0,0,0,0,0,0,0,0,0,
0,0,0,0,0,0,0,0,0,0,0,0,0,0,0,0,
0,0,0,0,0,0,0,0,0,0,0,0,0,0,0,0,
0,0,0,0,0,0,0,0,0,0,0,0,0,0,0,0,
0,0,0,0,0,0,0,0,0,0,0,0,0,0,0,0,
0,0,0,0,0,0,0,0,0,0,0,0,0,0,0,0,
0,0,0,0,0,0,0,0,0,0,0,0,0,0,0,0,
0,0,0,0,0,0,0,0,0,0,0,0,0,0,0,0,
0,0,0,0,0,0,0,0,0,0,0,0,0,0,0,0,
0,0,0,0,0,0,0,0,0,0,0,0,0,0,0,0,
0,0,0,0,0,4024,4284,4285,4025,0,0,0,0,4468,5738,5739,
0,0,0,0,0,0,0,0,0,0,0,0,0,4488,5746,5747,
0,0,0,0,0,0,0,0,0,0,0,0,0,0,0,0,
0,0,0,0,0,0,0,0,0,0,0,0,0,0,0,0
</chunk>
    <chunk x="0" y="0" width="16" height="16">
0,0,0,0,0,0,0,0,0,0,0,0,0,0,0,0,
0,0,0,0,0,0,0,0,0,0,0,0,0,0,0,0,
0,0,0,0,0,0,0,0,0,0,0,0,0,0,0,0,
0,0,0,0,0,0,0,0,0,0,0,0,0,0,0,0,
0,0,0,0,0,0,0,0,4471,0,0,0,0,0,0,0,
0,0,0,0,0,0,0,0,4491,0,0,0,0,0,0,0,
0,0,0,0,0,0,0,0,0,0,0,0,0,0,0,0,
0,0,0,0,0,0,0,0,0,0,0,0,0,0,0,0,
0,0,0,0,0,0,0,0,0,0,0,0,0,0,0,0,
0,0,0,0,0,0,0,0,0,0,0,0,0,0,0,0,
0,0,0,0,0,0,0,0,0,0,0,0,0,0,0,0,
0,0,0,0,0,0,0,0,0,0,0,0,0,0,0,0,
4071,0,0,0,0,0,0,0,0,0,0,0,0,0,0,0,
4370,0,0,0,0,0,0,0,0,0,0,0,0,0,0,0,
0,0,0,0,0,0,0,0,0,0,0,0,0,0,0,0,
0,0,0,0,0,0,0,0,0,0,0,0,0,0,0,0
</chunk>
    <chunk x="-16" y="16" width="16" height="16">
0,0,0,0,0,0,0,0,0,0,0,0,0,0,0,0,
0,0,0,0,0,0,0,0,0,0,0,0,0,0,0,0,
0,0,0,0,0,0,0,0,0,0,0,0,0,0,0,0,
0,0,0,0,0,0,0,0,0,0,0,0,0,4470,4073,4284,
0,0,0,0,0,0,0,0,0,0,0,0,0,0,4090,4304,
0,0,0,0,0,0,0,0,0,0,0,0,0,0,0,0,
0,0,0,0,0,0,0,0,0,0,0,0,0,0,0,0,
0,0,0,0,0,0,0,0,0,0,0,0,0,0,0,0,
0,0,0,0,0,0,0,0,0,0,0,0,0,0,0,0,
0,0,0,0,0,0,0,0,0,0,0,0,0,0,0,0,
0,0,0,0,0,0,0,0,0,0,0,0,0,0,0,0,
0,0,0,0,0,0,0,0,0,0,0,0,0,0,0,0,
0,0,0,0,0,0,0,0,0,0,0,0,0,0,0,0,
0,0,0,0,0,0,0,0,0,0,0,0,0,0,0,0,
0,0,0,0,0,0,0,0,0,0,0,0,0,0,0,0,
0,0,0,0,0,0,0,0,0,0,0,0,0,0,0,0
</chunk>
    <chunk x="0" y="16" width="16" height="16">
0,0,0,0,0,0,0,0,0,0,0,0,0,0,0,0,
0,0,0,0,0,0,0,0,0,0,0,0,0,0,0,0,
0,0,0,0,0,0,0,0,0,0,0,0,0,0,0,0,
4285,4073,4469,0,0,0,0,0,0,0,0,0,0,0,0,0,
4305,4090,4489,0,0,0,0,0,0,0,0,0,0,0,0,0,
0,0,0,0,0,0,0,0,0,0,0,0,0,0,0,0,
0,0,0,0,0,0,0,0,0,0,0,0,0,0,0,0,
0,0,0,0,0,0,0,0,0,0,0,0,0,0,0,0,
0,0,0,0,0,0,0,0,0,0,0,0,0,0,0,0,
0,0,0,0,0,0,0,0,0,0,0,0,0,0,0,0,
0,0,0,0,0,0,0,0,0,0,0,0,0,0,0,0,
0,0,0,0,0,0,0,0,0,0,0,0,0,0,0,0,
0,0,0,0,0,0,0,0,0,0,0,0,0,0,0,0,
0,0,0,0,0,0,0,0,0,0,0,0,0,0,0,0,
0,0,0,0,0,0,0,0,0,0,0,0,0,0,0,0,
0,0,0,0,0,0,0,0,0,0,0,0,0,0,0,0
</chunk>
   </data>
  </layer>
  <layer id="60" name="Objects1" width="16" height="24">
   <data encoding="csv">
    <chunk x="-16" y="-16" width="16" height="16">
0,0,0,0,0,0,0,0,0,0,0,0,0,0,0,0,
0,0,0,0,0,0,0,0,0,0,0,0,0,0,0,0,
0,0,0,0,0,0,0,0,0,0,0,0,0,0,0,0,
0,0,0,0,0,0,0,0,0,0,0,0,0,0,0,0,
0,0,0,0,0,0,0,0,0,0,0,0,0,0,0,0,
0,0,0,0,0,0,0,0,0,0,0,0,0,0,0,0,
0,0,0,0,0,0,0,0,0,0,0,0,0,0,0,0,
0,0,0,0,0,0,0,0,0,0,0,0,0,0,0,0,
0,0,0,0,0,0,0,0,0,0,0,0,0,0,0,0,
0,0,0,0,0,0,0,0,0,0,0,0,0,0,0,0,
0,0,0,0,0,0,0,0,0,0,0,0,0,0,0,0,
0,0,0,0,0,0,0,0,0,0,0,0,0,0,0,0,
0,0,0,0,0,0,0,0,0,0,0,0,0,0,0,0,
0,0,0,0,0,0,0,0,0,0,0,0,0,0,0,0,
0,0,0,0,0,0,0,0,0,0,0,0,0,0,0,0,
0,0,0,0,0,0,0,0,0,0,6992,6993,6994,6995,6996,0
</chunk>
    <chunk x="-32" y="0" width="16" height="16">
0,0,0,0,0,0,0,0,0,0,0,0,0,0,0,0,
0,0,0,0,0,0,0,0,0,0,0,0,0,0,0,0,
0,0,0,0,0,0,0,0,0,0,0,0,0,0,0,0,
0,0,0,0,0,0,0,0,0,0,0,0,0,0,0,0,
0,0,0,0,0,0,0,0,0,0,0,0,0,0,0,0,
0,0,0,0,0,0,0,0,0,0,0,0,0,0,0,0,
0,0,0,0,0,0,0,0,0,0,0,0,0,0,0,0,
0,0,0,0,0,0,0,0,0,0,0,0,0,0,0,0,
0,0,0,0,0,0,0,0,0,0,0,0,0,0,0,0,
0,0,0,0,0,0,0,0,0,0,0,0,0,0,0,0,
0,0,0,0,0,0,0,0,0,0,0,0,0,0,0,0,
0,0,0,0,0,0,0,0,0,0,0,0,0,0,0,0,
0,0,0,0,0,0,0,0,0,0,0,0,0,0,0,0,
0,0,0,0,0,5924,5925,0,0,0,0,0,0,0,0,0,
0,0,0,0,0,0,0,0,0,0,0,0,0,0,0,0,
0,0,0,0,0,0,0,0,0,0,0,0,0,0,0,0
</chunk>
    <chunk x="-16" y="0" width="16" height="16">
0,0,0,0,0,0,0,0,7577,7578,7022,7023,7024,7025,7026,2147491224,
0,2147489700,0,0,0,0,0,0,7589,7590,7052,7053,7054,7055,7056,2147491236,
0,2147489744,0,0,0,0,0,0,7601,7602,7082,7083,7084,7085,7086,2147491248,
0,2147489788,0,0,6184,6185,0,0,0,0,7112,7113,7114,7115,7116,0,
0,0,0,0,6204,6205,0,0,0,0,0,0,0,0,0,0,
0,0,0,0,6224,6225,0,0,0,0,0,0,0,0,0,0,
0,0,0,0,6244,6245,0,0,0,0,0,0,0,0,0,0,
7359,0,0,0,6264,6265,0,0,0,0,0,0,0,0,0,0,
7389,0,0,0,6284,6285,0,0,0,0,0,0,0,0,0,0,
7419,0,0,0,0,0,0,0,0,6824,6825,6826,0,6824,6825,6826,
0,0,0,0,0,0,0,0,0,0,0,0,0,0,0,0,
0,0,0,0,0,0,0,0,0,0,0,0,0,0,0,0,
0,0,0,0,0,0,0,0,0,0,0,0,0,0,0,0,
0,0,0,0,0,0,0,0,0,0,7697,0,0,0,0,0,
0,0,0,0,0,0,0,0,0,0,7709,0,0,0,0,6008,
0,0,0,0,0,0,0,0,0,0,0,0,0,0,0,6052
</chunk>
    <chunk x="0" y="0" width="16" height="16">
2147491223,0,0,0,0,0,0,0,0,0,0,0,0,0,0,0,
2147491235,0,0,0,0,0,0,5353,5354,5355,0,0,0,0,0,0,
2147491247,0,0,0,0,0,0,5367,5368,5369,0,0,0,0,0,0,
0,0,0,6184,6185,0,0,5381,5382,5383,0,0,0,0,0,0,
0,0,0,6204,6205,0,0,0,0,0,0,0,0,0,0,0,
0,0,0,6224,6225,0,0,0,0,0,0,0,0,0,0,0,
0,0,0,6244,6245,0,0,0,0,0,0,0,0,0,0,0,
0,0,0,6264,6265,0,0,0,0,0,0,0,0,0,0,0,
0,0,0,6284,6285,0,0,0,0,0,0,0,0,0,0,0,
0,0,0,0,0,7463,7464,0,7463,7464,0,0,0,0,0,0,
0,0,6825,6826,0,7475,7476,0,7475,7476,0,0,0,0,0,0,
0,0,0,0,0,7487,7488,0,7487,7488,0,0,0,0,0,0,
0,0,0,0,0,0,0,0,0,0,0,0,0,0,0,0,
0,0,0,0,0,0,0,0,0,0,0,0,0,0,0,0,
6009,6010,6011,0,0,0,0,0,0,0,0,0,0,0,0,0,
6053,6054,6055,0,0,0,0,0,0,0,0,0,0,0,0,0
</chunk>
    <chunk x="-32" y="16" width="16" height="16">
0,0,0,0,0,2147488995,2147488994,0,0,0,5346,5347,0,0,0,0,
0,0,0,0,0,2147489009,2147489008,0,0,0,5360,5361,0,0,0,0,
0,0,0,0,0,2147489023,2147489022,0,0,0,5374,5375,0,0,2147489659,2147489658,
0,0,0,0,0,0,0,0,6824,0,6826,0,0,0,2147489703,2147489702,
0,0,0,0,0,0,0,0,0,0,0,0,0,0,2147489747,2147489746,
0,0,0,0,0,0,0,0,0,0,0,0,0,0,2147489791,2147489790,
0,0,0,0,0,0,0,0,0,0,0,0,0,0,0,0,
0,0,0,0,0,0,0,0,0,0,0,0,0,0,0,0,
0,0,0,0,0,0,0,0,0,0,0,0,0,0,0,0,
0,0,0,0,0,0,0,0,0,0,0,0,0,0,0,0,
0,0,0,0,0,0,0,0,0,0,0,0,0,0,0,0,
0,0,0,0,0,0,0,0,0,0,0,0,0,0,0,0,
0,0,0,0,0,0,0,0,0,0,0,0,0,0,0,0,
0,0,0,0,0,0,0,0,0,0,0,0,0,0,0,0,
0,0,0,0,0,0,0,0,0,0,0,0,0,0,0,0,
0,0,0,0,0,0,0,0,0,0,0,0,0,0,0,0
</chunk>
    <chunk x="-16" y="16" width="16" height="16">
0,0,0,0,7575,7576,0,0,7577,7578,0,0,0,0,0,6096,
0,0,0,0,7587,7588,0,0,7589,7590,0,0,0,0,0,6140,
2147489657,2147489656,0,0,7599,7600,0,0,7601,5353,5354,0,0,0,0,0,
2147489701,2147489700,0,0,0,0,0,0,0,5367,5368,0,0,0,0,0,
2147489745,2147489744,0,0,0,0,0,0,0,5381,5382,0,0,0,0,0,
2147489789,2147489788,0,0,0,0,0,0,0,0,0,0,0,0,0,0,
0,0,0,0,0,0,0,0,0,0,0,0,0,0,0,0,
0,0,0,0,0,0,0,0,0,0,0,0,0,0,0,0,
0,0,0,0,0,0,0,0,0,0,0,0,0,0,0,0,
0,0,0,0,0,0,0,0,0,0,0,0,0,0,0,0,
0,0,0,0,0,0,0,0,0,0,0,0,0,0,0,0,
0,0,0,0,0,0,0,0,0,0,0,0,0,0,0,0,
0,0,0,0,0,0,0,0,0,0,0,0,0,0,0,0,
0,0,0,0,0,0,0,0,0,0,0,0,0,0,0,0,
0,0,0,0,0,0,0,0,0,0,0,0,0,0,0,0,
0,0,0,0,0,0,0,0,0,0,0,0,0,0,0,0
</chunk>
    <chunk x="0" y="16" width="16" height="16">
6097,6098,6099,0,0,0,0,0,0,0,0,0,0,0,0,0,
6141,6142,6143,7703,7704,0,0,0,0,0,0,0,0,0,0,0,
0,0,0,0,0,0,0,0,0,0,0,0,0,0,0,0,
0,0,0,0,0,0,0,0,0,0,0,0,0,0,0,0,
0,7462,0,0,0,0,0,0,0,0,0,0,0,0,0,0,
0,7474,0,0,0,0,0,0,0,0,0,0,0,0,0,0,
0,0,0,0,0,0,0,0,0,0,0,0,0,0,0,0,
0,0,0,0,0,0,0,0,0,0,0,0,0,0,0,0,
0,0,0,0,0,0,0,0,0,0,0,0,0,0,0,0,
0,0,0,0,0,0,0,0,0,0,0,0,0,0,0,0,
0,0,0,0,0,0,0,0,0,0,0,0,0,0,0,0,
0,0,0,0,0,0,0,0,0,0,0,0,0,0,0,0,
0,0,0,0,0,0,0,0,0,0,0,0,0,0,0,0,
0,0,0,0,0,0,0,0,0,0,0,0,0,0,0,0,
0,0,0,0,0,0,0,0,0,0,0,0,0,0,0,0,
0,0,0,0,0,0,0,0,0,0,0,0,0,0,0,0
</chunk>
   </data>
  </layer>
  <layer id="88" name="Torches" width="16" height="24">
   <data encoding="csv">
    <chunk x="-32" y="0" width="16" height="16">
0,0,0,0,0,0,0,0,0,0,0,0,0,0,0,0,
0,0,0,0,0,0,0,0,0,0,0,0,0,0,0,0,
0,0,0,0,0,0,0,0,0,0,0,0,0,0,0,0,
0,0,0,0,0,0,0,0,0,0,0,0,0,0,0,0,
0,0,0,0,0,0,0,0,0,0,0,0,0,0,0,0,
0,0,0,0,0,0,0,0,0,0,0,0,0,0,0,0,
0,0,0,0,0,0,0,0,0,0,0,0,0,0,0,0,
0,0,0,0,0,0,0,0,0,0,0,0,0,0,0,0,
0,0,0,0,0,0,0,0,0,0,0,0,0,0,0,0,
0,0,0,0,0,0,0,0,0,0,0,0,0,0,0,0,
0,0,0,0,0,0,0,0,0,0,0,0,0,0,0,0,
0,0,0,0,0,0,0,0,0,0,0,0,0,0,0,0,
0,0,0,0,0,0,0,0,0,0,0,0,0,0,6425,6426,
0,0,0,0,0,0,0,0,0,0,0,0,0,0,6445,6446,
0,0,0,0,0,0,0,0,0,0,0,0,0,0,0,0,
0,0,0,0,0,0,0,0,0,0,0,0,0,0,0,0
</chunk>
    <chunk x="-16" y="0" width="16" height="16">
0,0,0,0,0,0,0,0,0,0,0,0,0,0,0,0,
0,0,0,0,0,0,0,0,0,0,0,0,0,0,0,0,
0,0,0,0,0,0,0,0,0,0,0,0,0,0,0,0,
0,0,0,0,0,0,0,0,0,0,0,0,0,0,0,0,
0,0,0,0,0,0,0,0,0,0,0,0,0,0,0,0,
0,0,0,0,0,0,0,0,0,0,0,0,0,0,0,0,
0,0,0,0,0,0,0,0,0,0,0,0,0,0,0,0,
0,0,0,0,0,0,0,0,0,0,0,0,0,0,0,0,
0,0,0,0,0,0,0,0,0,0,0,0,0,0,0,0,
0,0,0,0,0,0,0,0,0,0,0,0,0,0,0,0,
0,0,0,0,0,0,0,0,0,0,0,0,0,0,0,0,
0,0,0,0,0,0,0,0,0,0,0,0,0,0,0,0,
6427,6428,0,0,0,0,0,0,0,0,0,0,0,0,0,0,
6447,6448,0,0,0,0,0,0,0,0,0,0,0,0,0,0,
0,0,0,0,0,0,0,0,0,0,0,0,0,0,0,0,
0,0,0,0,0,0,0,0,0,0,0,0,0,0,0,0
</chunk>
    <chunk x="-16" y="16" width="16" height="16">
0,0,0,0,0,0,0,0,0,0,0,0,0,0,0,0,
0,0,0,0,0,0,0,0,0,0,0,0,0,0,0,0,
0,0,0,0,0,0,0,0,0,0,0,0,0,0,0,0,
0,0,0,0,0,0,0,0,0,0,0,0,0,5348,5349,5350,
0,0,0,0,0,0,0,0,0,0,0,0,0,5362,5363,5364,
0,0,0,0,0,0,0,0,0,0,0,0,0,5376,5377,5378,
0,0,0,0,0,0,0,0,0,0,0,0,0,0,0,0,
0,0,0,0,0,0,0,0,0,0,0,0,0,0,0,0,
0,0,0,0,0,0,0,0,0,0,0,0,0,0,0,0,
0,0,0,0,0,0,0,0,0,0,0,0,0,0,0,0,
0,0,0,0,0,0,0,0,0,0,0,0,0,0,0,0,
0,0,0,0,0,0,0,0,0,0,0,0,0,0,0,0,
0,0,0,0,0,0,0,0,0,0,0,0,0,0,0,0,
0,0,0,0,0,0,0,0,0,0,0,0,0,0,0,0,
0,0,0,0,0,0,0,0,0,0,0,0,0,0,0,0,
0,0,0,0,0,0,0,0,0,0,0,0,0,0,0,0
</chunk>
   </data>
  </layer>
 </group>
 <objectgroup id="82" name="Object Layer 1">
  <object id="1" x="-115" y="112">
   <polygon points="0,0 0,17 117,17 117,0 114,-3 3,-2"/>
  </object>
  <object id="2" x="14" y="113">
   <polygon points="0,0 0,16 36,16 36,-3 2,-3"/>
  </object>
  <object id="3" x="50" y="110">
   <polygon points="0,0 12,0 13,-2 13,-15 15,-16 17,-15 24,-15 43,-16 44,-18 45,-30 50,-33 60,-32 63,-30 63,2 1,3 0,4"/>
  </object>
  <object id="4" x="78" y="49">
   <polygon points="0,0 0,-9 2,-12 15,-13 17,-24 17,-43 19,-45 35,-45 35,16 31,16 31,15 21,15 21,16 17,16 17,2 15,0"/>
  </object>
  <object id="5" x="-191" y="37">
   <polygon points="0,0 0,12 -14,12 -16,14 -16,28 -20,28 -20,27 -30,27 -30,28 -34,28 -34,-32 -17,-32 -16,-32 -16,-3 -10,1"/>
  </object>
  <object id="6" x="-225" y="77">
   <polygon points="0,0 0,36 7,36 8,36 8,35 16,35 16,36 30,36 32,38 32,52 66,52 66,51 74,51 74,52 99,52 99,35 97,33 95,34 86,34 84,33 51,33 50,31 50,20 48,18 46,19 37,18 37,17 21,17 20,17 19,16 19,0 18,0 17,-1 14,-1 13,-2 4,-2 4,-1 1,-1"/>
  </object>
  <object id="7" x="-238" y="169">
   <polygon points="0,0 0,5 151,4 152,4 152,0"/>
  </object>
  <object id="9" x="-27" y="171">
   <polygon points="0,0 0,3 45,3 45,-1 0,-1"/>
  </object>
  <object id="10" x="-27" y="158">
   <polygon points="0,0 0,12 3,12 3,0"/>
  </object>
  <object id="11" x="-86" y="169">
   <polygon points="0,0 -4,0 -4,-11 0,-11"/>
  </object>
  <object id="12" x="-24" y="158">
   <polygon points="0,0 0,3 43,3 43,1 40,0"/>
  </object>
  <object id="13" x="-90" y="158">
   <polygon points="0,0 -147,0 -147,-3 0,-2"/>
  </object>
  <object id="14" x="-86" y="158">
   <polygon points="0,0 0,-2 -4,-2 -4,0"/>
  </object>
  <object id="15" x="-185" y="185">
   <polygon points="0,0 0,3 0,4 35,4 35,0"/>
  </object>
  <object id="16" x="-153" y="185">
   <polygon points="0,0 0,-4 0,-11 0,-12 4,-12 4,-3 3,-3 3,0 1,0"/>
  </object>
  <object id="17" x="-185" y="187">
   <polygon points="0,0 0,5 0,6 -4,10 -13,10 -13,9 -21,9 -21,8 -26,8 -28,6 -28,-6 -25,-7 -21,-8 -13,-9 -4,-9 -4,-8 -13,-8 -21,-7 -26,-6 -27,-6 -27,5 -25,7 -20,7 -18,8 -13,8 -12,9 -5,9 -1,5 -1,0"/>
  </object>
  <object id="18" x="-177" y="351">
   <polygon points="-1,0 -1,33 66,33 67,33 67,0 67,-2 65,-4 64,-5 62,-5 60,-6 58,-6 56,-7 9,-7 8,-6 5,-6 4,-5 2,-5 1,-4 0,-3 -1,-2"/>
  </object>
  <object id="20" x="-177" y="336">
   <polygon points="0,0 0,-21 0,-32 0,-34 0,-36 35,-36 35,-35 41,-35 41,-36 67,-35 67,-25 66,-25 66,-18 67,-18 67,1 66,0 65,0 64,0 64,-1 62,-1 62,-2 59,-2 58,-2 58,-3 8,-3 8,-2 4,-2 4,-1 2,-1 2,0"/>
  </object>
  <object id="22" x="-383" y="383">
   <polygon points="0,0 0,-17 -15,-17 -16,-17 -16,-33 -17,-34 -17,-41 -16,-41 -16,-51 -25,-51 -25,-50 -31,-50 -31,-51 -57,-51 -57,-50 -62,-50 -63,-50 -64,-51 -65,-51 -65,2 0,2"/>
  </object>
  <object id="23" x="-257" y="1">
   <polygon points="0,0 19,0 18,-97 18,-98 -1,-98"/>
  </object>
  <object id="24" x="-238" y="140">
   <polygon points="0,0 0,18 1,18 1,0 1,-1 0,-1"/>
  </object>
  <object id="25" x="-238" y="173">
   <polygon points="0,0 -1,0 -1,-2 0,-2 0,-6 -1,-6 -1,-12 0,-12 0,-15 1,-15 1,0"/>
  </object>
  <object id="26" x="-238" y="158">
   <polygon points="0,0 -13,0 -15,2 -19,2 -21,0 -21,-1 -20,-2 -19,-2 -18,-3 -18,-2 -17,-2 -17,-6 -17,-7 -17,-13 -16,-13 -16,-17 -17,-17 -17,-33 -18,-33 -18,-45 -17,-45 -17,-53 -18,-53 -18,-60 -17,-60 -17,-81 -18,-81 -17,-128 -20,-128 -20,-139 -21,-139 -21,-141 -19,-141 -19,-129 -16,-130 -16,-19 -15,-18 0,-18 0,-15 -14,-15 -13,-6 -13,-4 -2,-3 0,-3"/>
  </object>
  <object id="27" x="-257" y="1">
   <polygon points="0,0 0,16 -2,16 -2,0"/>
  </object>
  <object id="30" x="-349" y="185">
   <polygon points="0,0 0,39 2,39 2,-5 0,-5"/>
  </object>
  <object id="31" x="-180" y="291">
   <polygon points="0,0 10,0 11,-1 10,-3 0,-3 -1,-3"/>
  </object>
  <object id="32" x="-115" y="286">
   <polygon points="0,0 -1,1 0,2 1,3 2,2 8,2 7,1 6,0"/>
  </object>
  <object id="33" x="78" y="49">
   <polygon points="0,0 0,29 -1,29 -1,-9 0,-9"/>
  </object>
  <object id="34" x="77" y="75">
   <polygon points="0,0 0,3 -27,3 -28,2 -28,0 -27,-1 0,-1"/>
  </object>
  <object id="35" x="50" y="74">
   <polygon points="0,0 0,-3 -1,-3 -1,-9 0,-9 0,-26 -1,-26 -1,-30 -1,-41 1,-41 1,0"/>
  </object>
  <object id="36" x="41" y="46">
   <polygon points="0,0 8,0 8,-4 -3,-4 -3,-3 0,-3"/>
  </object>
  <object id="37" x="24" y="46">
   <polygon points="0,0 0,12 9,12 9,11 1,11 1,-1 0,-1"/>
  </object>
  <object id="39" x="24" y="48">
   <polygon points="0,0 0,2 -10,2 -12,0 -12,-17 -11,-18 -10,-18 -10,-17 -11,-17 -11,-1 -9,1 -1,1"/>
  </object>
  <object id="40" x="33" y="58">
   <polygon points="0,0 0,1 1,1 1,2 2,2 2,3 5,3 5,2 6,2 6,3 10,3 12,0 13,0 13,-1 0,-1"/>
  </object>
  <object id="41" x="41" y="46">
   <polygon points="0,0 0,4 2,4 2,5 3,5 3,6 4,6 4,8 5,8 5,12 4,12 4,10 4,9 2,6 -1,4 -1,0"/>
  </object>
  <object id="42" x="-88" y="89">
   <polygon points="0,0 64,0 65,-1 65,-35 64,-36 57,-36 57,-35 64,-35 64,-3 64,-2 1,-2 0,-3 0,-34 1,-35 8,-35 8,-36 0,-36 -1,-35 -1,-2 -1,-1"/>
  </object>
  <object id="43" x="-191" y="50">
   <polygon points="0,0 0,28 1,28 1,-4 0,-4"/>
  </object>
  <object id="44" x="-190" y="75">
   <polygon points="0,0 29,0 29,3 0,3"/>
  </object>
  <object id="45" x="-163" y="78">
   <polygon points="0,0 0,-38 1,-38 1,-19 1,-18 2,-18 2,-15 2,-14 1,-14 1,0"/>
  </object>
  <object id="46" x="-162" y="46">
   <polygon points="0,0 10,0 10,-3 0,-3"/>
  </object>
  <object id="47" x="-135" y="46">
   <polygon points="0,0 0,4 9,4 11,2 11,-1"/>
  </object>
  <object id="48" x="-135" y="46">
   <polygon points="0,0 0,12 -17,12 -17,-2 -16,-2 -16,10 -1,10 -1,0"/>
  </object>
  <object id="49" x="-125" y="45">
   <polygon points="0,0 0,-14 1,-14 1,0"/>
  </object>
  <object id="50" x="-125" y="31">
   <polygon points="0,0 -1,0 -1,-6 0,-6"/>
  </object>
  <object id="51" x="-125" y="30">
   <polygon points="0,0 35,0 35,-3 0,-3"/>
  </object>
  <object id="52" x="-114" y="30">
   <polygon points="0,0 -2,1 -1,2 0,3 1,3 2,1 2,0 3,0 3,1 4,2 5,3 6,2 7,2 6,0 2,0 -1,0"/>
  </object>
  <object id="53" x="-90" y="30">
   <polygon points="0,0 0,2 2,4 12,4 14,2 14,-15 13,-16 12,-16 12,-15 12,0 11,2 2,2 1,0 1,-3 0,-3 0,-1"/>
  </object>
  <object id="54" x="-77" y="14">
   <polygon points="0,0 42,0 42,-3 -1,-3 -1,0"/>
  </object>
  <object id="55" x="-35" y="14">
   <polygon points="0,0 0,1 -1,1 -1,18 1,20 11,20 12,19 12,16 12,10 11,10 11,17 10,18 2,18 0,17 0,3 1,1 1,-3 0,-3"/>
  </object>
  <object id="56" x="-23" y="28">
   <polygon points="0,0 37,0 37,2 0,2"/>
  </object>
  <object id="57" x="-80" y="53">
   <polygon points="0,0 49,0 49,1 0,1"/>
  </object>
  <object id="58" x="-3" y="30">
   <polygon points="0,0 -1,1 -3,2 -3,3 -4,3 -4,4 -3,5 0,5 1,4 1,3 2,3 2,5 4,5 4,4 5,4 6,5 7,4 8,4 8,2 7,1 7,0"/>
  </object>
  <object id="60" x="-122" y="67">
   <polygon points="0,0 1,0 1,1 2,2 4,2 4,4 5,5 9,5 10,4 11,3 11,1 11,0 12,0 12,-3 -10,-3 -10,-1 -9,0 -8,1 -5,1 -5,0 -4,0 -4,1 0,1"/>
  </object>
  <object id="61" x="-341" y="224">
   <polygon points="0,0 0,-44 2,-44 2,-36 3,-36 3,-33 3,0"/>
  </object>
  <object id="62" x="-338" y="185">
   <polygon points="0,0 -1,0 -1,-9 63,-9 63,0"/>
  </object>
  <object id="63" x="-302" y="185">
   <polygon points="0,0 0,8 1,10 12,10 13,9 13,0"/>
  </object>
  <object id="64" x="-274" y="221">
   <polygon points="0,0 17,0 17,2 0,2"/>
  </object>
  <object id="65" x="-258" y="221">
   <polygon points="0,0 0,-17 1,-17 1,0"/>
  </object>
  <object id="66" x="-257" y="204">
   <polygon points="0,0 84,1 84,3 0,2"/>
  </object>
  <object id="67" x="-273" y="236">
   <polygon points="0,-1 16,-1 16,1 0,1"/>
  </object>
  <object id="68" x="-258" y="235">
   <polygon points="0,0 0,-12 -2,-12 -2,0"/>
  </object>
  <object id="69" x="-257" y="218">
   <polygon points="0,0 85,0 85,4 0,4"/>
  </object>
  <object id="70" x="-172" y="218">
   <polygon points="-1,0 2,0 1,25 -1,25"/>
  </object>
  <object id="71" x="-347" y="224">
   <polygon points="0,0 0,3 0,5 -15,5 -15,0"/>
  </object>
  <object id="72" x="-363" y="241">
   <polygon points="0,0 0,-17 1,-17 1,-12 2,-12 2,45 0,45"/>
  </object>
  <object id="73" x="-390" y="225">
   <polygon points="0,0 0,60 0,62 0,64 -1,64 -2,0"/>
  </object>
  <object id="74" x="-392" y="225">
   <polygon points="0,0 0,-1 -56,-1 -56,3 0,3 0,-1"/>
  </object>
  <object id="75" x="-391" y="289">
   <polygon points="0,0 0,8 0,9 -17,9 -17,-1 -21,-1 -21,14 -23,17 -33,17 -35,15 -35,13 -57,13 -57,9 -35,9 -32,14 -25,14 -23,12 -23,-2 -22,-4 -15,-4 -15,7 -2,7 -2,-2 0,-2"/>
  </object>
  <object id="76" x="-361" y="284">
   <polygon points="0,0 1,-1 2,-1 2,13 17,13 17,0 22,0 23,0 23,3 23,6 23,18 24,20 32,20 33,18 34,16 42,16 42,18 35,18 33,22 23,22 21,20 21,3 21,2 18,2 18,14 0,14"/>
  </object>
  <object id="77" x="-319" y="298">
   <polygon points="0,0 0,13 -1,13 -1,23 1,26 1,37 0,37 0,54 2,56 12,56 14,54 14,52 48,52 48,54 50,56 60,56 63,52 62,47 65,47 66,48 70,48 70,46 66,46 65,45 61,45 61,50 60,53 59,54 50,53 49,50 46,50 13,50 12,53 6,54 2,53 2,38 2,23 0,18 0,14 2,14 2,0"/>
  </object>
  <object id="78" x="-274" y="223">
   <polygon points="0,0 1,0 1,27 0,27"/>
  </object>
  <object id="79" x="-274" y="277">
   <polygon points="0,0 1,0 1,12 0,12"/>
  </object>
  <object id="80" x="-290" y="288">
   <polygon points="0,0 16,0 16,1 0,1"/>
  </object>
  <object id="81" x="-290" y="288">
   <polygon points="0,0 0,-1 1,-1 1,-6 0,-6 0,-8 1,-8 1,-15 0,-15 0,-17 1,-17 1,-22 0,-22 0,-24 1,-24 1,-31 0,-31 0,-33 1,-33 1,-37 0,-37 0,-40 1,-40 1,-45 0,-45 0,-46 -1,-46 -1,-47 -7,-47 -7,-48 -12,-48 -12,-47 -15,-47 -15,-48 -20,-48 -20,-47 -23,-47 -23,-48 -29,-48 -29,-47 -31,-47 -31,-48 -32,-48 -32,-49 -31,-49 -31,-53 -32,-53 -32,-56 -31,-56 -31,-61 -32,-61 -32,-62 -33,-62 -33,-63 -39,-63 -39,-64 -44,-64 -44,-63 -46,-63 -47,-63 -47,-64 -48,-64 -50,-64 -51,-64 -51,-57 -38,-57 -38,-39 -6,-39 -6,0"/>
  </object>
  <object id="82" x="-205" y="343">
   <polygon points="0,0 0,3 1,3 1,5 0,5 0,9 1,9 1,10 0,10 0,13 1,13 1,21 0,21 0,25 1,25 1,26 0,26 0,28 0,29 1,29 1,37 0,37 0,41 3,41 3,-3 0,-3"/>
  </object>
  <object id="83" x="-205" y="345">
   <polygon points="0,0 -21,0 -21,1 -26,1 -26,-2 -22,-2 -22,-4 0,-4"/>
  </object>
  <object id="84" x="-195" y="384">
   <polygon points="0,0 0,-1 1,-1 1,-4 0,-4 0,-6 1,-6 1,-9 0,-9 0,-17 1,-17 1,-20 0,-20 0,-21 0,-22 1,-22 1,-25 0,-25 0,-31 0,-32 1,-32 1,-36 0,-36 0,-37 1,-37 1,-38 2,-38 2,-54 1,-54 1,-65 2,-65 2,-66 3,-66 3,-77 2,-77 2,-78 1,-78 1,-79 0,-79 0,-81 1,-81 1,-84 0,-84 0,-86 1,-86 1,-89 0,-89 0,-96 1,-96 1,-100 0,-100 0,-101 0,-102 1,-102 1,-103 14,-103 14,-107 -2,-107 -2,0"/>
  </object>
  <object id="89" x="-181" y="277">
   <polygon points="0,0 18,0 18,1 19,1 19,2 19,3 18,3 18,4 0,4"/>
  </object>
  <object id="90" x="-163" y="277">
   <polygon points="0,0 0,-3 1,-3 1,-8 0,-8 0,-13 1,-13 1,-19 0,-19 0,-21 1,-21 1,-25 0,-25 0,-27 1,-27 1,-34 0,-34 0,-36 0,-37 1,-37 1,-41 0,-41 0,-43 1,-43 1,-45 1,-46 0,-46 0,-49 -2,-49 -2,0"/>
  </object>
  <object id="91" x="-162" y="233">
   <polygon points="0,0 4,0 4,1 9,1 9,0 10,0 10,-2 9,-2 9,-6 8,-6 8,-7 9,-8 9,-10 8,-10 8,-11 9,-11 12,-11 12,-27 12,-29 -11,-29 -11,-26 7,-26 6,-2 0,-2"/>
  </object>
  <object id="93" x="-139" y="222">
   <polygon points="0,0 4,0 5,0 5,1 4,1 4,3 4,4 5,4 5,5 4,5 4,8 4,9 3,9 3,11 4,11 4,12 9,12 9,11 14,11 14,9 15,9 15,6 7,6 7,-15 32,-15 32,-18 0,-18"/>
  </object>
  <object id="94" x="-125" y="232">
   <polygon points="0,0 0,2 1,2 1,4 0,4 0,8 1,8 1,9 0,9 0,18 1,18 1,24 0,24 0,29 1,29 1,30 0,30 0,34 1,34 1,37 0,37 0,42 1,42 1,46 0,46 0,48 1,48 1,49 32,49 32,47 33,47 33,45 3,45 3,-4 1,-4 1,-1 0,-1 0,1"/>
  </object>
  <object id="95" x="-93" y="281">
   <polygon points="0,0 0,1 1,1 1,3 0,3 0,8 -1,8 -1,9 -2,9 -2,10 -3,10 -3,21 -2,21 -2,22 -1,22 -1,32 -2,32 -2,49 -1,49 -1,50 0,50 0,51 10,51 10,50 11,50 11,49 12,49 12,32 11,32 11,23 12,22 12,21 13,21 13,10 12,10 12,9 11,9 11,8 10,8 10,7 11,6 11,2 12,1 12,-15 11,-15 1,-14 -1,-2"/>
  </object>
  <object id="96" x="-82" y="266">
   <polygon points="0,0 0,-11 1,-11 1,-12 2,-12 2,-23 1,-23 1,-24 0,-24 0,-25 -1,-25 -1,-26 -11,-26 -11,-25 -12,-25 -12,-24 -13,-24 -13,-23 -20,-23 -20,-22 -21,-22 -21,-23 -29,-23 -29,-22 -30,-22 -30,-23 -33,-23 -33,-26 -36,-26 -36,-21 -36,-20 -4,-20 -3,0"/>
  </object>
  <object id="97" x="-115" y="240">
   <polygon points="0,0 1,0 1,-4 0,-4 0,-6 1,-6 1,-9 0,-9 0,-17 1,-17 1,-18 8,-18 9,-17 10,-16 14,-16 15,-17 16,-18 38,-19 37,-21 -2,-20 -2,0"/>
  </object>
  <object id="98" x="-108" y="204">
   <polygon points="0,0 30,0 30,3 0,3"/>
  </object>
  <object id="99" x="-80" y="207">
   <polygon points="0,0 0,14 3,14 2,12 2,0"/>
  </object>
  <object id="100" x="-78" y="221">
   <polygon points="0,0 0,4 -1,4 -1,10 0,10 0,14 -1,14 -1,16 0,16 0,17 15,17 15,15 14,14 2,14 2,0"/>
  </object>
  <object id="101" x="-79" y="220">
   <polygon points="0,0 17,0 17,2 1,2 1,1 0,1"/>
  </object>
  <object id="102" x="-62" y="222">
   <polygon points="0,0 0,28 -1,28 -1,0"/>
  </object>
  <object id="103" x="-62" y="277">
   <polygon points="0,0 0,46 -1,46 -1,58 0,58 0,77 -1,77 -1,84 0,84 0,107 -1,107 -1,84 -2,84 -2,77 -1,77 -1,58 -2,58 -2,46 -1,46 -1,0"/>
  </object>
  <object id="104" x="63" y="384">
   <polygon points="0,0 0,-37 1,-37 1,-47 0,-47 0,-50 14,-50 16,-52 16,-65 35,-65 98,-65 98,-50 130,-50 130,-52 99,-52 99,-68 90,-68 89,-67 83,-67 83,-68 63,-68 63,-67 54,-67 54,-68 41,-68 41,-67 35,-67 35,-68 15,-68 15,-53 14,-52 -1,-52 -1,-48 -1,-47 0,-47 0,-38 0,-37 -1,-37 -1,0"/>
  </object>
  <object id="105" x="18" y="349">
   <polygon points="0,0 0,10 1,10 1,11 12,11 12,10 13,10 13,0"/>
  </object>
  <object id="106" x="14" y="345">
   <polygon points="0,0 0,1 -5,1 -5,0 -6,0 -6,-2 -5,-2 -5,-4 -5,-5 22,-5 22,0"/>
  </object>
  <object id="107" x="-287" y="181">
   <polygon points="0,0 12,0 12,30 14,30 14,36 12,39 5,39 0,36 0,20 1,20 1,20 1,11 4,11 4,4 0,4"/>
  </object>
  <object id="108" x="-287" y="216">
   <polygon points="0,0 -3,0 -6,3 -6,9 -3,13 1,13 5,9 5,4"/>
  </object>
  <object id="110" x="-94" y="383">
   <polygon points="0,0 -1,-5 0,-7 0,-16 -1,-17 -2,-28 0,-30 0,-31 11,-31 14,-28 14,-18 12,-15 12,-6 13,-3 13,1 13,3 2,2"/>
  </object>
  <object id="112" x="130" y="80">
   <polygon points="0,5 0,9 -1,9 -1,27 1,28 1,33 -17,32 -17,35 23,35 23,33 21,33 21,32 16,32 16,33 14,33 13,32 12,32 12,31 12,30 12,27 13,26 13,10 13,9 12,6 1,5"/>
  </object>
  <object id="113" x="129" y="58">
   <polygon points="0,0 2,2 11,2 14,0 14,-17 13,-17 12,-27 12,-33 63,-33 63,-37 9,-37 10,-3 2,-2 2,-15 0,-15"/>
  </object>
  <object id="114" x="129" y="43">
   <polygon points="0,0 0,-2 1,-2 1,-12 -1,-13 -1,-24 2,-26 2,-31 3,-31 3,-38 2,-38 2,-42 3,-42 5,-42 3,0 0,0"/>
  </object>
  <object id="115" x="113" y="4">
   <polygon points="0,0 2,-3 15,-3 18,-3 18,-2 3,-2 1,0"/>
  </object>
  <object id="116" x="153" y="113">
   <polygon points="0,0 1,0 1,-1 6,-1 6,0 9,0 9,-1 15,-1 15,0 18,0 18,-1 22,-1 22,0 25,0 25,-1 31,-1 31,0 34,0 34,-1 37,-1 38,-1 38,0 40,0 40,1 0,1"/>
  </object>
  <object id="117" x="16" y="158">
   <polygon points="0,0 0,-11 3,-14 13,-14 16,-11 16,-10 17,-10 17,-11 25,-11 25,-10 26,-10 26,-11 32,-11 32,-10 33,-10 33,-12 34,-12 34,-15 33,-15 33,-20 34,-20 34,-22 33,-22 33,-29 35,-29 35,-9 14,-9 11,-13 3,-13 1,-11 1,0"/>
  </object>
  <object id="119" x="-7" y="227">
   <polygon points="0,0 27,0 27,6 5,6 5,7 0,7 0,4 1,4"/>
  </object>
  <object id="120" x="-7" y="231">
   <polygon points="0,0 -17,0 -18,0 -18,2 0,2"/>
  </object>
  <object id="121" x="-25" y="231">
   <polygon points="0,0 0,3 -5,3 -5,2 -9,2 -9,0 -10,0 -10,-1"/>
  </object>
  <object id="123" x="-34" y="231">
   <polygon points="0,0 0,2 0,3 -1,3 -1,5 0,5 0,9 -1,9 -1,16 0,16 0,18 0,19 -1,19 -1,21 0,21 0,24 -1,24 -1,32 0,32 0,35 -1,35 -1,37 0,37 0,40 -1,40 -1,48 0,48 0,51 -1,51 -1,54 0,54 0,55 0,56 -1,56 -1,65 0,64 0,67 -1,67 -1,69 0,69 0,72 -1,72 -1,74 -3,74 -3,-22 -1,-22 -1,-20 -2,-19 -2,-17 -1,-16 -1,-14 -2,-12 0,-11 0,-8 -2,-8 -2,-1 -2,0"/>
  </object>
  <object id="125" x="-43" y="305">
   <polygon points="0,0 -2,0 -2,-4 -2,-5 -1,-5 -1,-13 -2,-13 -2,-16 -1,-16 -1,-17 -2,-17 -2,-21 -1,-21 -1,-29 -2,-29 -2,-32 -1,-32 -1,-33 -2,-33 -2,-37 -1,-37 -1,-45 -2,-45 -2,-48 -1,-48 -1,-49 -2,-49 -2,-53 -1,-53 -1,-61 -2,-61 -2,-64 -1,-64 -1,-65 -2,-65 -2,-69 -1,-69 -4,-71 -4,-86 -4,-87 -3,-87 -3,-96 6,-96 6,0"/>
  </object>
  <object id="126" x="-34" y="341">
   <polygon points="-1,-5 25,-5 25,2 26,2 26,3 25,4 25,5 0,4"/>
  </object>
  <object id="127" x="-33" y="345">
   <polygon points="0,0 -2,3 -12,3 -14,1 -14,-16 -13,-16 -12,-16 -12,-7"/>
  </object>
  <object id="128" x="35" y="345">
   <polygon points="0,0 0,1 1,1 1,3 0,3 0,7 1,7 1,8 0,8 0,11 1,12 1,18 1,19 0,19 0,21 0,22 0,23 1,23 1,24 0,24 0,26 0,27 1,27 1,35 0,35 0,36 3,36 3,-1"/>
  </object>
  <object id="129" x="-24" y="346">
   <polygon points="0,0 -3,2 -3,6 -4,6 -4,8 -2,10 1,10 2,9 2,10 6,10 6,9 7,9 7,10 10,13 11,14 15,14 17,12 17,9 18,9 18,4 15,1 13,1 13,0"/>
  </object>
  <object id="130" x="-45" y="305">
   <polygon points="0,0 -3,2 -3,12 -1,15 -1,24 0,24"/>
  </object>
  <object id="132" x="-35" y="305">
   <polygon points="0,0 0,36 1,36 1,40 -2,37 -2,0"/>
  </object>
  <object id="134" x="36" y="340">
   <polygon points="0,0 10,0 11,0 11,5 9,7 9,9 10,8 10,11 9,12 9,19 10,19 10,22 9,22 9,24 10,24 10,27 9,27 9,35 10,35 10,38 9,38 9,40 10,40 10,42 -1,42 -1,41 8,41 8,1 -1,1 -1,0"/>
  </object>
  <object id="139" x="19" y="233">
   <polygon points="0,0 0,1 1,1 1,3 0,3 0,8 -3,10 -3,21 -1,23 -1,32 -2,32 -2,49 0,51 10,51 12,49 12,48 40,48 40,49 43,52 43,53 48,53 51,49 52,47 52,45 12,45 9,48 0,47 0,34 1,32 1,20 -2,18 -1,11 2,10 2,4 3,2 3,0 2,0"/>
  </object>
  <object id="140" x="44" y="283">
   <polygon points="0,0 0,4 1,4 4,4 4,5 7,5 8,4 8,1 7,1 6,-2 3,-2 3,0"/>
  </object>
  <object id="141" x="89" y="279">
   <polygon points="0,0 0,1 1,3 2,3 2,10 4,12 11,13 17,13 17,14 26,14 30,10 30,1 46,2 45,4 45,22 81,22 81,5 80,4 80,2 103,2 103,-2 80,-2 1,-2"/>
  </object>
  <object id="144" x="17" y="174">
   <polygon points="0,0 0,12 2,14 2,53 4,53 4,0"/>
  </object>
  <object id="145" x="-350" y="185">
   <polygon points="-43,0 -97,-1 -98,-8 -43,-8"/>
  </object>
  <object id="146" x="-349" y="176">
   <polygon points="0,0 11,0 11,9 0,10 0,9"/>
  </object>
  <object id="147" x="-375" y="176">
   <polygon points="0,0 0,9 27,9 27,0"/>
  </object>
  <object id="149" x="-255" y="46">
   <polygon points="0,0 -2,0 -3,2 -4,3 -14,3 -16,1 -17,0 -41,0 -41,-4 -41,-5 -16,-4 -14,-2 -8,-2 -4,-2 -3,-4 -1,-4 0,-4"/>
  </object>
  <object id="150" x="-296" y="46">
   <polygon points="0,0 0,28 -22,28 -23,-21 0,-21"/>
  </object>
  <object id="151" x="-383" y="38">
   <polygon points="0,0 18,0 18,35 -1,35"/>
  </object>
  <object id="152" x="-384" y="46">
   <polygon points="0,0 -18,0 -18,-8 1,-8"/>
  </object>
  <object id="153" x="-370" y="38">
   <polygon points="0,0 0,-50 -4,-51 -4,0"/>
  </object>
  <object id="154" x="-402" y="47">
   <polygon points="0,0 -1,3 -10,3 -13,1 -13,-16 -12,-17 -12,-28 -13,-29 -13,-40 -13,-144 -9,-142 -9,-3 -7,0"/>
  </object>
  <object id="155" x="-301" y="25">
   <polygon points="0,0 -1,0 -1,-8 -2,-11 -2,-15 0,-48 6,-52 6,-24 3,-1"/>
  </object>
  <object id="158" x="-370" y="14">
   <polygon points="0,0 19,0 21,0 25,0 26,-1 25,-2 24,-4 0,-4"/>
  </object>
  <object id="159" x="-327" y="11">
   <polygon points="0,0 0,3 2,4 5,3 6,3 24,3 24,-1"/>
  </object>
  <object id="161" x="-345" y="10">
   <polygon points="0,0 19,0 19,2 19,3 -1,3 -2,1 -1,0"/>
  </object>
  <object id="162" x="-231" y="336">
   <polygon points="0,0 27,0 26,9 0,8"/>
  </object>
  <object id="163" x="-249" y="336">
   <polygon points="0,0 0,8 -10,8 -10,-1 0,-1"/>
  </object>
  <object id="164" x="-93" y="222">
   <polygon points="0,0 -2,2 -2,5 0,7 6,7 7,7 11,2 11,-1 10,-1"/>
  </object>
  <object id="165" x="-114" y="282">
   <polygon points="0,0 1,2 1,3 3,4 0,4 1,3 4,4 4,2 5,0 6,0 5,-1 0,-1"/>
  </object>
  <object id="166" x="-170" y="281">
   <polygon points="0,0 -1,3 -4,5 -3,7 -9,6 -11,7 -9,2 -10,1 -11,0"/>
  </object>
  <object id="167" x="-234" y="148">
   <polygon points="0,0 4,0 5,-1 7,-4 8,-9 5,-11 0,-12 -3,-8 -3,-3"/>
  </object>
  <object id="168" x="-229" y="132">
   <polygon points="0,0 3,0 3,-1 4,0 8,0 11,-3 11,-7 9,-10 8,-11 1,-11 -1,-8 -2,-4 -2,-2"/>
  </object>
  <object id="169" x="-212" y="124">
   <polygon points="0,0 0,2 4,3 6,4 9,2 8,0 6,-1 6,-2 6,-3 3,-3 3,-1"/>
  </object>
  <object id="170" x="-131" y="64">
   <polygon points="0,0 0,-3 3,-6 6,-7 6,-9 9,-11 12,-12 14,-10 16,-8 16,-5 18,-4 20,-3 21,0 15,0"/>
  </object>
  <object id="171" x="25" y="53">
   <polygon points="0,0 19,0 20,2 20,4 0,4"/>
  </object>
  <object id="173" x="31" y="278">
   <polygon points="0,0 1,-34 -2,-37 -1,-102 -1,-113 -3,-111 -4,-34 -1,-31 -2,0 -2,2"/>
  </object>
  <object id="174" x="47" y="182">
   <polygon points="0,0 0,21 -17,21 -17,-10 0,-10 0,1"/>
  </object>
  <object id="175" x="47" y="184">
   <polygon points="0,0 3,0 3,5 23,5 23,-8 0,-8"/>
  </object>
  <object id="176" x="70" y="183">
   <polygon points="0,0 0,6 0,9 2,11 12,11 14,9 14,-7 13,-8 1,-8"/>
  </object>
  <object id="177" x="82" y="175">
   <polygon points="0,0 1,0 1,-2 7,-1 7,8 8,9 19,9 20,8 20,-1 21,-2 21,-3 21,-4 1,-5 -1,-3"/>
  </object>
  <object id="178" x="101" y="171">
   <polygon points="0,0 2,-2 1,-4 1,-6 4,-10 4,-11 4,-16 -1,-13 -2,0"/>
  </object>
  <object id="179" x="137" y="163">
   <polygon points="0,0 0,1 1,2 0,3 -1,4 1,7 -1,9 0,11 0,20 1,21 12,21 13,20 13,11 19,11 19,28 21,31 31,31 32,30 32,27 55,27 55,13 28,13 25,3 8,2 3,-2 0,-2"/>
  </object>
  <object id="180" x="137" y="163">
   <polygon points="0,0 -3,0 -36,0 -36,-4 1,-3 1,0"/>
  </object>
  <object id="181" x="105" y="171">
   <polygon points="0,0 30,0 30,-9 29,-9 29,-2 1,-2 1,-8 0,-8"/>
  </object>
  <object id="182" x="71" y="278">
   <polygon points="0,0 0,-6 -40,-6 -40,0"/>
  </object>
  <object id="183" x="90" y="277">
   <polygon points="0,0 0,-5 79,-6 79,0"/>
  </object>
  <object id="185" x="72" y="278">
   <polygon points="0,0 -1,0 -1,2 17,2 17,0"/>
  </object>
  <object id="186" x="-189" y="179">
   <polygon points="0,0 3,4 3,8 4,8 4,3 1,0 0,-1"/>
  </object>
  <object id="187" x="-226" y="265">
   <polygon points="0,0 1,33 1,34 16,34 17,1 17,0"/>
  </object>
  <object id="190" x="38" y="214">
   <polygon points="0,0 21,0 21,21 0,21"/>
  </object>
  <object id="191" x="-171" y="243">
   <polygon points="0,0 0,2 -34,2 -35,9 -33,11 -32,11 -31,11 -33,93 -35,93 -34,57 -32,48 -33,47 -33,13 -34,12 -37,10 -36,0 -34,-3 -28,-2 -23,0"/>
  </object>
  <object id="192" x="-206" y="255">
   <polygon points="0,0 0,11 -1,12 -1,27 1,30 1,35 2,38 4,37 2,0"/>
  </object>
 </objectgroup>
 <objectgroup id="89" name="Trigger">
  <object id="160" x="-344" y="13">
   <polygon points="0,0 17,0 17,2 17,3 -1,3 -1,0"/>
  </object>
  <object id="184" x="71" y="280">
   <polygon points="0,0 18,0 18,2 -1,2"/>
  </object>
  <object id="189" x="38" y="211">
   <polygon points="0,0 21,0 21,3 0,3"/>
  </object>
 </objectgroup>
 <objectgroup id="87" name="Camera Boundries">
  <object id="85" x="-446" y="-96">
   <polygon points="0,0 0,480 0,481 -2,481 -3,-2 0,-3"/>
  </object>
  <object id="86" x="-445" y="-98">
   <polygon points="0,0 638,0 638,4 0,3"/>
  </object>
  <object id="87" x="188" y="-94">
   <polygon points="2,0 2,479 5,479 5,0"/>
  </object>
  <object id="88" x="190" y="381">
   <polygon points="0,2 0,4 -638,4 -638,1 -1,2 0,2"/>
  </object>
 </objectgroup>
</map>
