<?xml version="1.0" encoding="UTF-8"?>
<map version="1.10" tiledversion="1.12.1" orientation="orthogonal" renderorder="right-down" width="46" height="32" tilewidth="16" tileheight="16" infinite="1" nextlayerid="220" nextobjectid="89">
 <tileset firstgid="1" source="../Tilesets/Forest/Water_detilazation.tsx"/>
 <tileset firstgid="2887" source="../Tilesets/Forest/Water_detilazation2.tsx"/>
 <tileset firstgid="5773" source="../Tilesets/Forest/Water_coasts.tsx"/>
 <tileset firstgid="7243" source="../Tilesets/Forest/Ground_grass.tsx"/>
 <tileset firstgid="7894" source="../Tilesets/Forest/spots.tsx"/>
 <tileset firstgid="8230" source="../Tilesets/Forest/stairs_grass.tsx"/>
 <tileset firstgid="8587" source="../Tilesets/Forest/spots_rock.tsx"/>
 <tileset firstgid="9070" source="../Tilesets/Forest/lianas.tsx"/>
 <tileset firstgid="9330" source="../Tilesets/Forest/Objects.tsx"/>
 <tileset firstgid="10386" source="../Tilesets/Forest/water_lilis.tsx"/>
 <tileset firstgid="10687" source="../Tilesets/Forest/Arches_columns.tsx"/>
 <group id="207" name="Ground">
  <layer id="164" name="water" width="46" height="32">
   <data encoding="csv">
    <chunk x="0" y="0" width="16" height="16">
0,0,0,0,0,0,0,0,0,0,0,0,0,0,0,0,
0,0,1,1,1,1,1,1,1,1,1,1,1,1,1,1,
0,0,1,1,1,1,1,1,1,1,1,1,1,1,1,1,
0,0,1,1,1,1,1,1,1,1,1,1,1,1,1,1,
0,0,1,1,1,1,1,1,1,1,1,1,1,1,1,1,
0,0,1,1,1,1,1,1,1,1,1,1,1,1,1,1,
0,0,1,1,1,1,1,1,1,1,1,1,1,1,1,1,
0,0,1,1,1,1,1,1,1,1,1,1,1,1,1,1,
0,0,1,1,1,1,1,1,1,1,1,1,1,1,1,1,
0,0,1,1,1,1,1,1,1,1,1,1,1,1,1,1,
0,0,1,1,1,1,1,1,1,1,1,1,1,1,1,1,
0,0,1,1,1,1,1,1,1,1,1,1,1,1,1,1,
0,0,1,1,1,1,1,1,1,1,1,1,1,1,1,1,
0,0,1,1,1,1,1,1,1,1,1,1,1,1,1,1,
0,0,1,1,1,1,1,1,1,1,1,1,1,1,1,1,
0,0,1,1,1,1,1,1,1,1,1,1,1,1,1,1
</chunk>
    <chunk x="16" y="0" width="16" height="16">
0,0,0,0,0,0,0,0,0,0,0,0,0,0,0,0,
1,1,1,1,1,1,1,1,1,1,1,1,1,1,1,1,
1,1,1,1,1,1,1,1,1,1,1,1,1,1,1,1,
1,1,1,1,1,1,1,1,1,1,1,1,1,1,1,1,
1,1,1,1,1,1,1,1,1,1,1,1,1,1,1,1,
1,1,1,1,1,1,1,1,1,1,1,1,1,1,1,1,
1,1,1,1,1,1,1,1,1,1,1,1,1,1,1,1,
1,1,1,1,1,1,1,1,1,1,1,1,1,1,1,1,
1,1,1,1,1,1,1,1,1,1,1,1,1,1,1,1,
1,1,1,1,1,1,1,1,1,1,1,1,1,1,1,1,
1,1,1,1,1,1,1,1,1,1,1,1,1,1,1,1,
1,1,1,1,1,1,1,1,1,1,1,1,1,1,1,1,
1,1,1,1,1,1,1,1,1,1,1,1,1,1,1,1,
1,1,1,1,1,1,1,1,1,1,1,1,1,1,1,1,
1,1,1,1,1,1,1,1,1,1,1,1,1,1,1,1,
1,1,1,1,1,1,1,1,1,1,1,1,1,1,1,1
</chunk>
    <chunk x="32" y="0" width="16" height="16">
0,0,0,0,0,0,0,0,0,0,0,0,0,0,0,0,
1,1,1,1,1,1,1,1,1,1,1,1,1,0,0,0,
1,1,1,1,1,1,1,1,1,1,1,1,1,0,0,0,
1,1,1,1,1,1,1,1,1,1,1,1,1,0,0,0,
1,1,1,1,1,1,1,1,1,1,1,1,1,0,0,0,
1,1,1,1,1,1,1,1,1,1,1,1,1,0,0,0,
1,1,1,1,1,1,1,1,1,1,1,1,1,0,0,0,
1,1,1,1,1,1,1,1,1,1,1,1,1,0,0,0,
1,1,1,1,1,1,1,1,1,1,1,1,1,0,0,0,
1,1,1,1,1,1,1,1,1,1,1,1,1,0,0,0,
1,1,1,1,1,1,1,1,1,1,1,1,1,0,0,0,
1,1,1,1,1,1,1,1,1,1,1,1,1,0,0,0,
1,1,1,1,1,1,1,1,1,1,1,1,1,0,0,0,
1,1,1,1,1,1,1,1,1,1,1,1,1,0,0,0,
1,1,1,1,1,1,1,1,1,1,1,1,1,0,0,0,
1,1,1,1,1,1,1,1,1,1,1,1,1,0,0,0
</chunk>
    <chunk x="0" y="16" width="16" height="16">
0,0,1,1,1,1,1,1,1,1,1,1,1,1,1,1,
0,0,1,1,1,1,1,1,1,1,1,1,1,1,1,1,
0,0,1,1,1,1,1,1,1,1,1,1,1,1,1,1,
0,0,1,1,1,1,1,1,1,1,1,1,1,1,1,1,
0,0,1,1,1,1,1,1,1,1,1,1,1,1,1,1,
0,0,1,1,1,1,1,1,1,1,1,1,1,1,1,1,
0,0,1,1,1,1,1,1,1,1,1,1,1,1,1,1,
0,0,1,1,1,1,1,1,1,1,1,1,1,1,1,1,
0,0,1,1,1,1,1,1,1,1,1,1,1,1,1,1,
0,0,1,1,1,1,1,1,1,1,1,1,1,1,1,1,
0,0,1,1,1,1,1,1,1,1,1,1,1,1,1,1,
0,0,1,1,1,1,1,1,1,1,1,1,1,1,1,1,
0,0,1,1,1,1,1,1,1,1,1,1,1,1,1,1,
0,0,1,1,1,1,1,1,1,1,1,1,1,1,1,1,
0,0,0,0,0,0,0,0,0,0,0,0,0,0,0,0,
0,0,0,0,0,0,0,0,0,0,0,0,0,0,0,0
</chunk>
    <chunk x="16" y="16" width="16" height="16">
1,1,1,1,1,1,1,1,1,1,1,1,1,1,1,1,
1,1,1,1,1,1,1,1,1,1,1,1,1,1,1,1,
1,1,1,1,1,1,1,1,1,1,1,1,1,1,1,1,
1,1,1,1,1,1,1,1,1,1,1,1,1,1,1,1,
1,1,1,1,1,1,1,1,1,1,1,1,1,1,1,1,
1,1,1,1,1,1,1,1,1,1,1,1,1,1,1,1,
1,1,1,1,1,1,1,1,1,1,1,1,1,1,1,1,
1,1,1,1,1,1,1,1,1,1,1,1,1,1,1,1,
1,1,1,1,1,1,1,1,1,1,1,1,1,1,1,1,
1,1,1,1,1,1,1,1,1,1,1,1,1,1,1,1,
1,1,1,1,1,1,1,1,1,1,1,1,1,1,1,1,
1,1,1,1,1,1,1,1,1,1,1,1,1,1,1,1,
1,1,1,1,1,1,1,1,1,1,1,1,1,1,1,1,
1,1,1,1,1,1,1,1,1,1,1,1,1,1,1,1,
0,0,0,0,0,0,0,0,0,0,0,0,0,0,0,0,
0,0,0,0,0,0,0,0,0,0,0,0,0,0,0,0
</chunk>
    <chunk x="32" y="16" width="16" height="16">
1,1,1,1,1,1,1,1,1,1,1,1,1,0,0,0,
1,1,1,1,1,1,1,1,1,1,1,1,1,0,0,0,
1,1,1,1,1,1,1,1,1,1,1,1,1,0,0,0,
1,1,1,1,1,1,1,1,1,1,1,1,1,0,0,0,
1,1,1,1,1,1,1,1,1,1,1,1,1,0,0,0,
1,1,1,1,1,1,1,1,1,1,1,1,1,0,0,0,
1,1,1,1,1,1,1,1,1,1,1,1,1,0,0,0,
1,1,1,1,1,1,1,1,1,1,1,1,1,0,0,0,
1,1,1,1,1,1,1,1,1,1,1,1,1,0,0,0,
1,1,1,1,1,1,1,1,1,1,1,1,1,0,0,0,
1,1,1,1,1,1,1,1,1,1,1,1,1,0,0,0,
1,1,1,1,1,1,1,1,1,1,1,1,1,0,0,0,
1,1,1,1,1,1,1,1,1,1,1,1,1,0,0,0,
1,1,1,1,1,1,1,1,1,1,1,1,1,0,0,0,
0,0,0,0,0,0,0,0,0,0,0,0,0,0,0,0,
0,0,0,0,0,0,0,0,0,0,0,0,0,0,0,0
</chunk>
   </data>
  </layer>
  <layer id="167" name="water_details" width="46" height="32">
   <data encoding="csv">
    <chunk x="0" y="0" width="16" height="16">
0,0,0,0,0,0,0,0,0,0,0,0,0,0,0,0,
0,0,0,0,0,0,0,0,0,0,0,0,0,0,0,0,
0,0,0,0,0,0,0,0,0,0,0,0,0,0,0,0,
0,0,0,0,0,0,0,0,0,0,0,0,0,0,0,0,
0,0,0,0,0,0,0,0,0,0,0,0,0,0,0,0,
0,0,0,0,0,0,0,0,0,0,0,0,0,0,0,0,
0,0,0,0,0,0,0,0,0,0,0,0,0,0,0,0,
0,0,0,0,0,0,0,0,0,0,0,0,0,0,0,0,
0,0,0,0,0,0,0,0,0,0,0,0,0,0,0,0,
0,0,2928,2929,2930,2931,2932,2933,2934,2935,2936,2937,2938,2939,2940,0,
0,0,2965,2966,2967,2968,2969,2970,2971,2972,2973,2974,2975,2976,2977,0,
0,0,3002,3003,3004,3005,3006,3007,3008,3009,3010,3011,3012,3013,3014,0,
0,0,0,0,0,0,0,0,0,0,0,0,0,0,0,0,
0,0,0,0,0,0,2942,2943,2944,2945,2946,2947,2948,2949,2950,2951,
0,0,0,0,0,0,2979,2980,2981,2982,2983,2984,2985,2986,2987,2988,
0,0,0,0,0,3097,3098,3099,3100,3101,3102,3021,3022,3023,3024,3025
</chunk>
    <chunk x="16" y="0" width="16" height="16">
0,0,0,0,0,0,0,0,0,0,0,0,0,0,0,0,
0,0,0,0,0,0,0,0,0,0,0,0,0,0,0,0,
0,0,0,0,0,0,0,0,0,0,0,0,0,0,0,0,
0,0,0,0,0,0,0,0,0,0,0,0,0,0,0,0,
0,0,0,0,0,0,0,0,3210,3211,3212,3213,0,0,0,0,
0,0,0,0,0,0,0,0,3247,3248,3249,3250,0,0,0,0,
0,0,0,0,0,0,0,0,0,0,0,0,0,0,0,0,
0,0,0,0,0,0,0,0,0,0,0,0,0,0,0,0,
0,0,0,0,0,0,0,0,0,0,0,0,0,0,0,0,
0,0,0,0,0,0,0,0,0,0,0,0,0,0,0,0,
0,0,0,0,0,0,0,0,0,0,0,0,0,0,0,3064,
0,0,0,0,0,0,0,0,0,0,0,0,0,0,0,0,
0,0,0,0,0,0,0,0,0,0,0,0,0,0,0,0,
2952,3064,3065,3066,0,0,0,0,0,0,0,0,0,0,0,0,
2989,3210,3211,3212,3213,0,0,0,0,0,0,0,0,0,0,0,
3026,3247,3248,3249,3250,0,0,0,0,0,0,0,0,0,0,0
</chunk>
    <chunk x="32" y="0" width="16" height="16">
0,0,0,0,0,0,0,0,0,0,0,0,0,0,0,0,
0,0,0,0,0,0,0,0,0,0,0,0,0,0,0,0,
0,0,0,0,0,0,0,0,0,0,0,0,0,0,0,0,
0,0,0,0,0,0,0,0,0,0,0,0,0,0,0,0,
0,0,0,0,0,0,0,0,0,0,0,0,0,0,0,0,
0,0,0,0,0,0,0,0,0,0,0,0,0,0,0,0,
0,0,0,0,0,0,0,0,0,0,0,0,0,0,0,0,
0,0,0,0,0,0,0,0,0,0,0,0,0,0,0,0,
0,0,0,0,0,0,0,0,0,0,0,0,0,0,0,0,
0,0,0,0,0,0,3064,3065,3066,0,0,0,0,0,0,0,
3065,3066,2926,2927,2928,2929,2930,2931,2932,2933,2934,2935,2936,0,0,0,
2961,2962,2963,2964,2965,2966,2967,2968,2969,2970,2971,2972,2973,0,0,0,
2998,2999,3000,3001,3002,3003,3004,3005,3006,3007,3008,3009,3010,0,0,0,
0,0,0,0,0,0,0,0,0,0,0,0,0,0,0,0,
0,0,0,0,0,0,0,0,0,0,0,0,0,0,0,0,
0,0,0,0,0,0,0,0,0,0,0,0,0,0,0,0
</chunk>
    <chunk x="0" y="16" width="16" height="16">
0,0,0,0,0,3134,3135,3136,3137,3138,3139,0,0,0,0,0,
0,0,0,0,0,0,0,0,0,0,0,0,0,0,0,0,
0,0,0,3210,3211,3212,3213,0,0,0,0,0,0,0,0,0,
0,0,0,3247,3248,3249,3250,0,0,0,0,0,0,0,0,0,
0,0,0,0,0,0,0,0,0,0,0,0,0,0,0,0,
0,0,0,0,0,0,0,0,0,0,0,0,0,0,0,0,
0,0,0,0,0,0,0,0,0,0,0,0,0,0,0,0,
0,0,0,0,0,0,0,0,0,0,0,0,0,0,0,0,
0,0,0,0,0,0,0,0,0,0,0,0,0,0,0,0,
0,0,0,0,0,0,0,0,0,0,0,0,0,0,0,0,
0,0,0,0,0,0,0,0,0,0,0,0,0,0,0,0,
0,0,0,0,0,0,0,0,0,0,0,0,0,0,0,0,
0,0,0,0,0,0,0,0,0,0,0,0,0,0,0,0,
0,0,0,0,0,0,0,0,0,0,0,0,0,0,256,257,
0,0,0,0,0,0,0,0,0,0,0,0,0,0,0,0,
0,0,0,0,0,0,0,0,0,0,0,0,0,0,0,0
</chunk>
    <chunk x="16" y="16" width="16" height="16">
0,0,0,0,0,0,0,0,0,0,0,0,0,0,0,0,
0,0,0,0,0,0,0,0,0,0,0,0,0,0,0,0,
0,0,0,0,0,0,0,0,0,0,0,0,0,0,0,0,
0,0,0,0,0,0,0,0,0,0,0,0,0,0,0,0,
0,0,0,0,0,0,0,0,0,0,0,0,0,0,0,0,
0,0,0,0,0,0,0,0,0,0,0,0,0,0,0,0,
0,0,0,0,0,0,0,0,0,0,0,0,0,0,0,0,
0,0,0,0,0,0,0,0,0,0,0,0,0,0,0,0,
0,0,0,0,0,0,0,0,0,0,0,0,0,0,0,0,
0,0,0,0,0,0,0,187,188,189,190,191,192,193,194,195,
0,0,0,0,0,0,0,224,225,226,227,228,229,230,231,232,
0,0,0,0,0,0,0,261,262,263,264,265,266,267,268,269,
0,0,0,0,0,0,0,0,0,0,0,0,0,0,0,0,
258,0,0,0,0,0,0,0,0,0,0,0,0,0,0,0,
0,0,0,0,0,0,0,0,0,0,0,0,0,0,0,0,
0,0,0,0,0,0,0,0,0,0,0,0,0,0,0,0
</chunk>
    <chunk x="32" y="16" width="16" height="16">
0,0,0,0,0,0,0,0,0,0,0,0,0,0,0,0,
0,0,0,0,0,0,0,0,0,0,0,0,0,0,0,0,
0,0,0,0,0,0,0,0,0,0,0,0,0,0,0,0,
0,0,0,0,0,0,0,0,212,213,214,215,0,0,0,0,
0,0,0,0,0,0,0,0,249,250,251,252,0,0,0,0,
0,0,0,0,0,0,0,0,0,0,0,0,0,0,0,0,
0,0,0,0,0,0,324,325,326,327,328,0,0,0,0,0,
0,0,0,0,0,0,361,362,363,364,365,0,0,0,0,0,
0,0,0,211,212,213,214,215,216,0,0,0,0,0,0,0,
196,197,198,248,249,250,251,252,253,0,0,0,0,0,0,0,
233,234,235,236,0,0,0,0,0,0,0,0,0,0,0,0,
270,271,272,273,0,0,0,0,0,0,0,0,0,0,0,0,
0,0,0,0,0,0,0,0,0,0,0,0,0,0,0,0,
0,0,0,0,0,0,0,0,0,0,0,0,0,0,0,0,
0,0,0,0,0,0,0,0,0,0,0,0,0,0,0,0,
0,0,0,0,0,0,0,0,0,0,0,0,0,0,0,0
</chunk>
   </data>
  </layer>
  <layer id="171" name="water_details2" width="46" height="32">
   <data encoding="csv">
    <chunk x="0" y="0" width="16" height="16">
0,0,0,0,0,0,0,0,0,0,0,0,0,0,0,0,
0,0,0,0,0,0,0,0,0,0,0,0,0,0,0,0,
0,0,0,0,0,0,0,0,0,0,0,0,0,0,0,0,
0,0,0,0,0,0,0,0,0,0,0,0,0,0,0,0,
0,0,0,0,0,0,0,0,0,0,0,0,0,0,0,0,
0,0,0,0,0,0,0,0,0,0,0,0,0,0,0,0,
0,0,0,0,0,0,0,0,0,0,0,0,0,0,0,0,
0,0,0,0,0,0,0,0,0,0,0,0,0,0,0,0,
0,0,0,0,0,0,0,0,0,0,0,0,0,0,0,0,
0,0,0,0,0,0,0,0,0,0,0,0,0,0,0,0,
0,0,0,0,0,0,0,0,0,0,0,0,0,0,0,0,
0,0,0,0,0,0,0,0,0,0,0,3210,3211,3212,3213,3214,
0,0,3073,3074,3075,3076,3077,3078,3079,3080,3081,3247,3248,3249,3250,3251,
0,0,3110,3111,3112,3113,3114,3115,3116,3117,3118,3119,3120,3121,3122,0,
0,0,3147,3148,3149,3150,3151,3152,3153,3154,3155,3156,3157,3158,3159,0,
0,0,0,0,0,0,0,0,0,0,0,0,0,0,0,0
</chunk>
    <chunk x="16" y="0" width="16" height="16">
0,0,0,0,0,0,0,0,0,0,0,0,0,0,0,0,
0,0,0,0,0,0,0,0,0,0,0,0,0,0,0,0,
0,0,0,0,0,0,0,0,0,0,0,0,0,0,0,0,
0,0,0,0,0,0,0,0,0,0,0,0,0,0,0,0,
0,0,0,0,0,0,0,0,0,0,0,0,0,0,0,0,
0,0,0,0,0,0,0,0,0,0,0,0,0,0,0,0,
0,0,0,0,0,0,0,0,0,0,0,0,0,0,0,0,
0,0,0,0,0,0,0,0,2924,2925,2926,2927,2928,2929,2930,2931,
0,0,0,0,0,0,0,0,2961,2962,2963,2964,2965,2966,2967,2968,
0,0,0,0,0,0,0,0,2998,2999,3000,3001,3002,3003,3004,3005,
0,0,0,0,0,0,0,0,0,0,0,0,0,0,0,0,
0,0,0,0,0,0,0,0,0,0,0,0,0,0,0,0,
0,0,0,0,0,0,0,0,0,0,0,0,0,0,0,0,
0,0,3097,3098,3099,3100,3101,3102,0,0,0,0,0,0,0,0,
0,0,3134,3135,3136,3137,3138,3139,0,0,0,0,0,0,0,0,
0,0,0,0,0,0,0,0,0,0,0,0,0,0,0,0
</chunk>
    <chunk x="32" y="0" width="16" height="16">
0,0,0,0,0,0,0,0,0,0,0,0,0,0,0,0,
0,0,0,0,0,0,0,0,0,0,0,0,0,0,0,0,
0,0,0,0,0,0,0,0,0,0,0,0,0,0,0,0,
0,0,0,0,0,0,0,0,0,0,0,0,0,0,0,0,
0,0,0,0,0,0,0,0,0,0,0,0,0,0,0,0,
0,0,0,0,0,0,0,0,0,0,0,0,0,0,0,0,
0,0,0,0,0,0,0,0,0,0,0,0,0,0,0,0,
2932,2933,2934,2935,2936,2937,2938,2939,2940,0,0,0,0,0,0,0,
2969,2970,2971,2972,2973,2974,2975,2976,2977,0,0,0,0,0,0,0,
3006,3007,3008,3009,3010,3011,3012,3013,3014,0,0,0,0,0,0,0,
0,0,0,0,0,0,0,0,0,0,0,0,0,0,0,0,
0,0,0,0,0,0,0,0,0,0,0,0,0,0,0,0,
0,0,0,0,0,0,0,0,0,0,0,0,0,0,0,0,
0,0,0,0,0,0,0,0,0,0,0,0,0,0,0,0,
0,0,0,0,0,0,0,0,0,0,0,0,0,0,0,0,
0,0,0,0,0,0,0,0,0,0,0,0,0,0,0,0
</chunk>
    <chunk x="0" y="16" width="16" height="16">
0,0,2993,2994,2995,2996,0,0,0,0,0,0,0,0,0,0,
0,0,3093,3094,3095,0,3088,3089,3090,3091,3092,3093,3094,3095,0,0,
0,0,3130,3131,3132,0,3125,3126,3127,3128,3129,3130,3131,3132,0,0,
0,0,0,0,0,0,0,0,0,0,0,0,0,0,0,0,
0,0,0,0,0,0,0,0,0,0,0,0,0,0,0,0,
0,0,0,0,0,0,0,0,0,0,0,0,0,0,0,0,
0,0,0,0,0,0,0,0,0,0,0,0,0,0,0,0,
0,0,0,0,0,0,0,0,0,0,0,0,0,0,0,0,
0,0,0,0,0,0,0,0,0,0,0,0,0,0,0,0,
0,0,0,0,0,0,0,0,0,0,0,0,0,0,0,0,
0,0,0,0,0,0,0,0,0,0,0,0,0,0,0,0,
0,0,0,0,0,0,0,0,0,0,0,0,0,0,0,324,
0,0,0,0,0,0,0,0,0,0,0,0,0,0,0,361,
0,0,0,0,0,0,0,0,0,0,0,0,0,0,0,0,
0,0,0,0,0,0,0,0,0,0,0,0,0,0,0,0,
0,0,0,0,0,0,0,0,0,0,0,0,0,0,0,0
</chunk>
    <chunk x="16" y="16" width="16" height="16">
0,0,0,0,0,0,0,0,0,0,0,0,0,0,0,0,
0,0,0,0,0,0,0,0,0,0,0,0,0,0,0,0,
0,0,0,0,0,0,0,0,0,0,0,0,0,0,0,0,
0,0,0,0,0,0,0,0,0,0,0,0,0,0,0,0,
0,0,0,0,0,0,0,0,0,0,0,0,0,0,0,0,
0,0,0,0,0,0,0,0,0,0,0,0,0,0,0,0,
0,0,0,0,0,0,0,0,0,0,0,0,0,0,0,0,
0,0,0,0,0,0,0,0,0,0,0,0,0,0,0,0,
0,0,0,0,0,0,0,0,0,0,0,0,0,0,0,0,
0,0,0,202,203,204,205,206,207,208,209,210,0,0,0,0,
0,0,0,239,240,241,242,243,244,245,246,247,0,0,0,0,
325,326,327,328,277,278,279,280,281,282,283,284,0,0,0,0,
362,363,364,365,0,0,0,0,0,0,0,0,0,0,0,0,
0,0,0,0,0,0,0,0,0,0,0,0,0,0,0,0,
0,0,0,0,0,0,0,0,0,0,0,0,0,0,0,0,
0,0,0,0,0,0,0,0,0,0,0,0,0,0,0,0
</chunk>
    <chunk x="32" y="16" width="16" height="16">
0,0,0,0,0,0,0,0,0,0,0,0,0,0,0,0,
0,0,0,0,0,0,0,0,0,0,0,0,0,0,0,0,
0,0,0,0,0,0,0,0,0,0,0,256,257,0,0,0,
0,0,0,0,0,0,0,0,0,0,0,0,0,0,0,0,
0,0,0,0,0,0,0,0,0,0,0,0,0,0,0,0,
0,0,0,0,0,0,0,0,0,256,257,258,0,0,0,0,
0,0,0,0,0,0,0,0,0,0,0,0,0,0,0,0,
0,0,0,0,0,0,0,0,0,0,0,0,0,0,0,0,
0,0,0,0,0,0,0,0,0,0,0,0,0,0,0,0,
0,324,325,326,327,328,0,0,0,0,0,0,0,0,0,0,
0,361,362,363,364,365,0,0,0,0,0,0,0,0,0,0,
0,0,0,0,0,0,0,0,0,0,0,0,0,0,0,0,
0,0,0,0,0,0,0,0,0,0,0,0,0,0,0,0,
0,0,0,0,0,0,0,0,0,0,0,0,0,0,0,0,
0,0,0,0,0,0,0,0,0,0,0,0,0,0,0,0,
0,0,0,0,0,0,0,0,0,0,0,0,0,0,0,0
</chunk>
   </data>
  </layer>
  <layer id="168" name="ground" width="46" height="32">
   <data encoding="csv">
    <chunk x="0" y="0" width="16" height="16">
0,0,0,0,0,0,0,0,0,0,0,0,0,0,0,0,
0,0,7665,7665,7665,7665,0,0,0,0,0,0,0,0,0,0,
0,0,0,7665,7665,7665,7665,0,0,0,0,0,0,0,0,0,
0,0,0,0,0,7665,7665,7665,0,0,0,0,0,0,0,0,
0,0,0,0,0,0,0,0,0,0,0,6314,6314,6314,6314,6314,
0,0,0,0,0,0,0,0,0,0,6314,6314,6314,6314,6314,6314,
0,0,0,0,0,0,0,0,0,6314,6314,6314,6314,0,0,0,
0,0,0,0,0,0,0,0,0,6314,6314,6314,0,0,0,0,
0,0,0,0,0,0,0,0,6314,6314,6314,6314,0,0,0,0,
0,0,0,0,0,0,0,6314,6314,6314,6314,0,0,0,0,0,
0,0,0,0,0,0,0,6314,6314,6314,0,0,0,0,0,0,
0,0,0,0,0,0,0,6314,6314,0,0,0,0,0,0,0,
0,0,0,0,0,0,0,6314,6314,0,0,0,0,0,0,0,
0,0,0,0,0,0,0,0,0,0,0,0,0,0,0,0,
0,0,0,0,0,0,0,0,0,0,0,0,0,0,0,0,
0,0,0,0,0,0,0,0,0,0,0,0,0,0,0,0
</chunk>
    <chunk x="16" y="0" width="16" height="16">
0,0,0,0,0,0,0,0,0,0,0,0,0,0,0,0,
0,0,6314,6314,6314,6314,0,0,0,0,0,0,0,0,6314,6314,
0,6314,6314,6314,6314,0,0,6314,6314,6314,6314,6314,6314,6314,6314,6314,
6314,6314,6314,6314,6314,0,6314,6314,6314,0,0,0,0,0,6314,6314,
6314,6314,6314,6314,0,0,6314,6314,0,0,0,0,0,0,6314,6314,
6314,6314,6314,0,0,0,6314,6314,0,0,0,0,0,6314,6314,6314,
0,6314,0,0,0,0,6314,6314,6314,6314,6314,6314,6314,6314,6314,6314,
0,0,0,0,0,0,6314,6314,6314,6314,6314,6314,6314,6314,6314,6314,
0,0,0,0,0,0,6314,6314,6314,6314,6314,6314,6314,6314,6314,6314,
0,0,0,0,0,0,6314,6314,6314,6314,6314,6314,0,0,6314,0,
0,0,0,0,0,0,6314,6314,0,0,6314,6314,0,0,6314,0,
0,0,0,0,0,0,0,0,6314,6314,6314,6314,6314,6314,6314,6314,
0,0,0,0,0,0,6314,6314,6314,6314,6314,6314,6314,6314,6314,6314,
0,0,0,0,0,0,0,0,0,0,0,0,6314,6314,6314,6314,
0,0,0,0,0,0,0,0,0,0,6314,6314,6314,6314,6314,6314,
0,0,0,0,0,0,6314,6314,6314,6314,6314,6314,6314,6314,6314,6314
</chunk>
    <chunk x="32" y="0" width="16" height="16">
0,0,0,0,0,0,0,0,0,0,0,0,0,0,0,0,
6314,6314,6314,6314,6314,6314,6314,6314,6314,6314,6314,6314,6314,0,0,0,
6314,6314,6314,6314,6314,6314,6314,6314,6314,6314,6314,6314,6314,0,0,0,
6314,6314,6314,6314,6314,6314,6314,6314,6314,6314,6314,6314,6314,0,0,0,
6314,6314,6314,6314,6314,6314,6314,6314,6314,6314,6314,6314,6314,0,0,0,
6314,6314,6314,6314,6314,6314,6314,6314,6314,6314,6314,6314,6314,0,0,0,
6314,6314,6314,6314,6314,6314,6314,6314,6314,6314,6314,6314,6314,0,0,0,
6314,6314,0,0,0,0,0,6314,6314,6314,6314,6314,6314,0,0,0,
6314,0,0,0,0,0,0,0,6314,6314,6314,6314,6314,0,0,0,
0,0,0,0,0,0,0,0,0,6314,6314,6314,6314,0,0,0,
0,0,0,0,0,0,0,0,0,6314,6314,6314,6314,0,0,0,
0,0,0,0,0,0,0,0,6314,6314,6314,6314,6314,0,0,0,
0,0,0,0,0,0,0,6314,6314,6314,6314,6314,6314,0,0,0,
6314,6314,6314,6314,6314,6314,0,0,6314,0,0,6314,0,0,0,0,
6314,6314,6314,6314,6314,0,0,0,6314,0,0,0,0,0,0,0,
6314,6314,0,0,0,0,0,0,0,0,0,0,0,0,0,0
</chunk>
    <chunk x="0" y="16" width="16" height="16">
0,0,0,0,0,0,0,0,0,0,0,0,0,0,0,0,
0,0,0,0,0,0,0,0,0,0,7665,0,0,0,0,6314,
0,0,0,0,0,0,0,0,6314,7665,7665,0,0,0,6314,6314,
0,0,0,0,0,7665,7665,6314,6314,6314,6314,6314,6314,6314,6314,6314,
0,0,0,0,0,0,7665,7665,7665,6314,6314,6314,6314,6314,6314,6314,
0,0,0,0,0,0,0,0,0,0,0,0,0,6314,6314,7665,
0,0,0,0,0,0,0,0,0,0,0,0,0,0,7665,7665,
0,0,0,0,0,0,0,0,0,0,0,0,0,0,7665,7665,
0,0,0,0,0,0,0,0,0,0,0,0,0,0,0,7665,
0,0,0,0,0,0,0,0,0,0,0,0,0,0,0,0,
0,0,0,0,0,0,0,0,0,0,0,0,0,0,0,0,
0,0,0,0,0,0,0,0,0,0,0,0,0,0,0,0,
0,0,0,0,0,0,0,0,0,0,0,0,0,0,0,0,
0,0,0,0,0,0,0,0,0,0,0,0,0,0,0,0,
0,0,0,0,0,0,0,0,0,0,0,0,0,0,0,0,
0,0,0,0,0,0,0,0,0,0,0,0,0,0,0,0
</chunk>
    <chunk x="16" y="16" width="16" height="16">
0,0,0,0,0,0,6314,6314,6314,6314,6314,6314,6314,6314,6314,6314,
6314,6314,0,6314,6314,6314,6314,6314,6314,6314,6314,6314,6314,6314,6314,0,
6314,6314,6314,6314,6314,6314,6314,6314,6314,6314,6314,6314,6314,6314,0,0,
6314,6314,6314,6314,6314,6314,6314,6314,6314,6314,6314,6314,0,0,0,0,
6314,6314,6314,6314,6314,6314,6314,6314,6314,0,0,0,0,0,0,0,
6314,6314,6314,6314,6314,6314,6314,0,0,0,0,0,0,0,0,0,
6314,6314,6314,6314,0,0,0,0,0,0,0,0,0,0,0,0,
7665,7665,7665,7665,0,0,0,0,0,0,0,0,0,0,0,0,
7665,7665,7665,7665,0,0,0,0,0,0,0,0,0,0,0,0,
0,0,7665,7665,0,0,0,0,0,0,0,0,0,0,0,0,
0,0,0,0,0,0,0,0,0,0,0,0,0,0,0,0,
0,0,0,0,0,0,0,0,0,0,0,0,0,0,0,0,
0,0,7665,7665,7665,0,0,0,0,0,0,0,0,0,0,0,
0,0,0,7665,7665,7665,0,0,0,0,0,0,0,0,0,0,
0,0,0,0,0,0,0,0,0,0,0,0,0,0,0,0,
0,0,0,0,0,0,0,0,0,0,0,0,0,0,0,0
</chunk>
   </data>
  </layer>
  <layer id="177" name="spots1" width="46" height="32">
   <data encoding="csv">
    <chunk x="0" y="0" width="16" height="16">
0,0,0,0,0,0,0,0,0,0,0,0,0,0,0,0,
0,0,0,0,0,0,0,0,0,0,0,0,0,0,0,0,
0,0,0,0,0,0,0,0,0,0,0,0,0,0,0,0,
0,0,0,0,0,0,0,0,0,0,0,0,0,0,0,0,
0,0,0,0,0,0,0,0,0,0,0,0,8171,8172,8104,8105,
0,0,0,0,0,0,0,0,0,0,0,8072,8192,8193,8125,8126,
0,0,0,0,0,0,0,0,0,0,0,8093,8094,0,0,0,
0,0,0,0,0,0,0,0,0,8167,8168,0,0,0,0,0,
0,0,0,0,0,0,0,0,0,8188,8189,0,0,0,0,0,
0,0,0,0,0,0,0,0,0,0,0,0,0,0,0,0,
0,0,0,0,0,0,0,8078,8079,0,0,0,0,0,0,0,
0,0,0,0,0,0,0,8099,8100,0,0,0,0,0,0,0,
0,0,0,0,0,0,0,8120,8121,0,0,0,0,0,0,0,
0,0,0,0,0,0,0,0,0,0,0,0,0,0,0,0,
0,0,0,0,0,0,0,0,0,0,0,0,0,0,0,0,
0,0,0,0,0,0,0,0,0,0,0,0,0,0,0,0
</chunk>
    <chunk x="16" y="0" width="16" height="16">
0,0,0,0,0,0,0,0,0,0,0,0,0,0,0,0,
0,0,0,8127,8128,0,0,0,0,0,0,0,0,0,8196,8197,
0,8169,8170,8148,0,0,0,0,0,0,0,0,0,0,8217,8218,
0,8190,8191,0,0,0,8173,8174,0,0,0,0,0,0,8158,8159,
8196,8197,0,0,0,0,8194,8195,0,0,0,0,0,0,0,0,
8217,8218,0,0,0,0,8099,8100,0,0,0,0,0,0,0,0,
0,0,0,0,0,0,8198,8199,8150,0,0,0,0,0,0,0,
0,0,0,0,0,0,8219,8220,8167,8168,0,0,0,0,0,0,
0,0,0,0,0,0,0,0,8188,8189,8150,0,0,0,0,0,
0,0,0,0,0,0,0,0,0,0,8171,8172,0,0,0,0,
0,0,0,0,0,0,0,0,0,0,8192,8193,0,0,0,0,
0,0,0,0,0,0,0,0,0,0,0,0,0,0,8200,8201,
0,0,0,0,0,0,0,0,0,0,0,0,0,0,8221,8222,
0,0,0,0,0,0,0,0,0,0,0,0,0,0,0,0,
0,0,0,0,0,0,0,0,0,0,0,0,0,0,0,0,
0,0,0,0,0,0,0,0,0,0,0,0,0,0,0,0
</chunk>
    <chunk x="32" y="0" width="16" height="16">
0,0,0,0,0,0,0,0,0,0,0,0,0,0,0,0,
0,0,0,0,0,0,0,0,0,0,0,0,0,0,0,0,
0,0,0,0,0,0,0,0,0,0,0,0,0,0,0,0,
0,0,0,0,0,0,0,0,0,0,0,0,0,0,0,0,
0,0,0,0,0,0,0,0,0,0,0,0,0,0,0,0,
0,0,0,0,0,0,0,0,0,0,0,0,0,0,0,0,
0,0,0,0,0,0,0,0,0,0,0,0,0,0,0,0,
0,0,0,0,0,0,0,0,0,0,0,0,0,0,0,0,
0,0,0,0,0,0,0,0,0,0,0,0,0,0,0,0,
0,0,0,0,0,0,0,0,0,0,8159,0,0,0,0,0,
0,0,0,0,0,0,0,0,0,0,0,0,0,0,0,0,
0,0,0,0,0,0,0,0,0,0,8169,8170,0,0,0,0,
0,0,0,0,0,0,0,0,1073750033,1073750034,8190,8191,0,0,0,0,
8196,8197,8104,8105,0,0,0,0,0,0,0,0,0,0,0,0,
8217,8218,8125,8126,0,0,0,0,0,0,0,0,0,0,0,0,
0,0,0,0,0,0,0,0,0,0,0,0,0,0,0,0
</chunk>
    <chunk x="0" y="16" width="16" height="16">
0,0,0,0,0,0,0,0,0,0,0,0,0,0,0,0,
0,0,0,0,0,0,0,0,0,0,0,0,0,0,0,0,
0,0,0,0,0,0,0,0,8148,0,0,0,0,0,0,0,
0,0,0,0,0,0,8148,8167,8168,0,8171,8172,0,0,0,0,
0,0,0,0,0,0,0,8188,8189,0,8192,8193,0,8198,8199,0,
0,0,0,0,0,0,0,0,0,0,0,0,0,8219,8220,0,
0,0,0,0,0,0,0,0,0,0,0,0,0,0,0,0,
0,0,0,0,0,0,0,0,0,0,0,0,0,0,0,0,
0,0,0,0,0,0,0,0,0,0,0,0,0,0,0,0,
0,0,0,0,0,0,0,0,0,0,0,0,0,0,0,0,
0,0,0,0,0,0,0,0,0,0,0,0,0,0,0,0,
0,0,0,0,0,0,0,0,0,0,0,0,0,0,0,0,
0,0,0,0,0,0,0,0,0,0,0,0,0,0,0,0,
0,0,0,0,0,0,0,0,0,0,0,0,0,0,0,0,
0,0,0,0,0,0,0,0,0,0,0,0,0,0,0,0,
0,0,0,0,0,0,0,0,0,0,0,0,0,0,0,0
</chunk>
    <chunk x="16" y="16" width="16" height="16">
0,0,0,0,0,0,0,0,0,0,0,0,0,0,0,0,
0,0,0,0,0,0,0,0,0,0,0,0,0,0,0,0,
0,0,0,0,0,0,0,0,0,0,0,0,0,0,0,0,
0,0,0,0,0,0,0,0,0,0,0,0,0,0,0,0,
0,0,0,0,0,0,0,0,0,0,0,0,0,0,0,0,
0,0,0,0,0,0,0,0,0,0,0,0,0,0,0,0,
8200,8201,0,0,0,0,0,0,0,0,0,0,0,0,0,0,
8221,8222,0,0,0,0,0,0,0,0,0,0,0,0,0,0,
0,0,8099,8100,0,0,0,0,0,0,0,0,0,0,0,0,
0,0,0,0,0,0,0,0,0,0,0,0,0,0,0,0,
0,0,0,0,0,0,0,0,0,0,0,0,0,0,0,0,
0,0,0,0,0,0,0,0,0,0,0,0,0,0,0,0,
0,0,0,8169,8170,0,0,0,0,0,0,0,0,0,0,0,
0,0,0,8190,8191,0,0,0,0,0,0,0,0,0,0,0,
0,0,0,0,0,0,0,0,0,0,0,0,0,0,0,0,
0,0,0,0,0,0,0,0,0,0,0,0,0,0,0,0
</chunk>
   </data>
  </layer>
  <layer id="178" name="spots2" width="46" height="32">
   <data encoding="csv">
    <chunk x="16" y="0" width="16" height="16">
0,0,0,0,0,0,0,0,0,0,0,0,0,0,0,0,
0,0,0,8112,8113,0,0,0,0,0,0,0,0,0,0,8089,
0,0,0,8133,8134,0,0,0,1610620964,0,0,0,0,0,0,0,
0,8066,8067,0,0,0,0,8176,1610620963,0,0,0,0,0,0,0,
0,8087,8088,0,0,0,0,0,0,0,0,0,0,0,0,0,
0,0,0,0,0,0,0,0,0,0,0,0,0,0,0,0,
0,0,0,0,0,0,0,0,0,0,0,0,0,0,0,0,
0,0,0,0,0,0,0,0,0,0,8118,8119,0,0,0,0,
0,0,0,0,0,0,0,0,0,0,0,0,0,0,0,0,
0,0,0,0,0,0,0,0,0,0,0,0,0,0,0,0,
0,0,0,0,0,0,0,0,0,0,0,0,0,0,0,0,
0,0,0,0,0,0,0,0,0,0,0,0,0,8097,8098,0,
0,0,0,0,0,0,0,0,0,0,0,0,0,0,0,0,
0,0,0,0,0,0,0,0,0,0,0,0,0,0,0,8118,
0,0,0,0,0,0,0,0,0,0,0,0,0,0,0,0,
0,0,0,0,0,0,0,0,0,0,0,0,0,0,0,0
</chunk>
    <chunk x="32" y="0" width="16" height="16">
0,0,0,0,0,0,0,0,0,0,0,0,0,0,0,0,
8090,0,0,0,0,0,0,0,0,0,0,0,0,0,0,0,
0,0,0,0,0,0,0,0,0,0,0,0,0,0,0,0,
0,0,0,0,0,0,0,0,0,0,0,0,0,0,0,0,
0,0,0,0,0,0,0,0,0,0,0,0,0,0,0,0,
0,0,0,0,0,0,0,0,0,0,0,0,0,0,0,0,
0,0,0,0,0,0,0,0,0,0,0,0,0,0,0,0,
0,0,0,0,0,0,0,0,0,0,0,0,0,0,0,0,
0,0,0,0,0,0,0,0,0,0,0,0,0,0,0,0,
0,0,0,0,0,0,0,0,0,0,0,0,0,0,0,0,
0,0,0,0,0,0,0,0,0,8082,0,8066,8067,0,0,0,
0,0,0,0,0,0,0,0,8150,8103,0,8087,8088,0,0,0,
0,0,0,0,0,0,0,0,0,0,0,0,0,0,0,0,
8119,0,0,0,0,0,0,0,0,0,0,0,0,0,0,0,
0,0,0,0,0,0,0,0,0,0,0,0,0,0,0,0,
0,0,0,0,0,0,0,0,0,0,0,0,0,0,0,0
</chunk>
    <chunk x="0" y="16" width="16" height="16">
0,0,0,0,0,0,0,0,0,0,0,0,0,0,0,0,
0,0,0,0,0,0,0,0,0,0,0,0,0,0,0,0,
0,0,0,0,0,0,0,0,0,8104,8105,0,0,0,0,0,
0,0,0,0,0,0,0,0,0,8125,8126,8112,8113,0,0,0,
0,0,0,0,0,0,0,0,0,0,0,8133,8134,8150,0,0,
0,0,0,0,0,0,0,0,0,0,0,0,0,0,8097,8098,
0,0,0,0,0,0,0,0,0,0,0,0,0,0,0,0,
0,0,0,0,0,0,0,0,0,0,0,0,0,0,0,0,
0,0,0,0,0,0,0,0,0,0,0,0,0,0,0,0,
0,0,0,0,0,0,0,0,0,0,0,0,0,0,0,0,
0,0,0,0,0,0,0,0,0,0,0,0,0,0,0,0,
0,0,0,0,0,0,0,0,0,0,0,0,0,0,0,0,
0,0,0,0,0,0,0,0,0,0,0,0,0,0,0,0,
0,0,0,0,0,0,0,0,0,0,0,0,0,0,0,0,
0,0,0,0,0,0,0,0,0,0,0,0,0,0,0,0,
0,0,0,0,0,0,0,0,0,0,0,0,0,0,0,0
</chunk>
    <chunk x="16" y="16" width="16" height="16">
0,0,0,0,0,0,0,0,0,0,0,0,0,0,0,0,
0,0,0,0,0,0,0,0,0,0,0,0,0,0,0,0,
0,0,0,0,0,0,0,0,0,0,0,0,0,0,0,0,
0,0,0,0,0,0,0,0,0,0,0,0,0,0,0,0,
0,0,0,0,0,0,0,0,0,0,0,0,0,0,0,0,
0,0,0,0,0,0,0,0,0,0,0,0,0,0,0,0,
0,0,0,0,0,0,0,0,0,0,0,0,0,0,0,0,
0,8072,8073,0,0,0,0,0,0,0,0,0,0,0,0,0,
0,8093,8094,0,0,0,0,0,0,0,0,0,0,0,0,0,
0,0,0,0,0,0,0,0,0,0,0,0,0,0,0,0,
0,0,0,0,0,0,0,0,0,0,0,0,0,0,0,0,
0,0,0,0,0,0,0,0,0,0,0,0,0,0,0,0,
0,0,0,0,0,0,0,0,0,0,0,0,0,0,0,0,
0,0,0,0,8108,8109,0,0,0,0,0,0,0,0,0,0,
0,0,0,0,0,0,0,0,0,0,0,0,0,0,0,0,
0,0,0,0,0,0,0,0,0,0,0,0,0,0,0,0
</chunk>
   </data>
  </layer>
  <layer id="163" name="main_space" width="46" height="32">
   <data encoding="csv">
    <chunk x="0" y="0" width="16" height="16">
0,0,0,0,0,0,0,0,0,0,0,0,0,0,0,0,
0,0,0,0,0,0,5954,5954,5954,5954,5954,5954,5954,5954,5954,5954,
0,0,5954,0,0,0,0,5954,5954,5954,5954,5954,5954,5954,5954,5954,
0,0,5954,5954,5954,0,0,0,5954,5954,5954,5954,5954,5954,5954,5954,
0,0,5954,5954,5954,5954,5954,5954,5954,5954,5954,5954,7814,7841,7854,7841,
0,0,5954,5954,5954,5954,5954,5954,5954,5954,5954,2147491463,7838,7820,7812,7821,
0,0,5954,5954,5954,5954,5954,5954,5954,5954,7814,2147491487,7836,5954,5954,5954,
0,0,5954,5954,5954,5954,5954,5954,5954,2147491463,7838,7836,5954,5954,5954,5954,
0,0,5984,6205,5933,5954,5954,5954,7814,2147491487,2147491483,5954,5954,5954,5954,5954,
0,0,6014,6235,5960,5927,5954,7814,7838,7836,5954,5954,5954,5954,7770,5954,
0,0,0,0,5990,5983,5933,2147491480,7822,5954,5954,5954,5954,7770,7770,7770,
0,0,0,0,0,6013,5963,2147491480,7822,5954,5954,7770,7770,7770,7770,7770,
0,0,0,0,0,0,5953,7834,7832,5954,7770,7770,7770,7770,7770,7770,
0,0,0,0,0,0,5983,5824,5825,5966,5933,5954,5954,5954,5954,5954,
0,0,0,0,0,0,0,5854,5855,6013,5963,5954,5954,5954,5954,5954,
0,0,0,0,0,0,0,5860,5861,5923,5993,5954,5954,5954,5954,5954
</chunk>
    <chunk x="16" y="0" width="16" height="16">
0,0,0,0,0,0,0,0,0,0,0,0,0,0,0,0,
5954,5954,7814,7855,7811,7836,5954,5954,7770,7770,7770,7770,7770,7770,7814,7855,
5954,7814,7855,7811,7836,5954,7770,7814,7854,7854,7815,7770,7814,7854,7855,0,
7814,7855,7811,7836,5954,7770,7814,7855,0,5806,5822,5984,5821,5807,0,0,
7855,7811,7836,5954,5954,7770,7834,0,5806,5839,5894,6014,5803,5837,0,0,
7812,7836,5954,5954,5954,7770,2147491470,0,5836,5804,5815,5816,5873,0,0,0,
5954,5954,5954,5954,5954,7770,2147491480,0,0,0,0,0,0,0,0,0,
5954,5954,5954,5954,5954,5954,7835,7812,7813,0,0,0,0,0,0,0,
5954,5954,5954,5954,5954,7770,7770,7770,7835,7821,7813,0,0,0,0,0,
5954,5954,5954,5926,5927,7770,7770,7770,7770,7770,7834,0,5806,5807,0,5806,
5954,5954,5954,5956,5957,7770,7770,7770,7770,7770,7835,7813,5836,5837,0,5836,
5954,5954,5954,5954,5954,7770,7770,7770,7770,7770,7770,7835,7812,2147491459,0,0,
7770,5932,5984,5933,5954,5954,7770,7770,7770,7770,7770,7770,7770,7835,7813,0,
5926,5959,6014,5960,5927,5954,5954,7770,7770,7770,7770,7770,7770,7770,7835,7813,
5956,5925,0,5923,5957,5954,5954,5954,7770,7770,0,0,0,0,7770,7835,
5954,5992,5924,5993,5954,5954,5954,5954,5954,0,0,0,0,0,7770,7770
</chunk>
    <chunk x="32" y="0" width="16" height="16">
0,0,0,0,0,0,0,0,0,0,0,0,0,0,0,0,
0,0,0,0,0,0,0,0,0,0,0,0,0,0,0,0,
0,0,0,0,0,0,0,0,0,0,0,0,0,0,0,0,
0,0,0,0,0,0,0,0,0,0,0,0,0,0,0,0,
0,0,0,0,0,0,0,0,0,0,0,0,0,0,0,0,
0,0,0,0,0,0,0,0,0,0,0,0,0,0,0,0,
0,0,0,0,0,0,0,0,0,0,0,0,0,0,0,0,
0,0,5806,5830,5831,5864,5807,0,0,0,0,0,0,0,0,0,
0,5806,5839,5887,5888,5894,5840,5807,0,0,0,0,0,0,0,0,
5846,5839,0,5914,5915,0,5990,5840,5813,0,0,0,0,0,0,0,
5805,0,0,5917,5918,0,0,5803,5873,0,0,0,0,0,0,0,
5835,0,0,5887,5888,0,5923,5942,0,0,0,0,0,0,0,0,
5872,5804,5815,5950,5951,5882,5993,7835,7812,7821,7812,7820,7821,0,0,0,
0,0,0,7811,7812,7836,5954,5954,5954,7770,7770,7770,7770,0,0,0,
7812,7820,7812,7836,7770,5954,5954,5954,5954,5954,5954,7770,7770,0,0,0,
7770,7770,7770,7770,5954,5954,5954,5954,5954,5954,5954,5954,5954,0,0,0
</chunk>
    <chunk x="0" y="16" width="16" height="16">
0,0,0,0,0,0,0,5890,5891,5963,5954,5954,5954,5954,5954,5954,
0,0,0,0,0,0,5803,5950,5951,6002,7815,5954,5954,5954,5954,5954,
0,0,0,0,5923,5881,5873,5834,0,0,7832,5954,5954,5954,7770,7770,
0,0,0,5923,5993,7835,7813,0,0,0,7853,7854,7841,7854,7815,7770,
0,0,5936,5993,5954,5954,7835,7812,7821,7812,7820,7812,7812,7813,7853,7815,
0,0,5954,5954,5954,5954,5954,5954,5954,5954,5954,5954,7770,7835,7813,7853,
0,0,5954,5954,5954,5954,5954,5954,5954,5954,5954,5954,7770,7770,7835,7812,
0,0,5954,5954,5954,5954,5954,5954,5954,5954,5954,5954,7770,7770,7770,7770,
0,0,5954,5954,5954,5954,5954,5954,5954,5954,5954,5954,5954,5954,5954,5954,
0,0,5954,5954,5954,5954,5954,5954,5954,5954,5954,5954,5954,5954,5954,5954,
0,0,5954,5954,5954,5954,5954,5954,5954,5954,5954,5954,5954,5954,5954,5954,
0,0,5954,5954,5954,5954,5954,5954,5954,5954,5954,5954,5954,5954,5926,5984,
0,0,5954,5954,5954,5954,5954,5954,5954,5954,5954,5954,5954,5926,5959,6014,
0,0,5954,5954,5954,5954,5954,5954,5954,5954,5954,5954,5954,5955,0,0,
0,0,0,0,0,0,0,0,0,0,0,0,0,0,0,0,
0,0,0,0,0,0,0,0,0,0,0,0,0,0,0,0
</chunk>
    <chunk x="16" y="16" width="16" height="16">
5954,5954,5954,5954,5954,5954,5954,7770,7770,0,0,0,0,0,7770,7770,
7770,7770,5954,5954,5954,5954,7770,7770,7770,0,0,0,0,0,7770,7770,
7770,7770,7770,7770,7770,7770,7770,7770,7770,7770,0,0,0,7770,7770,7770,
7770,7770,7770,7770,7770,7770,7770,7770,7770,7770,0,0,7770,7770,7770,5954,
7770,7770,7770,7770,7770,7770,7770,7770,7770,7770,7770,7770,7770,5954,5954,5954,
7854,7815,7770,7770,7770,7770,7770,7770,7770,7770,7770,7770,5954,5954,5954,5954,
7813,7853,7815,7770,7770,7770,7770,7770,7770,7770,7770,5954,5954,5954,5954,5954,
2147491484,7813,7853,7815,7770,7770,7770,7770,5954,5954,7770,5954,5954,5954,5954,5954,
7770,7835,7813,7832,5954,5954,5954,5954,5954,5954,7770,5954,5954,5954,5954,5954,
5954,5954,7834,7832,5954,5926,5984,5965,5966,5984,5965,5966,5966,5984,5965,5984,
5926,5965,5824,5825,5965,5959,6014,5995,5996,6014,5995,5996,5996,6014,5995,6014,
5959,5995,5944,5945,5995,6014,0,0,0,7665,7665,0,0,0,0,0,
0,0,0,0,0,0,0,0,0,7665,7665,0,0,0,0,0,
0,0,0,0,0,0,0,0,0,7665,7665,0,0,0,0,0,
0,0,0,0,0,0,0,0,0,0,0,0,0,0,0,0,
0,0,0,0,0,0,0,0,0,0,0,0,0,0,0,0
</chunk>
    <chunk x="32" y="16" width="16" height="16">
7770,7770,5954,5954,5954,5954,5954,5954,5954,5954,5954,5954,5954,0,0,0,
7770,5954,5954,5954,5954,5954,5954,5954,5954,5954,5954,5932,5984,0,0,0,
5954,5954,5954,5954,5954,5954,5954,5954,5954,5954,5954,5955,6014,0,0,0,
5954,5954,5954,5954,5954,5954,5954,5954,5954,5932,5966,5985,0,0,0,0,
5954,5954,5954,5954,5954,5954,5954,5954,5954,5962,5996,6015,0,0,0,0,
5954,5954,5954,5954,5954,5954,5954,5954,5926,5985,0,0,0,0,0,0,
5954,5954,5954,5954,5954,5954,5926,5984,5959,6015,0,0,0,0,0,0,
5954,5954,5954,5954,5954,5926,5959,6014,0,0,0,0,0,0,0,0,
5954,5954,5954,5926,5966,5959,0,0,0,0,0,0,0,0,0,0,
5966,5827,5828,5959,5996,6015,0,0,0,0,0,0,0,0,0,0,
5996,5890,5891,6015,0,0,0,0,0,0,0,0,0,0,0,0,
0,0,0,0,0,0,0,0,0,0,0,0,0,0,0,0,
0,0,0,0,0,0,0,0,0,0,0,0,0,0,0,0,
0,0,0,0,0,0,0,0,0,0,0,0,0,0,0,0,
0,0,0,0,0,0,0,0,0,0,0,0,0,0,0,0,
0,0,0,0,0,0,0,0,0,0,0,0,0,0,0,0
</chunk>
   </data>
  </layer>
  <layer id="166" name="main_space2" width="46" height="32">
   <data encoding="csv">
    <chunk x="0" y="16" width="16" height="16">
0,0,0,0,0,0,0,0,0,0,0,0,0,0,0,0,
0,0,0,0,0,0,0,0,0,0,0,0,0,0,0,0,
0,0,0,0,0,0,0,0,0,0,0,0,0,0,0,0,
0,0,0,0,0,0,0,0,0,0,0,0,0,0,0,0,
0,0,0,0,0,0,0,0,0,0,0,0,0,0,0,0,
0,0,0,0,0,0,0,0,0,0,0,0,0,0,0,0,
0,0,0,0,0,0,0,0,0,0,0,0,0,0,0,0,
0,0,0,0,0,0,0,0,0,0,0,0,0,0,0,0,
0,0,0,0,0,0,0,0,0,0,0,0,0,0,0,0,
0,0,0,0,0,0,0,0,0,0,0,0,0,0,0,0,
0,0,0,0,0,0,0,0,0,0,0,0,0,0,0,0,
0,0,0,0,0,0,0,0,0,0,0,0,0,0,0,0,
0,0,0,0,0,0,0,0,0,0,0,0,0,0,0,5923,
0,0,0,0,0,0,0,0,0,0,0,0,0,0,0,5953,
0,0,0,0,0,0,0,0,0,0,0,0,0,0,0,0,
0,0,0,0,0,0,0,0,0,0,0,0,0,0,0,0
</chunk>
    <chunk x="16" y="16" width="16" height="16">
0,0,0,0,0,0,0,0,0,0,0,0,0,0,0,0,
0,0,0,0,0,0,0,0,0,0,0,0,0,0,0,0,
0,0,0,0,0,0,0,0,0,0,0,0,0,0,0,0,
0,0,0,0,0,0,0,0,0,0,0,0,0,0,0,0,
0,0,0,0,0,0,0,0,0,0,0,0,0,0,0,0,
0,0,0,0,0,0,0,0,0,0,0,0,0,0,0,0,
0,0,0,0,0,0,0,0,0,0,0,0,0,0,0,0,
0,0,0,0,0,0,0,0,0,0,0,0,0,0,0,0,
0,0,0,0,0,0,0,0,0,0,0,0,0,0,0,0,
0,0,0,0,0,0,0,0,0,0,0,0,0,0,0,0,
0,0,0,0,0,0,5923,5936,5924,5935,5924,5936,5936,5925,0,0,
0,5923,5881,5882,5936,5924,5993,5954,5954,5954,5954,5954,5954,5992,5936,5924,
5924,5993,7835,7839,7815,5954,5954,5954,5954,5954,5954,5954,5954,5954,5954,5954,
5954,5954,5954,7835,7839,7815,5954,5954,5954,5954,5954,5954,5954,5954,5954,5954,
0,0,0,0,0,0,0,0,0,0,0,0,0,0,0,0,
0,0,0,0,0,0,0,0,0,0,0,0,0,0,0,0
</chunk>
    <chunk x="32" y="16" width="16" height="16">
0,0,0,0,0,0,0,0,0,0,0,0,0,0,0,0,
0,0,0,0,0,0,0,0,0,0,0,0,0,0,0,0,
0,0,0,0,0,0,0,0,0,0,0,0,0,0,0,0,
0,0,0,0,0,0,0,0,0,0,0,0,5923,0,0,0,
0,0,0,0,0,0,0,0,0,0,5923,5924,5993,0,0,0,
0,0,0,0,0,0,0,0,0,0,5953,5954,5954,0,0,0,
0,0,0,0,0,0,0,0,0,5923,5993,5954,5954,0,0,0,
0,0,0,0,0,0,0,5923,5924,5993,5954,5954,5954,0,0,0,
0,0,0,0,0,0,2147489573,2147489640,5954,5954,5954,5954,5954,0,0,0,
0,0,0,0,0,5923,5993,5954,5954,5954,5954,5954,5954,0,0,0,
0,0,0,0,5923,5993,5954,5954,5954,5954,5954,5954,5954,0,0,0,
5935,5947,5948,5924,5993,5954,5954,5954,5954,5954,5954,5954,5954,0,0,0,
5954,5954,5954,5954,5954,5954,5954,5954,5954,5954,5954,5954,5954,0,0,0,
5954,5954,5954,5954,5954,5954,5954,5954,5954,5954,5954,5954,5954,0,0,0,
0,0,0,0,0,0,0,0,0,0,0,0,0,0,0,0,
0,0,0,0,0,0,0,0,0,0,0,0,0,0,0,0
</chunk>
   </data>
  </layer>
  <layer id="205" name="water_lilies" width="46" height="32">
   <data encoding="csv">
    <chunk x="0" y="0" width="16" height="16">
0,0,0,0,0,0,0,0,0,0,0,0,0,0,0,0,
0,0,0,0,0,0,0,0,0,0,0,0,0,0,0,0,
0,0,0,0,0,0,0,0,0,0,0,0,0,0,0,0,
0,0,0,0,0,0,0,0,0,0,0,0,0,0,0,0,
0,0,0,0,0,0,0,0,0,0,0,0,0,0,0,0,
0,0,0,0,0,0,0,0,0,0,0,0,0,0,0,0,
0,0,0,0,0,0,0,0,0,0,0,0,0,0,0,0,
0,0,0,0,0,0,0,0,0,0,0,0,0,0,0,0,
0,0,0,0,0,0,0,0,0,0,0,0,0,0,0,0,
0,0,2147494066,2147494065,0,0,0,0,0,0,0,0,0,0,0,0,
0,0,2147494036,2147494072,0,10389,10390,0,0,0,0,0,0,0,0,0,
0,0,0,0,10395,10396,10397,0,0,0,0,0,0,0,0,0,
0,0,0,0,0,0,0,0,0,0,0,0,0,0,0,0,
0,0,0,0,0,0,2147494056,2147494055,0,0,0,0,0,0,0,0,
0,0,0,0,0,0,2147494063,2147494062,0,0,0,0,0,0,0,0,
0,0,0,0,0,0,0,0,0,0,0,0,0,0,0,0
</chunk>
    <chunk x="16" y="0" width="16" height="16">
0,0,0,0,0,0,0,0,0,0,0,0,0,0,0,0,
0,0,0,0,0,0,0,0,0,0,0,0,0,0,0,0,
0,0,0,0,0,0,0,0,0,0,0,0,0,0,0,0,
0,0,0,0,0,0,0,0,0,0,0,0,0,0,0,0,
0,0,0,0,0,0,0,0,0,2147494038,2147494037,2147494036,10405,10406,0,0,
0,0,0,0,0,0,0,0,0,2147494045,2147494044,2147494043,0,0,0,0,
0,0,0,0,0,0,0,0,0,0,0,0,0,0,0,0,
0,0,0,0,0,0,0,0,0,0,0,0,0,0,0,0,
0,0,0,0,0,0,0,0,0,0,0,0,0,0,0,0,
0,0,0,0,0,0,0,0,0,0,0,0,0,0,0,0,
0,0,0,0,0,0,0,0,0,0,0,0,0,0,0,0,
0,0,0,0,0,0,0,0,0,0,0,0,0,0,0,0,
0,0,0,0,0,0,0,0,0,0,0,0,0,0,0,0,
0,0,0,0,0,0,0,0,0,0,0,0,0,0,0,0,
0,0,0,0,0,0,0,0,0,0,0,0,0,0,0,0,
0,0,0,0,0,0,0,0,0,0,0,0,0,0,0,0
</chunk>
    <chunk x="32" y="0" width="16" height="16">
0,0,0,0,0,0,0,0,0,0,0,0,0,0,0,0,
0,0,0,0,0,0,0,0,0,0,0,0,0,0,0,0,
0,0,0,0,0,0,0,0,0,0,0,0,0,0,0,0,
0,0,0,0,0,0,0,0,0,0,0,0,0,0,0,0,
0,0,0,0,0,0,0,0,0,0,0,0,0,0,0,0,
0,0,0,0,0,0,0,0,0,0,0,0,0,0,0,0,
0,0,0,0,0,0,0,0,0,0,0,0,0,0,0,0,
0,0,0,0,0,0,0,0,0,0,0,0,0,0,0,0,
0,10421,10422,10423,0,2147494052,2147494051,0,0,0,0,0,0,0,0,0,
0,10428,10429,10430,0,2147494059,2147494058,0,0,0,0,0,0,0,0,0,
0,0,0,0,0,10388,10389,10390,0,0,0,0,0,0,0,0,
2147494040,2147494039,0,0,0,10395,10396,10397,0,0,0,0,0,0,0,0,
2147494047,2147494046,0,0,0,0,0,0,0,0,0,0,0,0,0,0,
0,0,0,0,0,0,0,0,0,0,0,0,0,0,0,0,
0,0,0,0,0,0,0,0,0,0,0,0,0,0,0,0,
0,0,0,0,0,0,0,0,0,0,0,0,0,0,0,0
</chunk>
    <chunk x="0" y="16" width="16" height="16">
0,0,0,0,0,0,0,0,0,0,0,0,0,0,0,0,
0,0,0,0,0,10400,10401,0,0,0,0,0,0,0,0,0,
0,0,0,0,0,0,0,0,0,0,0,0,0,0,0,0,
0,0,10405,10406,0,0,0,0,0,0,0,0,0,0,0,0,
0,0,0,0,0,0,0,0,0,0,0,0,0,0,0,0,
0,0,0,0,0,0,0,0,0,0,0,0,0,0,0,0,
0,0,0,0,0,0,0,0,0,0,0,0,0,0,0,0,
0,0,0,0,0,0,0,0,0,0,0,0,0,0,0,0,
0,0,0,0,0,0,0,0,0,0,0,0,0,0,0,0,
0,0,0,0,0,0,0,0,0,0,0,0,0,0,0,0,
0,0,0,0,0,0,0,0,0,0,0,0,0,0,0,0,
0,0,0,0,0,0,0,0,0,0,0,0,0,0,0,0,
0,0,0,0,0,0,0,0,0,0,0,0,0,0,0,0,
0,0,0,0,0,0,0,0,0,0,0,0,0,0,0,0,
0,0,0,0,0,0,0,0,0,0,0,0,0,0,0,0,
0,0,0,0,0,0,0,0,0,0,0,0,0,0,0,0
</chunk>
    <chunk x="16" y="16" width="16" height="16">
0,0,0,0,0,0,0,0,0,0,0,0,0,0,0,0,
0,0,0,0,0,0,0,0,0,0,0,0,0,0,0,0,
0,0,0,0,0,0,0,0,0,0,0,0,0,0,0,0,
0,0,0,0,0,0,0,0,0,0,0,0,0,0,0,0,
0,0,0,0,0,0,0,0,0,0,0,0,0,0,0,0,
0,0,0,0,0,0,0,0,0,0,0,0,0,0,0,0,
0,0,0,0,0,0,0,0,0,0,0,0,0,0,0,0,
0,0,0,0,0,0,0,0,0,0,0,0,0,0,0,0,
0,0,0,0,0,0,0,0,0,0,0,0,0,0,0,0,
0,0,0,0,0,0,0,0,0,0,0,0,0,0,0,0,
0,0,0,0,0,0,0,0,0,0,0,0,0,0,10417,10418,
0,0,0,0,0,0,0,0,0,0,0,0,0,0,10424,10425,
0,0,0,0,0,0,0,0,0,0,0,0,0,0,0,0,
0,0,0,0,0,0,0,0,0,0,0,0,0,0,0,0,
0,0,0,0,0,0,0,0,0,0,0,0,0,0,0,0,
0,0,0,0,0,0,0,0,0,0,0,0,0,0,0,0
</chunk>
    <chunk x="32" y="16" width="16" height="16">
0,0,0,0,0,0,0,0,0,0,0,0,0,0,0,0,
0,0,0,0,0,0,0,0,0,0,0,0,0,0,0,0,
0,0,0,0,0,0,0,0,0,0,0,0,0,0,0,0,
0,0,0,0,0,0,0,0,0,0,0,10391,10392,0,0,0,
0,0,0,0,0,0,0,0,0,0,0,10398,10399,0,0,0,
0,0,0,0,0,0,0,0,0,10389,10390,0,0,0,0,0,
0,0,0,0,0,0,0,0,0,10396,10397,0,0,0,0,0,
0,0,0,0,0,0,10408,0,0,0,0,0,0,0,0,0,
0,0,0,0,0,0,10415,0,0,0,0,0,0,0,0,0,
2147494056,0,0,0,0,0,0,0,0,0,0,0,0,0,0,0,
2147494063,0,0,0,0,0,0,0,0,0,0,0,0,0,0,0,
0,0,0,0,0,0,0,0,0,0,0,0,0,0,0,0,
0,0,0,0,0,0,0,0,0,0,0,0,0,0,0,0,
0,0,0,0,0,0,0,0,0,0,0,0,0,0,0,0,
0,0,0,0,0,0,0,0,0,0,0,0,0,0,0,0,
0,0,0,0,0,0,0,0,0,0,0,0,0,0,0,0
</chunk>
   </data>
  </layer>
  <layer id="170" name="shadow" width="46" height="32">
   <data encoding="csv">
    <chunk x="0" y="0" width="16" height="16">
0,0,0,0,0,0,0,0,0,0,0,0,0,0,0,0,
0,0,0,0,0,0,0,0,0,0,0,0,0,0,0,0,
0,0,0,0,0,0,0,0,0,0,0,0,7719,7719,7719,7700,
0,0,0,0,0,0,0,0,0,7719,7719,7719,7700,7785,7740,7741,
0,0,0,0,0,0,7719,7719,7719,7700,7740,7785,7741,0,0,0,
0,0,0,0,0,7719,7700,7740,7785,7741,0,0,0,0,0,0,
0,0,7719,7719,7719,7700,7741,0,0,0,0,0,0,0,0,0,
0,0,7740,7785,7786,7741,0,0,0,0,0,0,0,0,0,0,
0,0,0,0,0,0,0,0,0,0,0,0,0,0,0,0,
0,0,0,0,0,0,0,0,0,0,0,0,0,0,0,0,
0,0,0,0,0,0,0,0,0,0,0,0,0,0,0,0,
0,0,0,0,0,0,0,0,0,0,0,0,0,0,0,0,
0,0,0,0,0,0,0,0,0,0,0,0,0,0,0,0,
0,0,0,0,0,0,0,0,0,0,0,0,0,0,0,0,
0,0,0,0,0,0,0,0,0,0,0,0,0,0,0,0,
0,0,0,0,0,0,0,0,0,0,0,0,0,0,0,0
</chunk>
    <chunk x="16" y="0" width="16" height="16">
0,0,0,0,0,0,0,0,0,0,0,0,0,0,0,0,
7700,7741,0,0,0,0,0,0,0,0,0,0,0,0,0,0,
2147491387,0,0,0,0,0,0,0,0,0,0,0,0,0,0,0,
0,0,0,0,0,0,0,0,0,0,0,0,0,0,0,0,
0,0,0,0,0,0,0,0,0,0,0,0,0,0,0,0,
0,0,0,0,0,0,0,0,0,0,0,0,0,0,0,0,
0,0,0,0,0,0,0,0,0,0,0,7592,7617,0,0,7616,
0,0,0,0,0,0,0,0,0,0,0,7634,7596,7614,7614,7595,
0,0,0,0,0,0,0,0,0,0,0,0,7634,7680,7680,7636,
0,0,0,0,0,0,0,0,0,0,0,0,0,0,0,0,
0,0,0,0,0,0,0,0,0,0,0,0,0,0,0,0,
0,0,0,0,0,0,0,0,0,0,0,0,0,0,0,0,
0,0,0,0,0,0,0,0,0,0,0,0,0,0,0,0,
0,0,0,0,0,0,0,0,0,0,0,0,0,0,0,0,
0,0,0,0,0,0,0,0,0,0,0,0,0,0,0,0,
0,0,0,0,0,0,0,0,0,0,0,0,0,0,0,0
</chunk>
    <chunk x="32" y="0" width="16" height="16">
0,0,0,0,0,0,0,0,0,0,0,0,0,0,0,0,
7592,7593,0,0,0,0,0,0,0,0,0,0,0,0,0,0,
7613,7614,0,0,0,0,0,0,0,0,0,0,0,0,0,0,
7634,7596,7614,7614,7614,0,0,0,0,0,0,0,0,0,0,0,
0,7634,7635,7596,7614,0,0,0,0,0,0,0,0,0,0,0,
0,0,0,7634,7596,7614,7614,7614,0,0,0,0,0,0,0,0,
7594,0,0,0,7634,7635,7596,7614,7614,7614,0,0,0,0,0,0,
7636,0,0,0,0,0,7634,7635,7681,7596,7614,7614,7614,0,0,0,
0,0,0,0,0,0,0,0,0,7634,7681,7635,7680,0,0,0,
0,0,0,0,0,0,0,0,0,0,0,0,0,0,0,0,
0,0,0,0,0,0,0,0,0,0,0,0,0,0,0,0,
0,0,0,0,0,0,0,0,0,0,0,0,0,0,0,0,
0,0,0,0,0,0,0,0,0,0,0,0,0,0,0,0,
0,0,0,0,0,0,0,0,0,0,0,0,0,0,0,0,
0,0,0,0,0,0,0,0,0,0,0,0,0,0,0,0,
0,0,0,0,0,0,0,0,0,0,0,0,0,0,0,0
</chunk>
    <chunk x="0" y="16" width="16" height="16">
0,0,0,0,0,0,0,0,0,0,0,0,0,0,0,0,
0,0,0,0,0,0,0,0,0,0,0,0,0,0,0,0,
0,0,0,0,0,0,0,0,0,0,0,0,0,0,0,0,
0,0,0,0,0,0,0,0,0,0,0,0,0,0,0,0,
0,0,0,0,0,0,0,0,0,0,0,0,0,0,0,0,
0,0,0,0,0,0,0,0,0,0,0,0,0,0,0,0,
0,0,0,0,0,0,0,0,0,0,0,0,0,0,0,0,
0,0,0,0,0,0,0,0,0,0,0,0,0,0,0,0,
0,0,0,0,0,0,0,0,0,0,0,0,0,0,0,0,
0,0,0,0,0,0,0,0,0,0,0,0,0,0,0,0,
0,0,0,0,0,0,0,0,0,0,0,0,0,0,0,0,
0,0,0,0,0,0,0,0,0,7699,0,0,0,0,0,0,
0,0,0,0,0,0,0,7719,7719,7720,0,0,0,0,0,0,
0,0,0,0,0,0,7719,7700,7740,7741,0,0,0,0,0,0,
0,0,0,0,0,0,0,0,0,0,0,0,0,0,0,0,
0,0,0,0,0,0,0,0,0,0,0,0,0,0,0,0
</chunk>
    <chunk x="16" y="16" width="16" height="16">
0,0,0,0,0,0,0,0,0,0,0,0,0,0,0,0,
0,0,0,0,0,7697,0,0,0,0,0,0,0,0,0,0,
0,0,0,0,7697,7722,0,0,0,0,0,0,0,0,0,0,
0,0,0,0,7718,7719,0,0,0,0,0,0,0,0,0,0,
0,0,0,0,2147491389,2147491348,7719,7719,7719,0,0,0,0,0,0,7719,
0,0,0,0,0,7739,7740,7701,7719,7719,0,0,0,0,7719,2147491349,
0,0,0,0,0,0,0,2147491389,7786,2147491348,7719,7719,7719,7719,7700,7741,
0,0,0,0,0,0,0,0,0,7739,7786,7740,7740,7786,2147491387,0,
0,0,0,0,0,0,0,0,0,0,0,0,0,0,0,0,
0,0,0,0,0,0,0,0,0,0,0,0,0,0,0,0,
0,0,0,0,0,0,0,0,0,0,0,0,0,0,0,0,
0,0,0,0,0,0,0,0,0,0,0,0,0,0,0,0,
0,0,0,0,0,0,0,0,0,0,0,0,0,0,0,0,
0,0,0,0,0,0,0,0,0,0,0,0,0,0,0,0,
0,0,0,0,0,0,0,0,0,0,0,0,0,0,0,0,
0,0,0,0,0,0,0,0,0,0,0,0,0,0,0,0
</chunk>
    <chunk x="32" y="16" width="16" height="16">
0,0,0,0,0,0,0,0,0,0,0,0,0,0,0,0,
7699,0,0,0,0,0,0,0,0,0,0,0,0,0,0,0,
7721,7699,0,0,0,0,0,0,0,0,0,0,0,0,0,0,
7719,7720,0,0,0,0,0,0,0,0,0,0,0,0,0,0,
7700,7741,0,0,0,0,0,0,0,0,0,0,0,0,0,0,
2147491387,0,0,0,0,0,0,0,0,0,0,0,0,0,0,0,
0,0,0,0,0,0,0,0,0,0,0,0,0,0,0,0,
0,0,0,0,0,0,0,0,0,0,0,0,0,0,0,0,
0,0,0,0,0,0,0,0,0,0,0,0,0,0,0,0,
0,0,0,0,0,0,0,0,0,0,0,0,0,0,0,0,
0,0,0,0,0,0,0,0,0,0,0,0,0,0,0,0,
0,0,0,0,0,0,0,0,0,0,0,0,0,0,0,0,
0,0,0,0,0,0,0,0,0,0,0,0,0,0,0,0,
0,0,0,0,0,0,0,0,0,0,0,0,0,0,0,0,
0,0,0,0,0,0,0,0,0,0,0,0,0,0,0,0,
0,0,0,0,0,0,0,0,0,0,0,0,0,0,0,0
</chunk>
   </data>
  </layer>
  <layer id="179" name="spots3" width="46" height="32">
   <data encoding="csv">
    <chunk x="16" y="0" width="16" height="16">
0,0,0,0,0,0,0,0,0,0,0,0,0,0,0,0,
0,0,0,0,0,0,0,0,0,0,0,0,0,0,0,0,
0,0,0,0,0,0,0,0,0,0,0,0,0,0,0,0,
0,0,0,0,0,0,0,0,0,0,0,0,0,0,0,0,
0,0,0,0,0,0,0,0,0,0,0,0,0,0,0,0,
0,0,0,0,0,0,0,0,0,0,0,0,0,0,0,0,
0,0,0,0,0,0,0,0,0,0,0,0,0,0,0,0,
0,0,0,0,0,0,0,0,0,0,0,0,0,0,7902,7903,
0,0,0,0,0,0,0,0,0,0,0,0,0,0,7923,7924,
0,0,0,0,0,0,0,0,0,0,0,0,0,0,0,0,
0,0,0,0,0,0,0,0,0,0,0,0,0,0,0,0,
0,0,0,0,0,0,0,0,0,0,0,0,0,0,0,0,
0,0,0,0,0,0,0,0,0,0,0,0,0,0,0,0,
0,0,0,0,0,0,0,0,0,0,0,0,0,0,0,0,
0,0,0,0,0,0,0,0,0,0,0,0,0,0,0,0,
0,0,0,0,0,0,0,0,0,0,0,0,0,0,0,0
</chunk>
    <chunk x="32" y="0" width="16" height="16">
0,0,0,0,0,0,0,0,0,0,0,0,0,0,0,0,
0,0,0,0,0,0,0,0,0,0,0,0,0,0,0,0,
0,0,0,0,0,0,0,0,0,0,0,0,0,0,0,0,
0,0,0,7898,7899,0,0,0,0,0,0,0,0,0,0,0,
0,0,0,7919,7920,0,0,0,0,0,0,0,0,0,0,0,
0,0,0,0,0,0,0,0,0,0,0,0,0,0,0,0,
0,0,0,0,0,0,0,7946,7947,0,0,0,0,0,0,0,
0,0,0,0,0,0,0,7967,7968,0,0,7944,7945,0,0,0,
0,0,0,0,0,0,0,0,0,0,0,7965,7966,0,0,0,
0,0,0,0,0,0,0,0,0,0,0,0,0,0,0,0,
0,0,0,0,0,0,0,0,0,0,0,0,0,0,0,0,
0,0,0,0,0,0,0,0,0,0,0,0,0,0,0,0,
0,0,0,0,0,0,0,0,0,0,0,0,0,0,0,0,
0,0,0,0,0,0,0,0,0,0,0,0,0,0,0,0,
0,0,0,0,0,0,0,0,0,0,0,0,0,0,0,0,
0,0,0,0,0,0,0,0,0,0,0,0,0,0,0,0
</chunk>
   </data>
  </layer>
  <layer id="185" name="grass_elements" width="46" height="32">
   <data encoding="csv">
    <chunk x="0" y="0" width="16" height="16">
0,0,0,0,0,0,0,8407,0,0,0,0,0,0,0,0,
0,0,0,0,0,8426,8427,8428,0,0,0,0,0,0,0,0,
0,0,0,0,0,8447,8448,8449,0,3221233918,3221233917,3221233916,0,0,0,0,
0,0,0,8454,8455,0,0,0,8452,3221233897,3221233896,3221233895,0,0,0,0,
0,0,0,8475,8476,0,0,0,8473,0,0,0,0,0,0,0,
0,0,0,2147492164,2147492163,2147492162,0,0,0,0,0,0,8343,8344,0,0,
0,0,0,2147492185,2147492184,2147492183,0,0,0,0,0,0,8364,8365,0,0,
0,0,0,0,0,0,0,0,0,0,0,0,8385,8386,0,8405,
0,0,0,0,2147492161,2147492160,2147492159,0,0,0,8517,8518,0,0,0,8426,
0,0,0,0,2147492182,2147492181,2147492180,0,0,0,8538,8539,0,0,0,8447,
0,0,0,0,0,0,0,0,0,0,0,0,0,0,0,0,
0,0,0,0,0,0,0,0,0,0,0,0,0,0,0,0,
0,0,0,0,0,0,0,0,0,0,0,0,0,0,0,0,
0,0,0,0,0,0,0,0,0,0,0,0,0,0,0,0,
0,0,0,0,0,0,0,0,0,0,0,0,8462,8463,8464,0,
0,0,0,0,0,0,0,0,0,2147491995,2147491994,2147491993,8483,8484,8485,0
</chunk>
    <chunk x="16" y="0" width="16" height="16">
0,0,0,0,0,0,0,0,0,0,0,0,0,0,0,0,
0,0,0,0,0,0,0,0,0,0,0,0,8475,8476,0,0,
0,0,0,0,0,0,0,0,0,0,0,8471,8472,0,0,0,
0,0,0,8517,8518,0,0,0,0,0,0,8492,8493,0,0,0,
0,3221233965,3221233964,8538,8539,0,0,0,0,0,0,0,0,0,0,0,
0,3221233944,3221233943,0,0,0,0,0,0,0,0,0,0,0,0,0,
0,0,0,0,0,8405,8406,0,0,0,0,0,0,0,0,0,
8406,0,8557,8558,8559,8426,8427,8399,8400,8401,0,0,0,0,0,0,
8427,0,8578,8579,8405,8406,8407,8420,8421,8422,0,0,0,0,0,0,
8448,0,0,0,8426,8427,8428,8441,8442,8443,0,0,0,0,0,0,
0,0,0,0,8447,8448,8449,0,0,0,0,0,0,0,0,0,
0,0,0,0,0,0,0,0,0,0,0,0,8405,8406,0,0,
0,0,0,0,0,0,0,0,0,0,0,8454,8455,8427,0,0,
0,0,0,0,0,0,0,8462,8463,8464,0,8475,8476,8448,8400,8401,
0,0,0,0,0,0,0,8483,8484,8485,0,0,0,8420,8421,8422,
0,0,0,0,0,8504,8505,0,0,0,0,0,0,8441,8442,8443
</chunk>
    <chunk x="32" y="0" width="16" height="16">
0,0,0,0,0,0,0,0,0,0,0,0,0,0,0,0,
0,0,0,0,8483,8484,8485,0,0,0,0,0,0,0,0,0,
0,0,0,0,0,0,0,8405,8406,8407,0,0,0,0,0,0,
0,0,0,0,0,8471,8472,8426,8427,8428,0,0,0,0,0,0,
0,0,0,0,0,8492,8493,8447,8448,8449,8345,8346,8347,0,0,0,
0,0,0,0,0,0,0,0,0,0,8366,8367,8368,0,0,0,
0,0,0,0,0,0,0,0,0,0,8387,8388,8389,0,0,0,
0,0,0,0,0,0,0,0,0,0,0,0,0,0,0,0,
0,0,0,0,0,0,0,0,0,0,0,0,0,0,0,0,
0,0,0,0,0,0,0,0,0,0,0,0,0,0,0,0,
0,0,0,0,0,0,0,0,0,0,0,0,0,0,0,0,
0,0,0,0,0,0,0,0,0,0,0,0,0,0,0,0,
0,0,0,0,0,0,8423,8424,8425,0,0,0,0,0,0,0,
0,0,0,8343,8344,0,8444,8445,8446,0,0,0,0,0,0,0,
0,0,0,8364,8365,0,8454,8455,0,0,0,0,0,0,0,0,
0,0,0,8385,8386,0,8475,8476,0,0,0,0,0,0,0,0
</chunk>
    <chunk x="0" y="16" width="16" height="16">
0,0,0,0,0,0,0,0,0,2147492016,2147492015,2147492014,0,0,0,0,
0,0,0,0,0,0,0,0,0,2147492037,2147492036,2147492035,0,0,0,0,
0,0,0,0,8343,8344,0,0,0,0,0,0,8508,8509,8510,0,
0,0,0,0,8364,8365,0,0,0,0,0,0,8529,8530,8514,8515,
0,0,0,0,8385,2147492166,2147492165,0,0,0,8348,8349,8350,0,8535,8536,
0,0,0,0,0,2147492187,2147492186,0,0,0,8369,8370,8371,0,0,0,
0,0,536879343,2147491998,2147491997,2147491996,0,0,0,0,8390,8391,8392,8407,8408,8409,
0,0,536879344,2147492019,2147492018,2147492017,0,0,0,0,0,0,0,8428,8429,8430,
0,0,8558,8559,2147492039,2147492166,2147492165,0,0,0,0,0,0,8449,8454,8455,
0,0,8579,8580,0,2147492187,2147492186,0,0,0,0,0,0,0,8475,8476,
0,0,0,0,0,0,8511,8512,2147492100,0,0,0,0,0,0,8532,
0,0,0,0,0,0,8532,8533,2147492121,8405,8406,0,0,0,0,0,
0,0,8454,8455,0,0,0,0,0,8426,8427,0,0,0,0,0,
0,0,8475,8476,0,0,0,0,0,8447,8448,8508,8509,8510,0,0,
0,0,0,0,0,0,0,0,0,0,0,0,0,0,0,0,
0,0,0,0,0,0,0,0,0,0,0,0,0,0,0,0
</chunk>
    <chunk x="16" y="16" width="16" height="16">
0,0,0,0,0,8525,2147492158,2147492157,2147492156,0,0,0,0,0,0,0,
0,0,0,0,0,0,2147492179,2147492178,2147492177,0,0,0,0,8508,8509,8510,
0,0,0,0,0,0,0,0,8535,0,0,0,0,8529,8530,8531,
8516,0,0,0,0,0,0,0,0,0,0,0,0,0,0,0,
8537,0,0,0,8454,8455,0,0,0,0,0,0,0,0,0,0,
0,2147492161,2147492160,2147492159,8475,8476,0,0,0,0,0,0,0,0,0,0,
0,2147492182,2147492181,2147492180,8557,8558,8559,0,0,0,0,0,0,0,0,0,
0,0,0,0,8578,8579,8580,0,0,0,0,0,0,0,0,0,
0,0,0,0,0,8508,8509,8510,0,8471,8472,0,0,2147492164,2147492163,2147492162,
8512,8414,8415,0,0,8529,8530,8531,0,8492,8493,0,0,2147492185,2147492184,2147492183,
8533,8435,8436,0,0,0,0,0,536879322,536879343,0,2147491998,2147491997,2147491996,0,0,
0,0,0,0,0,0,0,0,536879323,536879344,0,2147492019,2147492018,2147492017,0,0,
0,0,0,0,0,0,8551,8462,8463,8464,8547,8548,2147492039,8351,8352,0,
0,0,0,0,0,0,8572,8483,8484,8485,8568,8569,0,8372,8373,0,
0,0,0,0,0,0,0,0,0,0,0,0,0,0,0,0,
0,0,0,0,0,0,0,0,0,0,0,0,0,0,0,0
</chunk>
    <chunk x="32" y="16" width="16" height="16">
8405,8406,0,0,8547,8548,0,0,0,0,0,0,8471,0,0,0,
8426,8427,0,0,8568,8569,0,0,0,0,0,0,8492,0,0,0,
8447,8448,8545,8546,8547,8548,0,0,0,8514,8515,8516,0,0,0,0,
0,0,8566,8567,8568,8569,0,0,2147492166,2147492165,8536,8537,0,0,0,0,
0,0,0,0,0,8498,0,0,2147492187,2147492186,0,0,0,0,0,0,
0,0,2147492207,2147492206,2147492205,8511,8512,8513,0,0,8343,8344,0,0,0,0,
0,0,2147492228,2147492227,2147492226,8532,8533,8534,0,0,8364,8365,0,0,0,0,
0,0,8508,8509,8510,0,0,0,0,0,8385,8386,0,0,0,0,
0,0,8529,8530,8531,0,0,0,0,0,0,0,0,0,0,0,
0,0,0,0,0,0,0,0,0,8454,8455,0,0,0,0,0,
0,0,0,0,0,8517,8518,0,0,8475,8476,0,0,0,0,0,
0,8348,8349,8350,0,8538,8539,0,0,0,0,0,0,0,0,0,
0,8369,8370,8371,8454,8455,0,0,0,0,0,0,0,0,0,0,
0,8390,8391,8392,8475,8476,8558,8559,8560,0,0,0,0,0,0,0,
0,0,0,0,0,0,0,0,0,0,0,0,0,0,0,0,
0,0,0,0,0,0,0,0,0,0,0,0,0,0,0,0
</chunk>
   </data>
  </layer>
  <layer id="186" name="grass_elements2" width="46" height="32">
   <data encoding="csv">
    <chunk x="0" y="0" width="16" height="16">
0,0,0,0,0,0,0,0,0,0,0,0,0,0,0,0,
0,0,0,0,0,0,0,0,0,0,0,0,0,0,0,0,
0,0,0,0,0,0,0,0,0,0,8508,8509,8510,0,0,0,
0,0,0,0,0,0,0,0,0,0,8529,8530,8531,0,0,0,
0,0,0,0,0,0,0,0,0,0,0,0,0,0,0,0,
0,0,0,0,0,0,0,0,0,0,0,0,0,8348,8349,8350,
0,0,0,0,0,0,0,0,0,0,0,0,0,8369,8370,8371,
0,0,0,0,0,0,0,1073750265,1073750266,1073750267,0,0,0,8390,8391,8392,
0,0,0,0,0,0,0,1073750244,1073750245,1073750246,0,0,0,0,0,0,
0,0,0,0,0,0,0,1073750223,1073750224,1073750225,0,0,0,8461,8462,8463,
0,0,0,0,0,0,0,0,8410,8411,0,0,0,8482,8483,8484,
0,0,0,0,0,0,0,0,8431,8432,0,0,0,0,0,0,
0,0,0,0,0,0,0,0,2147492158,2147492157,2147492156,0,0,0,0,0,
0,0,0,0,0,0,0,0,2147492179,2147492178,2147492177,0,0,0,0,0,
0,0,0,0,0,0,0,0,0,0,0,0,0,0,0,0,
0,0,0,0,0,0,0,0,0,0,0,0,0,0,0,0
</chunk>
    <chunk x="16" y="0" width="16" height="16">
0,0,0,0,0,0,0,0,0,0,0,0,0,0,0,0,
0,0,0,0,0,0,0,0,0,0,0,0,0,0,0,0,
0,0,0,0,0,0,0,0,0,0,0,0,0,0,0,0,
0,0,0,0,0,0,0,0,0,0,0,0,0,0,0,0,
0,0,0,0,0,0,0,0,0,0,0,0,0,0,0,0,
0,0,0,0,0,0,0,0,0,0,0,0,0,0,0,0,
0,0,0,0,0,8399,8400,8401,0,0,0,0,0,0,0,0,
0,0,0,0,0,8420,8421,8422,0,0,0,0,0,0,0,0,
0,0,0,0,0,8441,8442,8443,0,0,0,0,0,0,0,0,
8464,0,0,0,0,0,0,0,0,0,0,0,0,0,0,0,
8485,0,0,0,0,0,0,0,0,0,0,0,0,0,0,0,
0,0,0,0,0,0,0,0,8462,8463,8464,1073750310,1073750311,0,0,0,
0,0,0,8469,8470,0,0,0,8483,8484,8485,1073750289,1073750290,0,0,0,
0,0,0,8490,8491,0,0,0,0,0,0,0,0,0,0,0,
0,0,0,0,0,0,0,0,0,0,0,0,0,0,0,2147491992,
0,0,0,0,0,0,0,0,0,0,0,0,0,0,0,2147492013
</chunk>
    <chunk x="32" y="0" width="16" height="16">
0,0,0,0,0,0,0,0,0,0,0,0,0,0,0,0,
0,2147492158,2147492157,2147492156,0,0,0,0,0,0,0,0,0,0,0,0,
0,2147492179,2147492178,2147492177,2147492155,2147492154,0,0,0,0,0,0,0,0,0,0,
0,0,0,0,2147492176,2147492175,0,0,0,0,0,0,0,0,0,0,
0,0,0,0,0,0,0,2147492158,2147492157,2147492156,0,0,0,0,0,0,
0,0,0,0,0,0,0,2147492179,2147492178,2147492177,0,0,0,0,0,0,
0,0,0,0,0,0,0,0,0,0,0,0,0,0,0,0,
0,0,0,0,0,0,0,0,0,0,0,0,0,0,0,0,
0,0,0,0,0,0,0,0,0,0,0,0,0,0,0,0,
0,0,0,0,0,0,0,0,0,0,0,0,0,0,0,0,
0,0,0,0,0,0,0,0,0,0,0,0,0,0,0,0,
0,0,0,0,0,0,0,0,0,0,0,0,0,0,0,0,
0,0,0,0,0,0,0,0,8407,8408,8409,0,0,0,0,0,
0,0,0,0,0,0,0,0,8428,8429,8430,8496,8497,0,0,0,
2147491991,536879322,536879343,8461,8462,8463,8464,0,8449,8450,8451,0,0,0,0,0,
2147492012,536879323,536879344,8482,8483,8484,8485,0,0,0,0,0,0,0,0,0
</chunk>
    <chunk x="0" y="16" width="16" height="16">
0,0,0,0,0,0,0,0,0,0,0,0,0,0,0,0,
0,0,0,0,0,0,0,0,0,0,0,0,0,0,0,0,
0,0,0,0,0,0,0,0,0,0,8514,8515,8516,0,0,0,
0,0,0,0,0,0,0,0,0,0,8535,8536,8537,0,0,0,
0,0,0,0,0,0,0,8348,8349,8350,0,0,0,0,0,0,
0,0,0,0,0,0,0,8369,8370,8371,0,0,2147492166,2147492165,0,0,
0,0,0,0,0,0,0,8390,8391,8392,0,0,2147492187,2147492186,0,0,
0,0,0,0,0,0,0,0,0,0,0,0,0,0,0,0,
0,0,0,0,0,0,0,0,0,0,0,0,0,0,0,0,
0,0,0,0,0,0,0,0,0,0,0,0,0,0,0,0,
0,0,0,0,0,0,0,0,0,0,0,0,0,0,8511,8512,
0,0,8461,8462,8463,8464,2147492163,2147492162,0,0,0,0,2147492164,2147492163,8532,8533,
0,0,8482,8483,8484,8485,2147492184,2147492183,0,0,0,0,2147492185,2147492184,2147492183,0,
0,0,0,0,8508,8509,8510,0,0,0,0,0,0,0,0,8410,
0,0,0,0,0,0,0,0,0,0,0,0,0,0,0,0,
0,0,0,0,0,0,0,0,0,0,0,0,0,0,0,0
</chunk>
    <chunk x="16" y="16" width="16" height="16">
0,0,0,0,0,8467,8468,0,0,0,0,0,0,0,0,2147492034,
0,0,0,0,0,8488,8489,0,1073750391,0,0,0,0,0,0,0,
0,0,0,0,0,0,0,0,1073750370,0,8471,8472,0,2147492116,2147492115,0,
0,0,0,0,0,0,0,0,0,0,8492,8493,0,2147492137,2147492136,0,
0,0,0,0,0,0,0,0,0,0,0,0,0,0,0,0,
0,0,0,0,0,0,0,0,0,0,0,0,0,0,0,0,
0,0,0,0,0,0,0,0,0,0,0,0,0,0,0,0,
0,0,0,0,0,0,0,0,0,0,0,0,0,0,0,0,
0,0,0,8345,8346,8347,0,0,0,0,8465,8466,0,0,0,0,
0,0,0,8366,8367,8368,0,0,0,0,8486,8487,0,0,0,0,
8513,0,0,8387,8388,8389,2147492057,2147492056,0,0,0,0,0,0,0,0,
8534,0,0,0,0,0,2147492078,2147492077,0,0,0,0,0,0,0,0,
0,0,0,0,0,0,2147492099,2147492098,0,0,0,0,0,0,0,0,
8411,0,0,0,0,0,0,0,0,0,0,0,0,0,0,0,
0,0,0,0,0,0,0,0,0,0,0,0,0,0,0,0,
0,0,0,0,0,0,0,0,0,0,0,0,0,0,0,0
</chunk>
    <chunk x="32" y="16" width="16" height="16">
2147492033,0,0,0,0,0,0,0,0,0,0,0,0,0,0,0,
0,0,0,0,0,0,0,0,0,0,0,0,0,0,0,0,
0,0,0,0,0,0,0,0,0,0,0,0,0,0,0,0,
0,0,0,0,0,0,0,0,0,0,0,0,0,0,0,0,
0,0,0,0,0,0,0,8351,8352,0,0,0,0,0,0,0,
0,0,0,0,0,0,0,8372,8373,0,0,0,0,0,0,0,
0,0,0,0,0,8452,0,8393,8394,0,0,0,0,0,0,0,
0,0,0,0,0,8473,0,0,0,0,0,0,0,0,0,0,
8508,8509,8510,0,0,0,8423,8424,8425,0,0,0,0,0,0,0,
8529,8530,8531,0,0,0,8444,8445,8446,0,0,0,0,0,0,0,
0,0,0,0,0,0,8461,8462,8463,8464,0,0,0,0,0,0,
0,0,0,0,0,0,8482,8483,8484,8485,0,0,0,0,0,0,
0,0,0,0,0,0,0,0,0,0,0,0,0,0,0,0,
0,0,0,0,0,0,0,0,0,0,0,0,0,0,0,0,
0,0,0,0,0,0,0,0,0,0,0,0,0,0,0,0,
0,0,0,0,0,0,0,0,0,0,0,0,0,0,0,0
</chunk>
   </data>
  </layer>
  <layer id="188" name="grass_elements3" width="46" height="32">
   <data encoding="csv">
    <chunk x="0" y="0" width="16" height="16">
0,0,0,0,0,0,0,0,0,0,0,0,0,0,0,0,
0,0,0,0,0,0,0,0,0,0,0,0,0,0,0,0,
0,0,0,0,0,0,0,0,0,0,0,0,0,0,0,0,
0,0,0,0,0,0,0,0,0,0,0,0,0,0,0,0,
0,0,0,0,0,0,0,0,0,0,0,0,0,0,0,0,
0,0,0,0,0,0,0,0,0,0,0,0,0,0,0,0,
0,0,0,0,0,0,0,0,0,0,0,0,0,0,0,0,
0,0,0,0,0,0,0,0,0,0,0,0,0,0,0,0,
0,0,0,0,0,0,0,0,0,0,0,0,0,0,0,0,
0,0,0,0,0,0,0,0,0,0,0,0,0,0,0,0,
0,0,0,0,0,0,0,0,0,0,0,0,0,0,0,0,
0,0,0,0,0,0,0,0,0,0,0,0,0,0,0,0,
0,0,0,0,0,0,0,0,0,0,8423,8424,8425,0,0,0,
0,0,0,0,0,0,0,0,0,0,8444,8445,8446,0,0,0,
0,0,0,0,0,0,0,0,0,0,0,0,0,0,0,0,
0,0,0,0,0,0,0,0,0,0,0,0,0,0,0,0
</chunk>
    <chunk x="16" y="0" width="16" height="16">
0,0,0,0,0,0,0,0,0,0,0,0,0,0,0,0,
0,0,0,0,0,0,0,0,0,0,0,0,0,8414,8415,0,
0,0,0,0,0,0,8414,8415,0,0,0,0,0,8435,8436,0,
0,0,0,0,0,8506,8435,8436,0,0,0,0,0,0,0,0,
0,0,0,0,0,8527,8528,0,0,0,0,0,0,0,0,0,
1073750314,1073750315,0,0,0,0,0,0,0,0,0,0,0,0,0,0,
1073750293,1073750294,0,0,0,0,0,0,0,0,0,0,0,0,0,0,
0,0,0,0,0,0,0,0,0,0,0,0,0,0,0,0,
0,0,0,0,0,0,0,0,0,0,0,0,0,0,0,0,
0,0,0,0,0,0,0,0,0,0,0,0,0,0,0,0,
0,0,0,0,0,0,0,0,0,0,0,0,0,0,0,0,
0,0,0,0,8423,8424,8425,0,0,0,0,0,0,0,0,0,
0,0,0,0,8444,8445,8446,0,0,0,0,0,0,0,0,0,
0,0,0,0,0,0,0,0,0,0,0,0,0,8551,0,0,
0,0,0,0,0,0,0,0,0,0,0,0,0,8572,0,0,
0,0,0,0,0,0,0,0,0,0,0,0,0,0,0,0
</chunk>
    <chunk x="32" y="0" width="16" height="16">
0,0,0,0,0,0,0,0,0,0,0,0,0,0,0,0,
0,0,0,0,0,0,0,0,0,0,0,0,0,0,0,0,
0,0,0,0,0,0,0,0,0,0,0,0,0,0,0,0,
0,0,0,0,0,0,0,0,0,0,0,0,0,0,0,0,
0,0,0,0,0,0,0,0,0,0,0,0,0,0,0,0,
0,0,0,0,0,0,0,0,0,0,0,0,0,0,0,0,
0,0,0,0,0,0,0,0,0,0,0,0,0,0,0,0,
0,0,0,0,0,0,0,0,0,0,0,0,0,0,0,0,
0,0,0,0,0,0,0,0,0,0,0,0,0,0,0,0,
0,0,0,0,0,0,0,0,0,0,0,0,0,0,0,0,
0,0,0,0,0,0,0,0,0,0,0,0,0,0,0,0,
0,0,0,0,0,0,0,0,0,0,0,0,0,0,0,0,
0,0,0,0,0,2147492070,2147492069,2147492068,0,0,0,0,0,0,0,0,
0,0,0,0,0,2147492091,2147492090,2147492089,0,0,0,0,0,0,0,0,
0,0,0,0,0,0,0,0,0,0,0,0,0,0,0,0,
0,0,0,0,0,0,0,0,0,0,0,0,0,0,0,0
</chunk>
    <chunk x="0" y="16" width="16" height="16">
0,0,0,0,0,0,0,0,0,0,0,0,0,0,0,0,
0,0,0,0,0,0,0,0,0,0,0,0,0,0,0,0,
0,0,0,0,0,0,0,0,0,0,0,0,0,0,0,0,
0,0,0,0,0,0,0,0,0,0,0,0,0,0,0,0,
0,0,0,0,0,0,0,0,0,0,0,0,0,0,0,0,
0,0,0,0,0,0,0,0,0,0,0,0,0,0,0,0,
0,0,0,0,0,0,0,0,0,0,0,0,8414,8415,0,0,
0,0,0,0,0,0,0,0,0,8423,8424,8425,8435,8436,0,0,
0,0,0,0,0,0,0,0,0,8444,8445,8446,0,0,0,0,
0,0,0,0,0,0,0,0,8414,8415,0,0,0,0,0,0,
0,0,0,0,0,0,0,8558,8435,8436,0,0,0,0,0,0,
0,0,0,0,0,0,0,0,0,0,0,0,0,0,0,0,
0,0,2147492206,0,0,0,0,0,0,0,0,0,0,0,0,0,
0,0,0,0,0,0,0,0,0,0,0,0,0,0,0,0,
0,0,0,0,0,0,0,0,0,0,0,0,0,0,0,0,
0,0,0,0,0,0,0,0,0,0,0,0,0,0,0,0
</chunk>
    <chunk x="16" y="16" width="16" height="16">
0,0,0,0,0,0,0,0,0,0,0,0,0,0,0,8465,
0,0,0,0,0,0,0,0,2147492161,2147492160,2147492159,0,0,0,0,8486,
0,0,0,0,0,0,0,0,2147492182,2147492181,2147492180,8508,8509,8510,0,0,
0,0,0,0,0,0,0,0,0,0,0,8529,8530,8531,0,0,
0,0,0,0,0,0,0,0,0,0,0,0,0,0,0,0,
0,0,0,0,0,0,0,0,0,0,0,0,0,0,0,0,
0,0,0,0,0,0,0,0,0,0,0,0,0,0,0,0,
8504,8505,0,0,0,0,0,0,0,0,0,0,0,0,0,3221233923,
8525,8526,0,0,8558,0,0,0,0,0,0,8508,8509,8510,0,3221233902,
0,0,0,0,0,0,0,0,0,0,0,8529,8530,8531,0,3221233881,
0,0,0,0,0,0,0,0,0,0,0,0,0,0,0,0,
0,0,0,0,0,0,0,0,0,0,0,0,0,0,0,0,
0,0,0,0,0,0,0,0,0,0,0,0,0,0,0,0,
0,2147492206,0,0,0,0,0,0,0,0,0,0,0,0,0,0,
0,0,0,0,0,0,0,0,0,0,0,0,0,0,0,0,
0,0,0,0,0,0,0,0,0,0,0,0,0,0,0,0
</chunk>
    <chunk x="32" y="16" width="16" height="16">
8466,0,0,0,0,0,0,0,0,0,0,0,0,0,0,0,
8487,0,8558,0,0,0,0,0,0,0,0,0,0,0,0,0,
0,0,0,0,0,0,0,0,0,0,0,0,0,0,0,0,
0,0,0,0,0,0,0,0,0,0,0,0,0,0,0,0,
0,0,0,0,0,0,0,0,0,0,0,0,0,0,0,0,
0,0,0,0,0,0,0,0,0,0,0,0,0,0,0,0,
0,0,0,0,0,0,0,0,0,0,0,0,0,0,0,0,
3221233922,0,0,0,0,0,0,0,0,0,0,0,0,0,0,0,
3221233901,0,0,0,0,0,0,0,0,0,0,0,0,0,0,0,
3221233880,0,0,0,0,0,0,0,0,0,0,0,0,0,0,0,
0,0,0,0,0,0,0,0,0,0,0,0,0,0,0,0,
0,0,0,0,0,0,0,0,0,0,0,0,0,0,0,0,
0,0,0,0,0,0,0,0,0,0,0,0,0,0,0,0,
0,0,0,0,0,0,0,0,0,0,0,0,0,0,0,0,
0,0,0,0,0,0,0,0,0,0,0,0,0,0,0,0,
0,0,0,0,0,0,0,0,0,0,0,0,0,0,0,0
</chunk>
   </data>
  </layer>
  <layer id="202" name="reeds" width="46" height="32">
   <data encoding="csv">
    <chunk x="0" y="0" width="16" height="16">
0,0,0,0,0,0,0,0,0,0,0,0,0,0,0,0,
0,0,0,0,0,0,0,0,0,0,0,0,0,0,0,0,
0,0,0,0,0,0,0,0,0,0,0,0,0,0,0,0,
0,0,0,0,0,0,0,0,0,0,0,0,0,0,0,0,
0,0,0,0,0,0,0,0,0,0,0,0,0,0,0,0,
0,0,0,0,0,0,0,0,0,0,0,0,0,0,0,0,
0,0,10218,10219,10220,0,0,0,0,0,0,0,0,0,0,0,
0,0,10250,10251,10252,0,0,0,0,0,0,0,0,0,0,0,
0,0,10282,10283,10284,0,0,0,0,0,0,0,0,0,0,0,
0,0,0,0,0,0,0,0,0,0,0,0,0,0,0,0,
0,0,0,0,0,0,0,0,0,0,0,0,0,0,0,0,
0,0,0,0,0,0,10312,10313,0,0,0,0,0,0,0,0,
0,0,0,0,0,0,10344,10345,0,0,0,0,0,0,0,0,
0,0,0,0,0,0,10376,10377,0,0,0,0,0,0,0,0,
0,0,0,0,0,0,0,0,10215,10216,10217,0,0,0,0,0,
0,0,0,0,0,0,0,0,10247,10248,10249,0,0,0,0,0
</chunk>
    <chunk x="16" y="0" width="16" height="16">
0,0,0,0,0,0,0,0,0,0,0,0,0,0,0,0,
0,0,0,0,0,0,0,0,0,0,0,0,0,0,0,0,
0,0,0,0,0,0,0,0,0,0,0,0,0,0,0,0,
0,0,0,0,0,0,0,0,0,0,0,0,0,0,0,0,
0,0,0,0,0,0,0,0,0,0,0,0,0,0,0,0,
0,0,0,0,0,0,0,0,0,0,0,0,0,0,0,0,
0,0,0,0,0,0,0,0,0,0,0,0,0,0,0,0,
0,0,0,0,0,0,0,0,0,0,0,0,0,0,0,0,
0,0,0,0,0,0,0,0,0,0,0,0,0,0,0,0,
0,0,0,0,0,0,0,0,0,0,0,0,0,0,0,0,
0,0,10309,10310,0,0,0,0,0,0,0,0,0,0,0,0,
0,0,10341,10342,0,0,0,0,0,0,0,0,0,0,0,0,
0,0,10373,10374,0,0,0,0,0,0,0,0,0,0,0,0,
0,0,0,2147493920,2147493919,2147493918,0,0,0,0,0,0,0,0,0,0,
0,0,0,2147493952,2147493951,2147493950,0,0,0,0,0,0,0,0,0,0,
0,0,0,0,0,0,0,0,0,0,0,0,0,0,0,0
</chunk>
    <chunk x="0" y="16" width="16" height="16">
0,0,0,0,0,0,0,0,10279,10280,10281,0,0,0,0,0,
0,0,0,0,0,0,0,0,0,0,0,0,0,0,0,0,
0,0,0,0,10245,10246,0,0,0,0,0,0,0,0,0,0,
0,10314,10315,10316,10277,10278,0,0,0,0,0,0,0,0,0,0,
0,10346,10347,10348,0,0,0,0,0,0,0,0,0,0,0,0,
0,10378,10379,10380,0,0,0,0,0,0,0,0,0,0,0,0,
0,0,0,0,0,0,0,0,0,0,0,0,0,0,0,0,
0,0,0,0,0,0,0,0,0,0,0,0,0,0,0,0,
0,0,0,0,0,0,0,0,0,0,0,0,0,0,0,0,
0,0,0,0,0,0,0,0,0,0,0,0,0,0,0,0,
0,0,0,0,0,0,0,0,0,0,0,0,0,0,0,0,
0,0,0,0,0,0,0,0,0,0,0,0,0,0,0,10312,
0,0,0,0,0,0,0,0,0,0,0,0,0,0,0,10344,
0,0,0,0,0,0,0,0,0,0,0,0,0,0,0,10376,
0,0,0,0,0,0,0,0,0,0,0,0,0,0,0,0,
0,0,0,0,0,0,0,0,0,0,0,0,0,0,0,0
</chunk>
    <chunk x="16" y="16" width="16" height="16">
0,0,0,0,0,0,0,0,0,0,0,0,0,0,0,0,
0,0,0,0,0,0,0,0,0,0,0,0,0,0,0,0,
0,0,0,0,0,0,0,0,0,0,0,0,0,0,0,0,
0,0,0,0,0,0,0,0,0,0,0,0,0,0,0,0,
0,0,0,0,0,0,0,0,0,0,0,0,0,0,0,0,
0,0,0,0,0,0,0,0,0,0,0,0,0,0,0,0,
0,0,0,0,0,0,0,0,0,0,0,0,0,0,0,0,
0,0,0,0,0,0,0,0,0,0,10314,10315,10316,0,0,0,
0,10309,10310,0,0,0,0,0,0,0,10346,10347,10348,0,0,0,
0,10341,10342,0,0,0,0,0,0,0,10378,10379,10380,0,0,0,
0,10373,10374,0,10314,10315,10316,0,0,0,0,0,0,0,0,10312,
10313,0,0,0,10346,10347,10348,0,0,0,0,0,0,0,0,10344,
10345,0,0,0,10378,10379,10380,0,0,0,0,0,0,0,0,10376,
10377,0,0,0,0,0,0,0,0,0,0,0,0,0,0,0,
0,0,0,0,0,0,0,0,0,0,0,0,0,0,0,0,
0,0,0,0,0,0,0,0,0,0,0,0,0,0,0,0
</chunk>
    <chunk x="32" y="16" width="16" height="16">
0,0,0,0,0,0,0,0,0,0,0,0,0,0,0,0,
0,0,0,0,0,0,0,0,0,0,0,0,0,0,0,0,
0,0,0,0,0,0,0,0,0,0,0,0,0,0,0,0,
0,0,0,0,0,0,0,0,10274,10275,0,0,0,0,0,0,
0,0,0,0,0,0,0,0,10306,10307,0,0,0,0,0,0,
0,0,0,0,0,0,0,0,0,0,0,0,0,0,0,0,
0,0,0,0,10268,10269,0,0,0,0,0,0,0,0,0,0,
0,0,0,0,10300,10301,0,0,0,0,0,0,0,0,0,0,
0,0,0,0,0,0,0,0,0,0,0,0,0,0,0,0,
0,0,0,0,0,0,0,0,0,0,0,0,0,0,0,0,
10313,10316,0,0,0,0,0,0,0,0,0,0,0,0,0,0,
10345,10348,0,0,0,0,0,0,0,0,0,0,0,0,0,0,
10377,10380,0,0,0,0,0,0,0,0,0,0,0,0,0,0,
0,0,0,0,0,0,0,0,0,0,0,0,0,0,0,0,
0,0,0,0,0,0,0,0,0,0,0,0,0,0,0,0,
0,0,0,0,0,0,0,0,0,0,0,0,0,0,0,0
</chunk>
   </data>
  </layer>
 </group>
 <group id="208" name="OverPlayer">
  <layer id="169" name="elevated_space" width="46" height="32">
   <data encoding="csv">
    <chunk x="0" y="0" width="16" height="16">
0,0,0,0,0,0,0,0,0,0,0,0,0,0,0,0,
0,0,7812,7839,7854,7815,0,0,0,0,0,0,0,0,0,7514,
0,0,0,7835,7812,7839,7815,0,0,0,0,0,7514,7386,7467,7535,
0,0,0,0,0,7835,7839,7815,0,7514,8735,7467,7535,7407,7488,0,
0,0,0,0,0,7388,7386,7467,7385,7535,7407,7488,7489,0,0,0,
0,0,0,0,0,7409,7407,7488,7406,7489,0,0,0,0,0,0,
0,0,7467,7385,8735,7468,0,0,0,0,0,0,0,0,0,0,
0,0,7488,7406,7407,7489,0,0,0,0,0,0,0,0,0,0,
0,0,0,0,0,0,0,0,0,0,0,0,0,0,0,0,
0,0,0,0,0,0,0,0,0,0,0,0,0,0,0,0,
0,0,0,0,0,0,0,0,0,0,0,0,0,0,0,0,
0,0,0,0,0,0,0,0,0,0,0,0,0,0,0,0,
0,0,0,0,0,0,0,0,0,0,0,0,0,0,0,0,
0,0,0,0,0,0,0,0,0,0,0,0,0,0,0,0,
0,0,0,0,0,0,0,0,0,0,0,0,0,0,0,0,
0,0,0,0,0,0,0,0,0,0,0,0,0,0,0,0
</chunk>
    <chunk x="16" y="0" width="16" height="16">
0,0,0,0,0,0,0,0,0,0,0,0,0,0,0,0,
0,0,0,0,0,0,0,0,0,0,0,0,0,0,0,0,
7489,0,0,0,0,0,0,0,0,0,0,0,0,0,0,0,
0,0,0,0,0,0,0,0,0,0,0,0,0,0,0,0,
0,0,0,0,0,0,0,0,0,0,0,0,7643,7644,7644,7645,
0,0,0,0,0,0,0,0,0,0,0,0,7664,7665,0,7666,
0,0,0,0,0,0,0,0,0,0,0,0,7351,7343,7352,7353,
0,0,0,0,0,0,0,0,0,0,0,0,7288,7436,7318,7290,
0,0,0,0,0,0,0,0,0,0,0,0,0,0,0,0,
0,0,0,0,0,0,0,0,0,0,0,0,0,0,0,0,
0,0,0,0,0,0,0,0,0,0,0,0,0,0,0,0,
0,0,0,0,0,0,0,0,0,0,0,0,0,0,0,0,
0,0,0,0,0,0,0,0,0,0,0,0,0,0,0,0,
0,0,0,0,0,0,0,0,0,0,0,0,0,0,0,0,
0,0,0,0,0,0,0,0,0,0,0,0,0,0,0,0,
0,0,0,0,0,7748,7749,7773,7770,7770,7770,7770,7770,7770,7770,7770
</chunk>
    <chunk x="32" y="0" width="16" height="16">
0,0,0,0,0,0,0,0,0,0,0,0,0,0,0,0,
0,2147491419,7770,7770,7770,7770,7770,7770,7770,7770,7770,7770,7770,0,0,0,
0,7267,8657,7268,7266,7770,7770,7770,7770,7770,7770,7770,7770,0,0,0,
0,8777,7319,8992,7287,7770,7770,7770,7770,7770,7770,7770,7770,0,0,0,
0,0,0,0,7267,7268,7266,7770,7770,7770,7770,7770,7770,0,0,0,
0,0,0,0,7288,8779,8791,8950,8657,7266,7770,7770,7770,0,0,0,
0,0,0,0,0,0,7288,7289,8693,7292,7339,7268,8657,0,0,0,
0,0,0,0,0,0,0,0,0,7288,7289,7318,8695,0,0,0,
0,0,0,0,0,0,0,0,0,0,0,0,0,0,0,0,
0,0,0,0,0,0,0,0,0,0,0,0,0,0,0,0,
0,0,0,0,0,0,0,0,0,0,0,0,0,0,0,0,
0,0,0,0,0,0,0,0,0,0,0,0,0,0,0,0,
0,0,0,0,0,0,0,0,0,0,0,0,0,0,0,0,
0,0,0,0,0,0,0,0,0,0,0,0,0,0,0,0,
0,0,0,0,0,0,0,0,0,0,0,0,0,0,0,0,
7771,0,0,0,0,0,0,0,0,0,0,0,0,0,0,0
</chunk>
    <chunk x="0" y="16" width="16" height="16">
0,0,0,0,0,0,0,0,0,0,0,0,0,0,0,0,
0,0,0,0,0,0,0,0,0,0,0,0,0,0,0,0,
0,0,0,0,0,0,0,0,0,0,0,0,0,0,0,0,
0,0,0,0,0,0,0,0,0,0,0,0,0,0,0,0,
0,0,0,0,0,0,0,0,0,0,0,0,0,0,0,0,
0,0,0,0,0,0,0,0,0,0,0,0,0,0,0,0,
0,7756,7757,7749,7758,7750,0,0,0,0,0,0,0,0,0,0,
0,0,0,0,0,7772,7750,0,0,0,0,0,0,0,0,0,
0,0,0,0,0,0,7772,7749,7750,0,0,0,0,0,0,0,
0,0,0,0,0,0,0,0,7772,7750,0,0,0,0,0,0,
0,0,0,0,0,0,0,0,0,7771,0,0,0,0,0,0,
0,0,0,0,0,0,0,7265,8655,7269,0,0,0,0,0,0,
0,0,0,0,0,0,7265,7509,8697,7384,0,0,0,0,0,0,
0,0,0,0,0,0,7433,7384,0,0,0,0,0,0,0,0,
0,0,0,0,0,0,0,0,0,0,0,0,0,0,0,0,
0,0,0,0,0,0,0,0,0,0,0,0,0,0,0,0
</chunk>
    <chunk x="16" y="16" width="16" height="16">
0,0,0,0,0,7769,7770,7770,7770,7770,7770,7770,7770,7770,7770,7770,
0,0,0,0,0,7267,7268,7266,7770,7770,7770,7770,7770,7770,7770,7265,
0,0,0,0,0,7309,9034,9039,7268,7266,7770,7770,7770,7770,7265,9037,
0,0,0,0,0,8914,7712,7277,8920,7313,8657,7268,8657,8657,7312,8737,
0,0,0,0,0,7382,8784,8615,7710,8739,7712,7714,7712,7706,8737,7448,
0,0,0,0,0,0,0,7382,8699,7449,8878,7710,7712,8834,8613,7384,
0,0,0,0,0,0,0,0,0,7382,7280,7281,7383,8697,7384,0,
0,0,0,0,0,0,0,0,0,0,0,0,7404,0,0,0,
0,0,0,0,0,0,0,0,0,0,0,0,0,0,0,0,
0,0,0,0,0,0,0,0,0,0,0,0,0,0,0,0,
0,0,0,0,0,0,0,0,0,0,0,0,0,0,0,0,
0,0,0,0,0,0,0,0,0,0,0,0,0,0,0,0,
0,0,0,0,0,0,0,0,0,0,0,0,0,0,0,0,
0,0,0,0,0,0,0,0,0,0,0,0,0,0,0,0,
0,0,0,0,0,0,0,0,0,0,0,0,0,0,0,0,
0,0,0,0,0,0,0,0,0,0,0,0,0,0,0,0
</chunk>
    <chunk x="32" y="16" width="16" height="16">
2147491417,0,0,0,0,0,0,0,0,0,0,0,0,0,0,0,
8952,0,0,0,0,0,0,0,0,0,0,0,0,0,0,0,
8912,0,0,0,0,0,0,0,0,0,0,0,0,0,0,0,
7399,0,0,0,0,0,0,0,0,0,0,0,0,0,0,0,
8786,0,0,0,0,0,0,0,0,0,0,0,0,0,0,0,
0,0,0,0,0,0,0,0,0,0,0,0,0,0,0,0,
0,0,0,0,0,0,0,0,0,0,0,0,0,0,0,0,
0,0,0,0,0,0,0,0,0,0,0,0,0,0,0,0,
0,0,0,0,0,0,0,0,0,0,0,0,0,0,0,0,
0,0,0,0,0,0,0,0,0,0,0,0,0,0,0,0,
0,0,0,0,0,0,0,0,0,0,0,0,0,0,0,0,
0,0,0,0,0,0,0,0,0,0,0,0,0,0,0,0,
0,0,0,0,0,0,0,0,0,0,0,0,0,0,0,0,
0,0,0,0,0,0,0,0,0,0,0,0,0,0,0,0,
0,0,0,0,0,0,0,0,0,0,0,0,0,0,0,0,
0,0,0,0,0,0,0,0,0,0,0,0,0,0,0,0
</chunk>
   </data>
  </layer>
  <layer id="213" name="space" width="46" height="32">
   <data encoding="csv">
    <chunk x="16" y="0" width="16" height="16">
0,0,0,0,0,0,0,0,0,0,0,0,0,0,0,0,
0,0,0,0,0,0,0,0,0,0,0,0,0,0,0,0,
0,0,0,0,0,0,0,0,0,0,0,0,0,0,0,0,
0,0,0,0,0,0,0,0,0,0,0,0,0,0,0,0,
0,0,0,0,0,0,0,0,0,0,0,0,0,0,0,0,
0,0,0,0,0,0,0,0,0,0,0,0,0,0,0,0,
0,0,0,0,0,0,0,0,0,0,0,0,0,0,0,0,
0,0,0,0,0,0,0,0,0,0,0,0,0,0,0,0,
0,0,0,0,0,0,0,0,0,0,0,0,0,0,0,0,
0,0,0,0,0,0,0,0,0,0,0,0,0,0,0,0,
0,0,0,0,0,0,0,0,0,0,0,0,0,0,0,0,
0,0,0,0,0,0,0,0,7748,7749,7757,7749,7749,7750,0,0,
0,0,0,0,0,0,0,0,7769,7770,7770,7770,7770,7772,7750,0,
0,0,0,0,0,0,0,7748,7773,7770,7770,7770,7770,7770,7771,0,
0,0,0,0,0,0,0,7769,7770,7770,7770,7770,7770,7770,7772,7749,
0,0,0,0,0,0,0,0,0,0,0,0,0,0,0,0
</chunk>
    <chunk x="32" y="0" width="16" height="16">
0,0,0,0,0,0,0,0,0,0,0,0,0,0,0,0,
0,0,0,0,0,0,0,0,0,0,0,0,0,0,0,0,
0,0,0,0,0,0,0,0,0,0,0,0,0,0,0,0,
0,0,0,0,0,0,0,0,0,0,0,0,0,0,0,0,
0,0,0,0,0,0,0,0,0,0,0,0,0,0,0,0,
0,0,0,0,0,0,0,0,0,0,0,0,0,0,0,0,
0,0,0,0,0,0,0,0,0,0,0,0,0,0,0,0,
0,0,0,0,0,0,0,0,0,0,0,0,0,0,0,0,
0,0,0,0,0,0,0,0,0,0,0,0,0,0,0,0,
0,0,0,0,0,0,0,0,0,0,0,0,0,0,0,0,
0,0,0,0,0,0,0,0,0,0,0,0,0,0,0,0,
0,0,0,0,0,0,0,0,0,0,0,0,0,0,0,0,
0,0,0,0,0,0,0,0,0,0,0,0,0,0,0,0,
0,0,0,0,0,0,0,0,0,0,0,0,0,0,0,0,
7750,0,0,0,0,0,0,0,0,0,0,0,0,0,0,0,
0,0,0,0,0,0,0,0,0,0,0,0,0,0,0,0
</chunk>
   </data>
  </layer>
  <layer id="219" name="Tile Layer 27" width="46" height="32">
   <data encoding="csv">
    <chunk x="32" y="-16" width="16" height="16">
0,0,0,0,0,0,0,0,0,0,0,0,0,0,0,0,
0,0,0,0,0,0,0,0,0,0,0,0,0,0,0,0,
0,0,0,0,0,0,0,0,0,0,0,0,0,0,0,0,
0,0,0,0,0,0,0,0,0,0,0,0,0,0,0,0,
0,0,0,0,0,0,0,0,0,0,0,0,0,0,0,0,
0,0,0,0,0,0,0,0,0,0,0,0,0,0,0,0,
0,0,0,0,0,0,0,0,0,0,0,0,0,0,0,0,
0,0,0,0,0,0,0,0,0,0,0,0,0,0,0,0,
0,0,0,0,0,0,0,0,0,0,0,0,0,0,0,0,
0,0,0,0,0,0,0,0,0,0,0,0,0,0,0,0,
0,0,0,0,0,0,0,0,0,0,0,0,0,0,0,0,
0,0,0,0,0,0,0,0,0,0,0,0,0,0,0,0,
0,0,0,0,0,0,0,0,0,0,0,0,0,0,0,0,
0,0,0,0,0,0,0,0,0,0,0,0,0,0,0,0,
0,0,0,0,0,0,0,0,0,0,0,0,0,0,0,0,
0,0,0,0,0,0,0,0,0,0,0,0,2147494459,0,0,0
</chunk>
    <chunk x="32" y="0" width="16" height="16">
0,0,0,0,0,0,0,2147494476,2147494456,2147494357,2147494356,2147494459,2147494479,0,0,0,
0,0,0,0,0,0,0,2147494496,2147494476,2147494377,2147494376,2147494479,2147494499,0,0,0,
0,0,0,0,0,0,0,0,2147494496,2147494397,2147494396,2147494499,2147491137,0,0,0,
0,0,0,0,0,0,0,0,0,0,0,0,0,0,0,0,
0,0,0,0,0,0,0,0,0,0,0,0,0,0,0,0,
0,0,0,0,0,0,0,0,0,0,0,0,0,0,0,0,
0,0,0,0,0,0,0,0,0,0,0,0,0,0,0,0,
0,0,0,0,0,0,0,0,0,0,0,0,0,0,0,0,
0,0,0,0,0,0,0,0,0,0,0,0,0,0,0,0,
0,0,0,0,0,0,0,0,0,0,0,0,0,0,0,0,
0,0,0,0,0,0,0,0,0,0,0,0,0,0,0,0,
0,0,0,0,0,0,0,0,0,0,0,0,0,0,0,0,
0,0,0,0,0,0,0,0,0,0,0,0,0,0,0,0,
0,0,0,0,0,0,0,0,0,0,0,0,0,0,0,0,
0,0,0,0,0,0,0,0,0,0,0,0,0,0,0,0,
0,0,0,0,0,0,0,0,0,0,0,0,0,0,0,0
</chunk>
   </data>
  </layer>
  <layer id="193" name="lianas5" width="46" height="32">
   <data encoding="csv">
    <chunk x="32" y="0" width="16" height="16">
0,0,0,0,0,0,0,0,0,0,0,0,0,0,0,0,
0,0,0,0,0,0,0,0,0,0,0,0,0,0,0,0,
0,0,9201,0,0,0,0,0,0,0,0,0,0,0,0,0,
0,0,9227,0,0,0,0,0,0,0,0,0,0,0,0,0,
0,0,0,0,0,0,0,0,0,0,0,0,0,0,0,0,
0,0,0,0,0,0,0,0,0,9202,0,0,0,0,0,0,
0,0,0,0,0,0,0,0,0,9228,0,0,0,0,0,0,
0,0,0,0,0,0,0,0,0,9254,0,0,0,0,0,0,
0,0,0,0,0,0,0,0,0,0,0,0,0,0,0,0,
0,0,0,0,0,0,0,0,0,0,0,0,0,0,0,0,
0,0,0,0,0,0,0,0,0,0,0,0,0,0,0,0,
0,0,0,0,0,0,0,0,0,0,0,0,0,0,0,0,
0,0,0,0,0,0,0,0,0,0,0,0,0,0,0,0,
0,0,0,0,0,0,0,0,0,0,0,0,0,0,0,0,
0,0,0,0,0,0,0,0,0,0,0,0,0,0,0,0,
0,0,0,0,0,0,0,0,0,0,0,0,0,0,0,0
</chunk>
    <chunk x="16" y="16" width="16" height="16">
0,0,0,0,0,0,0,0,0,0,0,0,0,0,0,0,
0,0,0,0,0,0,9202,0,0,0,0,0,0,0,0,0,
0,0,0,0,0,0,9228,0,9099,0,0,0,0,0,0,0,
0,0,0,0,0,0,9254,0,9125,0,0,0,0,9205,9125,0,
0,0,0,0,0,0,0,0,9151,0,9202,0,0,9231,9151,0,
0,0,0,0,0,0,0,0,0,0,9228,0,0,9257,0,0,
0,0,0,0,0,0,0,0,0,0,9254,0,0,9283,0,0,
0,0,0,0,0,0,0,0,0,0,0,0,0,0,0,0,
0,0,0,0,0,0,0,0,0,0,0,0,0,0,0,0,
0,0,0,0,0,0,0,0,0,0,0,0,0,0,0,0,
0,0,0,0,0,0,0,0,0,0,0,0,0,0,0,0,
0,0,0,0,0,0,0,0,0,0,0,0,0,0,0,0,
0,0,0,0,0,0,0,0,0,0,0,0,0,0,0,0,
0,0,0,0,0,0,0,0,0,0,0,0,0,0,0,0,
0,0,0,0,0,0,0,0,0,0,0,0,0,0,0,0,
0,0,0,0,0,0,0,0,0,0,0,0,0,0,0,0
</chunk>
   </data>
  </layer>
  <layer id="189" name="lianas" width="46" height="32">
   <data encoding="csv">
    <chunk x="32" y="0" width="16" height="16">
0,0,0,0,0,0,0,0,0,0,0,0,0,0,0,0,
0,0,0,0,0,0,0,0,0,0,0,0,0,0,0,0,
0,0,9155,2147492844,2147492843,0,0,0,0,0,0,0,0,0,0,0,
0,0,0,2147492870,2147492869,0,0,0,0,0,0,0,0,0,0,0,
0,0,0,2147492896,2147492895,0,0,0,0,0,0,0,0,0,0,0,
0,0,0,0,0,0,9264,9265,9266,0,0,0,0,0,0,0,
0,0,0,0,0,0,9290,9291,9292,0,0,9157,9158,0,0,0,
0,0,0,0,0,0,0,0,0,0,0,9183,9184,0,0,0,
0,0,0,0,0,0,0,0,0,0,0,0,0,0,0,0,
0,0,0,0,0,0,0,0,0,0,0,0,0,0,0,0,
0,0,0,0,0,0,0,0,0,0,0,0,0,0,0,0,
0,0,0,0,0,0,0,0,0,0,0,0,0,0,0,0,
0,0,0,0,0,0,0,0,0,0,0,0,0,0,0,0,
0,0,0,0,0,0,0,0,0,0,0,0,0,0,0,0,
0,0,0,0,0,0,0,0,0,0,0,0,0,0,0,0,
0,0,0,0,0,0,0,0,0,0,0,0,0,0,0,0
</chunk>
    <chunk x="0" y="16" width="16" height="16">
0,0,0,0,0,0,0,0,0,0,0,0,0,0,0,0,
0,0,0,0,0,0,0,0,0,0,0,0,0,0,0,0,
0,0,0,0,0,0,0,0,0,0,0,0,0,0,0,0,
0,0,0,0,0,0,0,0,0,0,0,0,0,0,0,0,
0,0,0,0,0,0,0,0,0,0,0,0,0,0,0,0,
0,0,0,0,0,0,0,0,0,0,0,0,0,0,0,0,
0,0,0,0,0,0,0,0,0,0,0,0,0,0,0,0,
0,0,0,0,0,0,0,0,0,0,0,0,0,0,0,0,
0,0,0,0,0,0,0,0,0,0,0,0,0,0,0,0,
0,0,0,0,0,0,0,0,0,0,0,0,0,0,0,0,
0,0,0,0,0,0,0,0,0,0,0,0,0,0,0,0,
0,0,0,0,0,0,0,9195,9196,9160,0,0,0,0,0,0,
0,0,0,0,0,0,9183,9221,9222,9186,0,0,0,0,0,0,
0,0,0,0,0,0,0,9247,9248,0,0,0,0,0,0,0,
0,0,0,0,0,0,0,0,0,0,0,0,0,0,0,0,
0,0,0,0,0,0,0,0,0,0,0,0,0,0,0,0
</chunk>
    <chunk x="16" y="16" width="16" height="16">
0,0,0,0,0,0,0,0,0,0,0,0,0,0,0,0,
0,0,0,0,0,0,9192,0,0,0,0,0,0,0,0,0,
0,0,0,0,0,0,9218,9219,9220,0,0,0,0,9114,9115,9116,
0,0,0,0,0,0,9244,9245,9246,0,9155,0,0,9140,9141,9142,
0,0,0,0,0,0,0,0,0,0,0,0,0,9166,9167,9168,
0,0,0,0,0,0,0,0,0,0,0,0,0,0,9193,0,
0,0,0,0,0,0,0,0,0,0,0,0,0,0,0,0,
0,0,0,0,0,0,0,0,0,0,0,0,0,0,0,0,
0,0,0,0,0,0,0,0,0,0,0,0,0,0,0,0,
0,0,0,0,0,0,0,0,0,0,0,0,0,0,0,0,
0,0,0,0,0,0,0,0,0,0,0,0,0,0,0,0,
0,0,0,0,0,0,0,0,0,0,0,0,0,0,0,0,
0,0,0,0,0,0,0,0,0,0,0,0,0,0,0,0,
0,0,0,0,0,0,0,0,0,0,0,0,0,0,0,0,
0,0,0,0,0,0,0,0,0,0,0,0,0,0,0,0,
0,0,0,0,0,0,0,0,0,0,0,0,0,0,0,0
</chunk>
   </data>
  </layer>
  <layer id="190" name="lianas2" width="46" height="32">
   <data encoding="csv">
    <chunk x="32" y="0" width="16" height="16">
0,0,0,0,0,0,0,0,0,0,0,0,0,0,0,0,
0,0,0,0,0,0,0,0,0,0,0,0,0,0,0,0,
0,0,0,0,0,0,0,0,0,0,0,0,0,0,0,0,
0,0,0,0,0,0,0,0,0,0,0,0,0,0,0,0,
0,0,0,0,0,9158,0,0,0,0,0,0,0,0,0,0,
0,0,0,0,0,9184,9185,9186,0,0,0,0,0,0,0,0,
0,0,0,0,0,0,0,0,0,2147492769,2147492768,0,0,0,0,0,
0,0,0,0,0,0,0,0,0,2147492795,2147492794,0,0,0,0,0,
0,0,0,0,0,0,0,0,0,0,0,0,0,0,0,0,
0,0,0,0,0,0,0,0,0,0,0,0,0,0,0,0,
0,0,0,0,0,0,0,0,0,0,0,0,0,0,0,0,
0,0,0,0,0,0,0,0,0,0,0,0,0,0,0,0,
0,0,0,0,0,0,0,0,0,0,0,0,0,0,0,0,
0,0,0,0,0,0,0,0,0,0,0,0,0,0,0,0,
0,0,0,0,0,0,0,0,0,0,0,0,0,0,0,0,
0,0,0,0,0,0,0,0,0,0,0,0,0,0,0,0
</chunk>
    <chunk x="16" y="16" width="16" height="16">
0,0,0,0,0,0,0,0,0,0,0,0,0,0,0,0,
0,0,0,0,0,0,0,0,0,0,0,0,0,0,0,0,
0,0,0,0,0,0,0,0,2147492767,2147492766,2147492765,0,0,0,0,0,
0,0,0,0,0,0,0,0,2147492793,2147492792,2147492791,0,0,0,0,0,
0,0,0,0,0,0,0,0,2147492819,2147492818,2147492817,0,0,0,0,0,
0,0,0,0,0,0,0,0,0,0,0,0,0,0,0,0,
0,0,0,0,0,0,0,0,0,0,0,0,0,0,0,0,
0,0,0,0,0,0,0,0,0,0,0,0,0,0,0,0,
0,0,0,0,0,0,0,0,0,0,0,0,0,0,0,0,
0,0,0,0,0,0,0,0,0,0,0,0,0,0,0,0,
0,0,0,0,0,0,0,0,0,0,0,0,0,0,0,0,
0,0,0,0,0,0,0,0,0,0,0,0,0,0,0,0,
0,0,0,0,0,0,0,0,0,0,0,0,0,0,0,0,
0,0,0,0,0,0,0,0,0,0,0,0,0,0,0,0,
0,0,0,0,0,0,0,0,0,0,0,0,0,0,0,0,
0,0,0,0,0,0,0,0,0,0,0,0,0,0,0,0
</chunk>
   </data>
  </layer>
  <layer id="192" name="lianas3" width="46" height="32">
   <data encoding="csv">
    <chunk x="0" y="16" width="16" height="16">
0,0,0,0,0,0,0,0,0,0,0,0,0,0,0,0,
0,0,0,0,0,0,0,0,0,0,0,0,0,0,0,0,
0,0,0,0,0,0,0,0,0,0,0,0,0,0,0,0,
0,0,0,0,0,0,0,0,0,0,0,0,0,0,0,0,
0,0,0,0,0,0,0,0,0,0,0,0,0,0,0,0,
0,0,0,0,0,0,0,0,0,0,0,0,0,0,0,0,
0,0,0,0,0,0,0,0,0,0,0,0,0,0,0,0,
0,0,0,0,0,0,0,0,0,0,0,0,0,0,0,0,
0,0,0,0,0,0,0,0,0,0,0,0,0,0,0,0,
0,0,0,0,0,0,0,0,0,0,0,0,0,0,0,0,
0,0,0,0,0,0,0,0,0,0,0,0,0,0,0,0,
0,0,0,0,0,0,0,0,9200,9201,0,0,0,0,0,0,
0,0,0,0,0,0,0,0,9226,9227,0,0,0,0,0,0,
0,0,0,0,0,0,0,0,0,0,0,0,0,0,0,0,
0,0,0,0,0,0,0,0,0,0,0,0,0,0,0,0,
0,0,0,0,0,0,0,0,0,0,0,0,0,0,0,0
</chunk>
    <chunk x="16" y="16" width="16" height="16">
0,0,0,0,0,0,0,0,0,0,0,0,0,0,0,0,
0,0,0,0,0,0,0,0,0,0,0,0,0,0,0,9118,
0,0,0,0,0,0,0,0,0,0,0,0,0,0,0,9144,
0,0,0,0,0,0,0,9229,0,9269,9270,9271,0,0,0,9170,
0,0,0,0,0,0,0,9255,0,9295,9296,9297,0,0,0,9124,
0,0,0,0,0,0,0,0,0,9321,9322,9323,0,0,0,9150,
0,0,0,0,0,0,0,0,0,0,0,0,0,0,0,0,
0,0,0,0,0,0,0,0,0,0,0,0,0,0,0,0,
0,0,0,0,0,0,0,0,0,0,0,0,0,0,0,0,
0,0,0,0,0,0,0,0,0,0,0,0,0,0,0,0,
0,0,0,0,0,0,0,0,0,0,0,0,0,0,0,0,
0,0,0,0,0,0,0,0,0,0,0,0,0,0,0,0,
0,0,0,0,0,0,0,0,0,0,0,0,0,0,0,0,
0,0,0,0,0,0,0,0,0,0,0,0,0,0,0,0,
0,0,0,0,0,0,0,0,0,0,0,0,0,0,0,0,
0,0,0,0,0,0,0,0,0,0,0,0,0,0,0,0
</chunk>
    <chunk x="32" y="16" width="16" height="16">
0,0,0,0,0,0,0,0,0,0,0,0,0,0,0,0,
9119,0,0,0,0,0,0,0,0,0,0,0,0,0,0,0,
9145,0,0,0,0,0,0,0,0,0,0,0,0,0,0,0,
9171,0,0,0,0,0,0,0,0,0,0,0,0,0,0,0,
0,0,0,0,0,0,0,0,0,0,0,0,0,0,0,0,
0,0,0,0,0,0,0,0,0,0,0,0,0,0,0,0,
0,0,0,0,0,0,0,0,0,0,0,0,0,0,0,0,
0,0,0,0,0,0,0,0,0,0,0,0,0,0,0,0,
0,0,0,0,0,0,0,0,0,0,0,0,0,0,0,0,
0,0,0,0,0,0,0,0,0,0,0,0,0,0,0,0,
0,0,0,0,0,0,0,0,0,0,0,0,0,0,0,0,
0,0,0,0,0,0,0,0,0,0,0,0,0,0,0,0,
0,0,0,0,0,0,0,0,0,0,0,0,0,0,0,0,
0,0,0,0,0,0,0,0,0,0,0,0,0,0,0,0,
0,0,0,0,0,0,0,0,0,0,0,0,0,0,0,0,
0,0,0,0,0,0,0,0,0,0,0,0,0,0,0,0
</chunk>
   </data>
  </layer>
  <layer id="194" name="lianas4" width="46" height="32">
   <data encoding="csv">
    <chunk x="16" y="16" width="16" height="16">
0,0,0,0,0,0,0,0,0,0,0,0,0,0,0,0,
0,0,0,0,0,0,0,0,0,0,0,0,0,0,0,0,
0,0,0,0,0,0,0,0,0,0,0,0,0,0,0,0,
0,0,0,0,0,0,0,0,0,0,0,0,0,0,0,0,
0,0,0,0,0,0,0,0,0,0,0,0,0,9195,9196,0,
0,0,0,0,0,0,0,0,0,0,0,0,0,9221,9222,0,
0,0,0,0,0,0,0,0,0,0,0,0,0,9247,9248,0,
0,0,0,0,0,0,0,0,0,0,0,0,0,0,0,0,
0,0,0,0,0,0,0,0,0,0,0,0,0,0,0,0,
0,0,0,0,0,0,0,0,0,0,0,0,0,0,0,0,
0,0,0,0,0,0,0,0,0,0,0,0,0,0,0,0,
0,0,0,0,0,0,0,0,0,0,0,0,0,0,0,0,
0,0,0,0,0,0,0,0,0,0,0,0,0,0,0,0,
0,0,0,0,0,0,0,0,0,0,0,0,0,0,0,0,
0,0,0,0,0,0,0,0,0,0,0,0,0,0,0,0,
0,0,0,0,0,0,0,0,0,0,0,0,0,0,0,0
</chunk>
   </data>
  </layer>
 </group>
 <layer id="184" name="stairs" width="46" height="32">
  <data encoding="csv">
   <chunk x="0" y="0" width="16" height="16">
0,0,0,0,0,0,0,0,0,0,0,0,0,0,0,0,
0,0,0,0,0,0,0,0,0,0,0,0,0,0,0,0,
0,0,0,0,0,0,0,0,0,0,0,0,0,8310,8311,0,
0,0,0,0,0,0,0,0,0,0,0,0,0,8331,8332,0,
0,0,0,0,0,0,8262,8263,0,0,0,0,0,0,0,0,
0,0,0,0,0,0,8283,8284,0,0,0,0,0,0,0,0,
0,0,0,0,0,0,0,0,0,0,0,0,0,0,0,0,
0,0,0,0,0,0,0,0,0,0,0,0,0,0,0,0,
0,0,0,0,0,0,0,0,0,0,0,0,0,0,0,0,
0,0,0,0,0,0,0,0,0,0,0,0,0,0,0,0,
0,0,0,0,0,0,0,0,0,0,0,0,0,0,0,0,
0,0,0,0,0,0,0,0,0,0,0,0,0,0,0,0,
0,0,0,0,0,0,0,0,0,0,0,0,0,0,0,0,
0,0,0,0,0,0,0,0,0,0,0,0,0,0,0,0,
0,0,0,0,0,0,0,0,0,0,0,0,0,0,0,0,
0,0,0,0,0,0,0,0,0,0,0,0,0,0,0,0
</chunk>
   <chunk x="16" y="0" width="16" height="16">
0,0,0,0,0,0,0,0,0,0,0,0,0,0,0,0,
0,0,0,0,0,0,0,0,0,0,0,0,0,0,0,0,
0,0,0,0,0,0,0,0,0,0,0,0,0,0,0,0,
0,0,0,0,0,0,0,0,0,0,0,0,0,0,0,0,
0,0,0,0,0,0,0,0,0,0,0,0,0,0,0,0,
0,0,0,0,0,0,0,0,0,0,0,0,0,0,0,0,
0,0,0,0,0,0,0,0,0,0,0,0,0,8265,8266,0,
0,0,0,0,0,0,0,0,0,0,0,0,0,8307,8308,0,
0,0,0,0,0,0,0,0,0,0,0,0,0,0,0,0,
0,0,0,0,0,0,0,0,0,0,0,0,0,0,0,0,
0,0,0,0,0,0,0,0,0,0,0,0,0,0,0,0,
0,0,0,0,0,0,0,0,0,0,0,0,0,0,0,0,
0,0,0,0,0,0,0,0,0,0,0,0,0,0,0,0,
0,0,0,0,0,0,0,0,0,0,0,0,0,0,0,0,
0,0,0,0,0,0,0,0,0,0,0,0,0,0,0,0,
0,0,0,0,0,0,0,0,0,0,0,0,0,0,0,0
</chunk>
   <chunk x="32" y="0" width="16" height="16">
0,0,0,0,0,0,0,0,0,0,0,0,0,0,0,0,
0,0,0,0,0,0,0,0,0,0,0,0,0,0,0,0,
0,0,0,0,0,0,0,0,0,0,0,0,0,0,0,0,
0,0,0,0,0,0,0,0,0,0,0,0,0,0,0,0,
0,0,0,0,0,0,0,0,0,0,0,0,0,0,0,0,
0,0,0,0,0,0,0,0,0,0,0,0,0,0,0,0,
0,0,0,0,0,0,0,0,0,0,8253,8254,0,0,0,0,
0,0,0,0,0,0,0,0,0,0,8304,8305,0,0,0,0,
0,0,0,0,0,0,0,0,0,0,0,0,0,0,0,0,
0,0,0,0,0,0,0,0,0,0,0,0,0,0,0,0,
0,0,0,0,0,0,0,0,0,0,0,0,0,0,0,0,
0,0,0,0,0,0,0,0,0,0,0,0,0,0,0,0,
0,0,0,0,0,0,0,0,0,0,0,0,0,0,0,0,
0,0,0,0,0,0,0,0,0,0,0,0,0,0,0,0,
0,0,0,0,0,0,0,0,0,0,0,0,0,0,0,0,
0,0,0,0,0,0,0,0,0,0,0,0,0,0,0,0
</chunk>
   <chunk x="16" y="16" width="16" height="16">
0,0,0,0,0,0,0,0,0,0,0,0,0,0,0,0,
0,0,0,0,0,0,0,0,0,0,0,0,0,0,0,0,
0,0,0,0,0,0,0,0,0,0,0,0,0,0,0,0,
0,0,0,0,0,0,0,0,0,0,0,8253,8254,0,0,0,
0,0,0,0,0,0,0,0,0,0,0,8274,8275,0,0,0,
0,0,0,0,0,0,0,0,0,0,0,8295,8296,0,0,0,
0,0,0,0,0,0,0,0,0,0,0,8316,8317,0,0,0,
0,0,0,0,0,0,0,0,0,0,0,8337,8338,0,0,0,
0,0,0,0,0,0,0,0,0,0,0,0,0,0,0,0,
0,0,0,0,0,0,0,0,0,0,0,0,0,0,0,0,
0,0,0,0,0,0,0,0,0,0,0,0,0,0,0,0,
0,0,0,0,0,0,0,0,0,0,0,0,0,0,0,0,
0,0,0,0,0,0,0,0,0,0,0,0,0,0,0,0,
0,0,0,0,0,0,0,0,0,0,0,0,0,0,0,0,
0,0,0,0,0,0,0,0,0,0,0,0,0,0,0,0,
0,0,0,0,0,0,0,0,0,0,0,0,0,0,0,0
</chunk>
  </data>
 </layer>
 <group id="209" name="Objects" visible="0">
  <layer id="200" name="objects2" width="46" height="32">
   <data encoding="csv">
    <chunk x="0" y="0" width="16" height="16">
0,0,0,0,0,0,0,0,0,0,0,0,0,0,0,0,
0,0,0,0,0,0,0,0,0,0,0,0,0,0,0,0,
0,0,0,0,0,0,0,0,0,0,0,0,0,0,0,0,
0,0,0,0,0,0,0,0,0,0,0,0,0,0,0,0,
0,0,0,0,0,0,0,0,0,0,0,0,0,0,0,0,
0,0,0,0,0,0,0,0,10091,10092,0,0,0,0,0,0,
0,0,0,0,0,0,0,0,10123,10124,0,0,0,0,0,0,
0,0,0,0,0,0,0,0,0,0,0,0,0,0,0,0,
0,0,0,0,0,0,0,0,0,0,9703,9704,9705,9706,9882,9883,
0,0,0,0,0,0,0,0,0,0,9735,9736,9737,9738,9914,9915,
0,0,0,0,0,0,0,0,0,0,9767,9768,9769,9770,0,0,
0,0,0,0,0,0,0,0,0,0,9799,9800,9801,9802,0,0,
0,0,0,0,0,0,0,0,0,0,0,0,0,0,0,0,
0,0,0,0,0,0,0,0,0,0,0,0,0,0,0,0,
0,0,0,0,0,0,0,0,0,0,0,0,0,0,0,0,
0,0,0,0,0,0,0,0,0,0,0,0,0,0,0,0
</chunk>
    <chunk x="16" y="0" width="16" height="16">
0,0,0,0,0,0,0,0,0,0,0,0,0,0,0,0,
0,0,0,0,0,0,0,0,0,0,0,0,0,0,0,0,
0,0,0,0,0,0,0,0,0,0,0,0,0,0,0,0,
0,0,0,0,0,0,0,0,0,0,0,0,0,0,0,0,
0,0,0,0,0,0,0,0,0,0,0,0,0,0,0,0,
0,0,0,0,10153,10154,0,0,0,0,0,0,0,0,0,0,
0,0,0,0,10185,10186,0,0,0,0,0,0,0,0,0,0,
0,0,0,9471,9472,0,0,0,0,0,0,0,0,0,0,10079,
0,0,0,9503,9504,0,0,0,0,0,0,10083,0,0,0,10111,
0,0,0,0,0,0,0,0,0,0,0,0,0,0,0,0,
0,0,0,0,0,10089,10090,0,0,0,0,0,0,0,10176,10177,
0,0,0,0,0,10121,10122,0,0,0,0,0,0,0,10208,10209,
0,0,0,0,0,0,0,0,0,0,0,0,0,0,0,0,
0,0,0,0,0,0,0,0,0,0,0,0,9727,9728,9729,9730,
0,0,0,0,0,0,0,0,0,0,0,0,9759,9760,9761,9762,
0,0,0,0,0,0,0,0,0,0,0,0,9791,9792,9793,9794
</chunk>
    <chunk x="32" y="0" width="16" height="16">
0,0,0,0,0,0,0,0,0,0,0,0,0,0,0,0,
0,0,0,0,0,0,0,0,0,0,0,0,0,0,0,0,
0,0,0,0,0,0,0,0,0,0,0,0,0,0,0,0,
10017,10018,0,0,0,0,0,0,0,0,0,0,0,0,0,0,
10049,10050,9838,9839,9840,0,0,0,0,0,0,0,0,0,0,0,
10113,0,9870,9871,9872,0,0,0,0,0,0,0,0,0,0,0,
0,0,9902,9903,9904,0,0,0,0,0,0,0,0,0,0,0,
10080,0,0,0,0,0,0,0,10019,10020,0,0,0,0,0,0,
10112,0,0,0,0,0,0,0,10051,10052,0,10084,0,0,0,0,
0,0,0,0,0,0,0,0,0,0,0,10109,10110,0,0,0,
0,0,0,0,0,0,0,0,0,0,10081,10141,10142,0,0,0,
0,0,0,0,0,0,0,0,0,0,0,0,0,0,0,0,
0,10053,10054,0,0,0,0,0,0,0,0,0,0,0,0,0,
0,10085,10086,0,0,10157,10158,0,0,0,0,0,0,0,0,0,
0,0,0,0,0,10189,10190,0,0,0,0,0,0,0,0,0,
0,0,0,0,0,0,0,0,0,0,0,0,0,0,0,0
</chunk>
    <chunk x="0" y="16" width="16" height="16">
0,0,0,0,0,0,0,0,0,0,0,0,9357,9358,9359,0,
0,0,0,0,0,0,0,0,0,0,0,0,9389,9390,9391,0,
0,0,0,0,0,0,0,0,0,0,0,0,9421,9422,9423,0,
0,0,0,0,0,0,0,0,0,0,0,0,0,0,0,0,
0,0,0,0,0,0,0,0,0,0,0,0,0,0,0,0,
0,0,0,0,0,0,0,0,0,0,0,0,0,0,0,0,
0,0,0,0,0,0,0,0,0,0,0,0,0,9707,9708,9709,
0,0,0,0,0,0,0,0,10155,10156,0,0,0,9739,9740,9741,
0,0,0,0,0,0,0,0,10187,10188,0,0,0,9771,9772,9773,
0,0,0,0,0,0,0,0,0,0,0,0,0,0,0,0,
0,0,0,0,0,0,0,0,0,0,0,0,0,0,0,0,
0,0,0,0,0,0,0,0,0,0,0,0,0,0,0,0,
0,0,0,0,0,0,0,0,0,0,0,0,0,0,0,0,
0,0,0,0,0,0,0,0,0,0,0,0,0,0,0,0,
0,0,0,0,0,0,0,0,0,0,0,0,0,0,0,0,
0,0,0,0,0,0,0,0,0,0,0,0,0,0,0,0
</chunk>
    <chunk x="16" y="16" width="16" height="16">
0,0,0,0,0,0,0,0,0,0,0,0,9823,9824,9825,9826,
0,0,0,0,0,0,0,0,0,0,0,0,9855,9856,9857,9858,
0,0,0,0,0,0,0,0,0,0,0,0,0,0,0,0,
0,0,0,0,0,0,0,0,0,0,0,0,0,0,0,0,
0,0,0,0,0,0,0,0,0,0,0,0,0,0,0,0,
0,0,0,0,0,0,0,0,0,0,0,0,0,0,0,0,
0,0,0,0,0,0,0,0,0,0,0,0,0,9534,9535,9536,
0,0,0,0,0,0,0,0,0,0,0,0,0,9566,9567,9568,
0,0,0,0,0,0,0,0,0,0,0,0,0,9598,9599,9600,
0,0,0,0,0,0,0,0,0,0,0,0,0,0,0,0,
0,0,0,0,0,0,0,0,0,0,0,0,0,0,0,0,
0,0,0,0,0,0,0,0,0,0,0,0,0,0,0,0,
0,0,0,0,0,0,0,0,0,0,0,0,0,0,0,0,
0,0,0,0,0,0,0,0,0,0,0,0,0,0,0,0,
0,0,0,0,0,0,0,0,0,0,0,0,0,0,0,0,
0,0,0,0,0,0,0,0,0,0,0,0,0,0,0,0
</chunk>
    <chunk x="32" y="16" width="16" height="16">
0,0,0,0,0,0,0,0,9731,9732,9733,0,0,0,0,0,
0,0,0,0,0,0,0,0,9763,9764,9765,0,0,0,0,0,
0,0,0,0,0,0,0,0,9795,9796,9797,0,0,0,0,0,
0,0,0,10093,10094,0,0,0,9827,9828,9829,0,0,0,0,0,
0,0,0,10125,10126,0,0,0,0,0,0,0,0,0,0,0,
0,0,0,0,0,0,0,0,0,0,0,0,0,0,0,0,
0,0,0,0,0,0,0,0,0,0,0,0,0,0,0,0,
0,0,0,0,0,0,0,0,0,0,0,0,0,0,0,0,
0,0,0,0,0,0,0,0,0,0,0,0,0,0,0,0,
0,0,0,0,0,0,0,0,0,0,0,0,0,0,0,0,
0,0,0,0,0,0,0,0,0,0,0,0,0,0,0,0,
0,0,0,0,0,0,0,0,0,0,0,0,0,0,0,0,
0,0,0,0,0,0,0,0,0,0,0,0,0,0,0,0,
0,0,0,0,0,0,0,0,0,0,0,0,0,0,0,0,
0,0,0,0,0,0,0,0,0,0,0,0,0,0,0,0,
0,0,0,0,0,0,0,0,0,0,0,0,0,0,0,0
</chunk>
   </data>
  </layer>
  <layer id="197" name="objects1" width="46" height="32">
   <data encoding="csv">
    <chunk x="0" y="0" width="16" height="16">
0,0,0,0,0,0,0,0,0,0,0,0,0,0,0,0,
0,0,0,0,0,0,0,0,0,0,0,0,0,0,0,0,
0,0,0,0,0,0,0,9643,9644,0,0,0,0,0,0,0,
0,0,9377,9378,0,0,0,9675,9676,0,0,0,0,0,0,0,
0,0,9409,9410,0,0,0,0,0,0,0,0,0,0,0,0,
0,0,9441,9442,0,9512,9513,9514,0,0,0,0,0,0,0,0,
0,0,0,0,0,9544,9545,9546,0,0,0,0,0,0,9424,9425,
0,0,0,0,0,9576,9577,9578,0,0,0,0,0,0,9456,9457,
0,0,0,0,0,9608,9609,9610,0,0,0,0,0,0,0,0,
0,0,0,0,0,0,0,0,0,0,0,0,0,0,0,0,
0,0,0,0,0,0,0,0,0,0,0,9330,9331,9332,9333,9334,
0,0,0,0,0,0,0,0,0,0,0,9362,9363,9364,9365,9366,
0,0,0,0,0,0,0,0,0,0,0,9394,9395,9396,9397,9398,
0,0,0,0,0,0,0,0,0,0,0,9426,9427,9428,9429,9430,
0,0,0,0,0,0,0,0,0,0,0,9458,9459,9460,9461,9462,
0,0,0,0,0,0,0,0,0,0,0,9573,9574,0,9747,9748
</chunk>
    <chunk x="16" y="0" width="16" height="16">
0,0,0,0,0,0,0,0,0,0,0,0,0,0,0,0,
0,0,0,0,0,0,0,0,0,0,0,9455,0,0,0,0,
0,0,0,9534,9535,9536,0,0,0,0,0,0,0,0,0,0,
0,0,0,9566,9567,9568,0,0,0,0,0,0,0,0,10180,10181,
0,0,0,9598,9599,9600,0,0,0,0,0,0,0,0,10212,10213,
0,9625,9626,9627,0,0,0,0,0,0,0,0,0,0,0,0,
0,9657,9658,9659,0,9347,9348,9349,9350,9351,10182,0,0,0,0,0,
0,9689,9690,9691,0,9379,9380,9381,9382,9383,9384,0,0,0,0,0,
0,9517,0,0,0,9411,9412,9413,9414,9415,9416,0,0,0,0,0,
0,0,0,0,0,9443,9444,9445,9446,9447,9448,0,0,0,0,0,
9515,9516,0,0,0,0,9476,9477,9478,9479,9480,0,0,0,0,0,
9547,9548,0,9453,9454,0,0,0,0,0,0,0,9360,9361,0,0,
0,0,0,9485,9486,0,0,0,0,0,0,0,9392,9393,0,0,
0,0,0,0,0,0,0,0,9473,9474,9475,0,0,0,0,0,
9717,9718,9719,9720,9721,0,0,0,9505,9506,9507,9508,0,0,0,0,
9749,9750,9751,9752,9753,0,0,0,9537,9538,9539,9540,0,0,0,0
</chunk>
    <chunk x="32" y="0" width="16" height="16">
0,0,0,0,0,0,0,0,0,0,0,0,0,0,0,0,
0,0,0,0,0,0,0,0,9613,9614,9615,0,0,0,0,0,
10182,0,0,0,0,9509,9510,9511,9645,9646,9647,0,0,0,0,0,
0,0,0,0,0,9541,9542,9543,9677,9678,9679,0,0,0,0,0,
0,0,0,0,0,0,0,0,0,9634,9635,9636,0,0,0,0,
0,0,0,0,0,0,0,0,0,9666,9667,9668,0,0,0,0,
10178,10179,0,0,0,0,0,0,0,0,0,0,0,0,0,0,
10210,10211,0,0,0,0,0,0,0,0,0,0,0,0,0,0,
0,0,0,0,0,0,0,0,0,0,0,0,0,0,0,0,
0,0,0,0,0,0,0,0,0,0,0,0,0,0,0,0,
0,0,0,0,0,0,0,0,0,0,0,0,0,0,0,0,
0,0,0,0,0,0,0,9335,9336,9337,9338,0,10182,0,0,0,
0,0,0,0,0,0,0,9367,9368,9369,9370,0,0,0,0,0,
0,0,0,0,0,0,0,9399,9400,9401,9402,0,0,0,0,0,
0,0,0,0,0,0,0,9431,9432,9433,9434,0,0,0,0,0,
0,0,9357,9358,9359,0,0,9463,9464,9465,9466,0,0,0,0,0
</chunk>
    <chunk x="0" y="16" width="16" height="16">
0,0,0,0,0,0,0,0,0,0,0,9605,9606,0,9779,9780,
0,0,0,0,0,0,0,0,0,0,0,0,0,0,9811,9812,
0,0,0,0,0,0,0,0,0,0,0,0,0,0,9843,9844,
0,0,0,0,0,9498,9499,9500,9501,0,0,0,0,0,9875,9876,
0,0,0,0,0,9530,9531,9532,9533,9343,9344,9345,9346,0,9907,9908,
0,0,0,0,0,9562,9563,9564,9565,9375,9376,9377,9378,0,0,0,
0,0,0,0,0,9594,9595,9596,9597,9407,9408,9409,9410,0,0,0,
0,0,0,0,0,0,0,0,0,9439,9440,9441,9442,0,0,0,
0,0,0,9495,9496,9497,0,0,0,0,9722,9723,9724,9725,9726,0,
0,0,0,9527,9528,9529,0,0,0,0,9754,9755,9756,9757,9758,0,
0,0,0,9559,9560,9561,0,0,0,0,9786,9787,9788,9789,9790,0,
0,0,0,9591,9592,9593,0,0,0,0,9818,9819,9820,9821,9822,0,
0,0,0,0,0,0,0,0,0,0,9850,9851,9852,9853,9854,0,
0,0,0,0,0,0,0,0,0,0,0,0,0,0,0,0,
0,0,0,0,0,0,0,0,0,0,0,0,0,0,0,0,
0,0,0,0,0,0,0,0,0,0,0,0,0,0,0,0
</chunk>
    <chunk x="16" y="16" width="16" height="16">
9781,9782,9783,9784,9785,0,0,0,9569,9570,9571,9572,0,0,0,0,
9813,9814,9815,9816,9817,0,0,0,9601,9602,9603,9509,9510,9511,0,0,
9845,9846,9847,9848,9849,0,0,0,0,0,0,9541,9542,9543,0,9353,
9877,9878,9879,9880,9881,0,0,0,0,0,0,0,0,0,0,9385,
9909,9910,9911,9912,9913,0,0,0,0,0,0,0,0,0,0,9417,
0,0,0,9455,0,0,0,0,0,0,0,0,0,0,0,9449,
0,0,0,0,0,9637,9638,0,0,0,0,0,0,0,0,9481,
0,0,0,0,0,9669,9670,0,0,0,0,0,0,0,0,0,
0,0,0,0,0,0,0,9339,9340,9341,9342,0,0,0,0,0,
0,0,0,0,0,0,0,9371,9372,9373,9374,0,0,0,0,0,
0,0,0,0,0,0,0,9403,9404,9405,9406,0,0,0,0,0,
0,0,0,0,0,0,0,9435,9436,9437,9438,0,9632,9633,0,0,
0,0,0,0,0,0,0,9467,9468,9469,9470,0,9664,9665,0,9641,
0,0,0,0,0,0,0,0,0,0,0,0,9696,9697,0,9673,
0,0,0,0,0,0,0,0,0,0,0,0,0,0,0,0,
0,0,0,0,0,0,0,0,0,0,0,0,0,0,0,0
</chunk>
    <chunk x="32" y="16" width="16" height="16">
0,0,9389,9390,9391,9491,9492,9493,9494,0,0,0,0,0,0,0,
0,0,9421,9422,9423,9523,9524,9525,9526,0,0,0,0,0,0,0,
9354,9355,9356,0,0,9555,9556,9557,9558,0,0,0,0,0,0,0,
9386,9387,9388,0,0,9587,9588,9589,9590,0,0,0,0,0,0,0,
9418,9419,9420,0,0,0,9360,9361,0,0,0,0,0,0,0,0,
9450,9451,9452,0,0,0,9392,9393,0,0,0,0,0,0,0,0,
9482,9483,9484,9575,0,0,0,0,0,0,0,0,0,0,0,0,
0,0,0,0,0,0,0,0,0,9628,9629,9630,0,0,0,0,
0,0,0,0,0,0,0,0,0,9660,9661,9662,0,0,0,0,
0,0,0,0,9495,9496,9497,9639,9640,9692,9693,9694,0,0,0,0,
0,0,0,0,9527,9528,9529,9671,9672,0,0,0,0,0,0,0,
0,0,0,0,9559,9560,9561,0,9518,9519,9520,0,0,0,0,0,
9642,0,0,0,9591,9592,9593,0,9550,9551,9552,0,0,0,0,0,
9674,0,0,0,0,0,0,0,9582,9583,9584,0,0,0,0,0,
0,0,0,0,0,0,0,0,0,0,0,0,0,0,0,0,
0,0,0,0,0,0,0,0,0,0,0,0,0,0,0,0
</chunk>
   </data>
  </layer>
  <layer id="201" name="objects3" width="46" height="32">
   <data encoding="csv">
    <chunk x="0" y="0" width="16" height="16">
0,0,0,0,0,0,0,0,0,0,0,0,0,0,0,0,
0,0,0,0,0,0,0,0,9660,9661,9662,9645,9646,9647,0,0,
0,0,0,10168,10169,0,0,0,9692,9693,9694,9677,9678,9679,0,0,
0,0,0,10200,10201,0,0,0,0,0,9710,9711,9712,0,0,0,
0,0,0,0,0,0,0,0,0,0,9742,9743,9744,0,0,0,
0,0,0,0,0,0,0,0,0,0,9774,9775,9776,0,0,0,
0,0,0,0,0,0,0,0,0,0,0,0,0,0,0,0,
0,0,0,0,0,0,0,0,0,0,0,0,0,0,0,0,
0,0,0,0,0,0,0,0,0,0,0,0,0,0,0,0,
0,0,0,0,0,0,0,0,0,0,0,0,0,0,0,0,
0,0,0,0,0,0,0,0,0,0,0,0,0,0,0,0,
0,0,0,0,0,0,0,0,0,0,0,0,0,0,0,0,
0,0,0,0,0,0,0,0,0,0,0,0,0,0,0,0,
0,0,0,0,0,0,0,0,0,0,0,0,0,0,0,0,
0,0,0,0,0,0,0,0,0,0,0,0,0,0,0,0,
0,0,0,0,0,0,0,0,0,0,0,0,0,0,10166,10167
</chunk>
    <chunk x="16" y="0" width="16" height="16">
0,0,0,0,0,0,0,0,0,0,0,0,0,0,0,0,
0,0,0,0,0,9645,9646,9647,9456,9457,0,0,0,0,0,0,
0,0,0,0,0,9677,9678,9679,0,0,0,0,0,0,0,0,
0,0,0,0,0,0,0,0,0,0,0,0,0,0,0,0,
0,0,0,0,0,0,0,0,0,0,0,0,0,0,0,0,
0,0,0,0,0,0,0,0,0,0,0,0,0,0,0,0,
0,0,0,0,0,0,0,0,0,0,0,0,0,0,0,0,
0,0,0,0,0,0,0,0,0,0,0,0,0,0,0,0,
0,0,9885,9886,0,0,0,0,0,0,0,0,0,0,0,0,
0,0,9917,9918,0,0,0,0,0,0,0,0,0,0,0,0,
0,0,0,0,0,0,0,0,0,0,0,0,0,0,0,0,
0,0,0,0,0,0,0,0,0,0,0,0,0,0,0,0,
0,0,0,0,0,0,0,0,0,0,9573,9574,0,0,0,0,
0,0,0,0,0,0,0,0,0,0,9605,9606,0,0,0,0,
0,0,0,0,0,0,0,0,0,0,0,0,0,0,0,0,
0,0,0,0,0,0,0,0,0,0,0,0,0,0,0,0
</chunk>
    <chunk x="32" y="0" width="16" height="16">
0,0,0,0,0,0,0,0,0,0,0,0,0,0,0,0,
0,0,0,0,0,0,0,0,0,0,0,9505,9506,0,0,0,
0,0,0,0,0,0,0,0,0,0,0,9537,9538,0,0,0,
0,0,0,0,0,0,0,0,0,0,0,9569,9570,0,0,0,
0,0,0,0,0,0,0,0,0,0,0,9601,9602,0,0,0,
0,0,0,0,0,0,0,0,0,0,0,0,0,0,0,0,
0,0,0,0,0,0,0,0,0,0,0,0,0,0,0,0,
0,0,0,0,0,0,0,0,0,0,0,0,0,0,0,0,
0,0,0,0,0,0,0,0,0,0,0,0,0,0,0,0,
0,0,0,0,0,0,0,0,0,0,0,0,0,0,0,0,
0,0,0,0,0,0,0,0,0,0,0,0,0,0,0,0,
0,0,0,0,0,0,0,0,0,0,0,0,0,0,0,0,
0,0,0,0,0,0,0,0,0,0,0,0,0,0,0,0,
0,0,0,0,0,0,0,0,0,0,0,0,0,0,0,0,
0,0,0,0,0,0,0,0,0,0,10170,10171,0,0,0,0,
0,0,0,0,0,9575,0,0,0,0,10202,10203,0,0,0,0
</chunk>
    <chunk x="0" y="16" width="16" height="16">
0,0,0,0,0,0,0,0,0,0,0,0,0,0,10198,10199,
0,0,0,0,0,0,0,0,0,0,0,0,0,0,0,0,
0,0,0,0,0,0,0,0,0,0,0,0,0,0,0,0,
0,0,0,0,0,0,0,0,0,0,0,0,0,0,0,0,
0,0,0,0,0,0,0,0,0,0,0,0,0,0,0,0,
0,0,0,0,0,0,0,0,0,0,0,0,0,0,0,0,
0,0,0,0,0,0,0,0,0,0,0,0,0,0,0,0,
0,0,0,0,0,0,0,0,0,0,0,0,0,0,0,0,
0,0,0,0,0,0,0,0,0,0,0,0,0,0,0,0,
0,0,0,0,0,0,0,0,0,0,0,0,0,0,0,0,
0,0,0,0,0,0,0,0,0,0,0,0,0,0,0,0,
0,0,0,0,0,0,0,0,0,0,0,0,0,0,0,0,
0,0,0,0,0,0,0,0,0,0,0,0,0,0,0,0,
0,0,0,0,0,0,0,0,0,0,0,0,0,0,0,0,
0,0,0,0,0,0,0,0,0,0,0,0,0,0,0,0,
0,0,0,0,0,0,0,0,0,0,0,0,0,0,0,0
</chunk>
    <chunk x="16" y="16" width="16" height="16">
0,0,0,0,0,0,0,0,0,0,0,0,0,0,0,0,
0,0,0,0,0,0,0,0,0,0,0,0,0,0,0,0,
0,0,0,0,0,0,0,0,0,0,0,0,0,0,0,0,
0,0,0,0,0,0,0,0,0,0,0,0,0,0,0,0,
0,0,0,0,0,0,0,9495,9496,9497,0,0,0,0,0,0,
0,0,0,0,0,0,0,9527,9528,9529,0,0,0,0,0,0,
0,0,0,0,0,0,0,9559,9560,9561,0,0,0,0,0,0,
0,0,0,0,0,0,0,9591,9592,9593,0,0,0,0,0,0,
0,0,0,0,0,0,0,0,0,0,0,0,0,0,0,0,
0,0,0,0,0,0,0,0,0,0,0,0,0,0,0,0,
0,0,0,0,0,0,0,0,0,0,0,0,0,0,0,0,
0,0,0,0,0,0,0,0,0,0,0,0,0,0,0,0,
0,0,0,0,0,0,0,0,0,0,0,0,0,0,0,0,
0,0,0,0,0,0,0,0,0,0,0,0,0,0,0,0,
0,0,0,0,0,0,0,0,0,0,0,0,0,0,0,0,
0,0,0,0,0,0,0,0,0,0,0,0,0,0,0,0
</chunk>
    <chunk x="32" y="16" width="16" height="16">
0,0,0,0,0,0,0,0,0,0,0,0,0,0,0,0,
0,0,0,0,0,0,0,0,0,0,0,0,0,0,0,0,
0,0,0,0,0,0,0,0,0,0,0,0,0,0,0,0,
0,0,0,0,0,0,0,0,0,0,0,0,0,0,0,0,
0,0,0,0,0,0,0,0,0,0,0,0,0,0,0,0,
0,0,0,0,0,0,0,0,0,0,0,9534,9535,0,0,0,
0,10163,10164,10165,0,0,0,0,0,0,0,9566,9567,0,0,0,
0,10195,10196,10197,0,0,0,0,0,0,0,9598,9599,0,0,0,
0,10227,10228,10229,0,0,0,0,0,0,0,0,0,0,0,0,
0,0,0,0,0,0,0,0,0,0,0,9573,9574,0,0,0,
0,0,0,0,0,0,0,0,0,0,0,9605,9606,0,0,0,
0,0,0,0,0,0,0,0,0,9347,9348,9349,9350,0,0,0,
0,9498,9499,9500,9501,0,0,9575,0,9379,9380,9381,9382,0,0,0,
0,9530,9531,9532,9533,0,0,0,0,9411,9412,9413,9414,0,0,0,
0,0,0,0,0,0,0,0,0,0,0,0,0,0,0,0,
0,0,0,0,0,0,0,0,0,0,0,0,0,0,0,0
</chunk>
   </data>
  </layer>
 </group>
 <objectgroup id="211" name="Hill up Collision Layer">
  <object id="41" x="461" y="310">
   <polygon points="0,0 4,-2 13,-3 20,-2 23,-2 24,-5 26,-9 29,-13 35,-17 39,-19 42,-25 42,-28 47,-32 54,-33 57,-36 59,-46 59,-56 62,-61 60,-68 55,-74 51,-78 40,-79 36,-77 32,-79 27,-84 29,-92 29,-96 26,-104 24,-107 19,-108 16,-110 13,-116 10,-120 6,-124 0,-124 -7,-127 -19,-125 -22,-126 -28,-126 -33,-126 -38,-128 -43,-127 -48,-126 -52,-126 -60,-125 -64,-124 -69,-120 -71,-114 -71,-109 -70,-105 -70,-100 -72,-98 -76,-93 -81,-92 -84,-88 -85,-79 -85,-73 -85,-68 -86,-66 -89,-64 -95,-62 -98,-63 -103,-63 -107,-62 -110,-61 -114,-59 -116,-55 -119,-50 -119,-43 -117,-37 -111,-33 -105,-32 -99,-32 -92,-31 -88,-31 -86,-29 -84,-26 -80,-18 -77,-17 -70,-15 -64,-15 -58,-16 -55,-15 -53,-13 -52,-10 -51,-8 -49,-5 -47,-4 -45,-3 -34,-2 -27,-3 -26,-1 -29,1 -39,1 -49,-1 -52,-5 -54,-9 -57,-12 -63,-12 -69,-12 -77,-13 -80,-14 -84,-18 -86,-23 -88,-27 -92,-29 -97,-29 -102,-29 -112,-30 -120,-36 -123,-46 -121,-56 -117,-61 -108,-65 -103,-66 -97,-66 -93,-65 -90,-66 -88,-71 -90,-76 -88,-88 -85,-93 -82,-94 -76,-97 -72,-103 -73,-109 -73,-113 -72,-120 -68,-125 -63,-127 -54,-129 -45,-129 -38,-130 -29,-129 -22,-129 -13,-128 -7,-129 0,-128 6,-126 12,-123 15,-118 19,-113 25,-109 29,-104 31,-98 33,-90 31,-86 33,-82 37,-80 43,-83 48,-81 54,-79 61,-75 65,-64 63,-51 63,-42 60,-35 58,-31 48,-30 46,-25 44,-20 38,-15 33,-13 29,-6 24,-1 17,0 9,0 4,1"/>
  </object>
  <object id="55" x="468" y="101">
   <polygon points="0,0 -5,-3 -8,-5 -9,-10 -10,-16 -10,-20 -7,-24 -5,-25 1,-27 7,-27 16,-27 21,-27 26,-26 31,-23 34,-18 35,-12 33,-5 25,-1 23,-1 23,-3 29,-4 31,-6 33,-9 34,-13 33,-18 30,-22 27,-25 21,-26 11,-26 2,-26 -4,-24 -9,-21 -9,-15 -7,-6 -4,-3 0,-2"/>
  </object>
  <object id="87" x="257" y="22">
   <polygon points="0,0 1,-4 -2,-5 -7,-5 -4,-1 -5,1 -5,2"/>
  </object>
 </objectgroup>
 <objectgroup id="214" name="StairToggle">
  <object id="70" name="StairsUPTrigger" x="433" y="313">
   <polygon points="0,1 29,1 29,-1 0,-1"/>
  </object>
  <object id="71" name="StairsDownTrigger" x="437" y="355">
   <polygon points="-1,5 -1,7 24,7 24,5"/>
  </object>
 </objectgroup>
 <objectgroup id="217" name="Trigger">
  <object id="81" name="VillageTrigger" x="308" y="469">
   <polygon points="0,0 0,7 44,7 44,-1 0,-2"/>
  </object>
  <object id="88" name="UndeadTrigger" x="309" y="18">
   <polygon points="-17,-1 -28,6 36,9 51,0"/>
  </object>
 </objectgroup>
 <objectgroup id="218" name="Object Layer 6"/>
 <objectgroup id="206" name="HillAbove">
  <object id="6" x="32" y="7" width="685" height="11"/>
  <object id="7" x="26" y="7" width="10" height="470"/>
  <object id="10" x="26" y="476" width="693" height="10"/>
  <object id="12" x="717" y="7" width="24" height="478"/>
  <object id="14" x="32" y="135">
   <polygon points="0,0 33,1 39,5 39,11 42,13 47,17 53,18 56,23 57,26 56,29 61,32 68,34 72,36 72,40 70,47 69,60 70,70 73,77 78,80 84,82 79,77 77,74 71,68 70,59 72,47 74,38 73,32 68,31 62,28 60,26 58,20 56,16 51,15 45,12 42,10 41,4 39,1 32,-1 22,-2 9,-4 2,-4 -2,-3 -3,0"/>
  </object>
  <object id="15" x="115" y="282">
   <polygon points="0,0 -3,2 -7,4 -7,9 -9,15 -14,16 -21,18 -25,16 -31,15 -38,15 -44,19 -48,27 -52,31 -58,31 -60,38 -63,42 -69,45 -73,49 -74,50 -78,46 -82,46 -83,48 -85,52 -81,51 -78,51 -71,52 -65,47 -58,42 -56,37 -55,34 -48,32 -44,27 -41,21 -38,18 -34,17 -30,17 -25,19 -20,20 -17,20 -12,19 -7,17 -5,11 -4,5 -1,3"/>
  </object>
  <object id="16" x="141" y="282">
   <polygon points="0,0 0,3 3,3 4,5 7,3 11,3 16,0 15,-4 14,-10 11,-12 10,-19 13,-24 16,-30 20,-33 24,-35 28,-44 25,-51 28,-59 29,-64 26,-67 20,-70 15,-72 4,-72 0,-72 0,-68 2,-68 7,-69 10,-69 15,-69 19,-67 22,-65 25,-61 24,-57 23,-53 23,-45 24,-42 24,-40 21,-37 16,-34 11,-29 8,-26 7,-19 7,-13 10,-8 12,-3 10,-1 7,0 4,1 2,1"/>
  </object>
  <object id="17" x="117" y="217">
   <polygon points="0,0 -1,4 -1,65 -4,65 -5,0"/>
  </object>
  <object id="18" x="141" y="214">
   <polygon points="0,0 0,68 2,68 2,-1"/>
  </object>
  <object id="22" x="32" y="364">
   <polygon points="0,0 2,-2 3,-4 5,-6 8,-6 10,-4 11,-3 13,-1 18,-1 20,-3 22,-4 26,-3 28,-2 30,-1 36,0 39,0 45,1 46,0 50,-1 52,2 54,6 58,11 62,16 66,17 70,19 71,20 72,23 72,26 74,28 76,29 80,32 84,32 89,31 97,33 102,38 103,40 106,42 109,45 113,47 117,49 122,58 123,61 121,64 120,67 118,69 116,72 111,72 104,72 99,72 95,72 93,71 87,73 86,76 84,80 82,85 79,88 70,91 67,97 67,100 71,107 72,111 71,115 70,118 75,116 78,111 78,106 74,101 72,98 74,94 79,92 84,91 88,84 89,79 95,76 101,78 108,79 119,74 122,70 125,65 127,60 127,56 120,47 115,41 109,40 105,36 106,32 96,26 91,25 84,24 79,26 77,26 75,23 72,18 72,14 67,11 63,11 60,6 57,2 57,-1 54,-3 51,-4 46,-5 41,-2 33,-4 29,-5 25,-7 22,-9 17,-6 16,-5 12,-7 11,-9 8,-11 4,-10 2,-7 -1,-6 -1,-2"/>
  </object>
  <object id="23" x="148" y="450">
   <polygon points="0,0 -3,4 -6,6 -8,8 -10,8 -15,6 -20,5 -24,5 -28,7 -31,10 -31,13 -31,15 -32,17 -33,19 -36,21 -39,22 -40,19 -39,18 -38,16 -35,13 -33,12 -33,9 -32,7 -29,4 -24,3 -18,3 -14,4 -7,5 -4,2 -1,-2 -1,-9 0,-11 4,-12"/>
  </object>
  <object id="26" x="214" y="480">
   <polygon points="0,0 2,-3 3,-7 1,-12 -1,-16 -2,-20 2,-25 8,-29 14,-33 15,-37 17,-40 20,-43 28,-43 35,-42 41,-42 46,-45 47,-50 47,-54 48,-57 58,-62 62,-61 66,-59 74,-60 77,-60 77,-56 73,-52 68,-49 61,-51 54,-53 52,-51 52,-47 51,-43 48,-40 42,-37 36,-36 23,-37 18,-30 15,-26 8,-20 4,-19 7,-11 7,-7 7,-4 5,-3 5,-1"/>
  </object>
  <object id="27" x="253" y="480">
   <polygon points="0,0 -3,-3 -4,-7 -4,-10 -4,-14 -2,-18 1,-21 7,-22 12,-22 18,-22 23,-23 26,-27 28,-32 29,-36 35,-37 40,-36 40,-39 36,-41 34,-41 29,-39 26,-36 24,-32 23,-29 22,-26 16,-26 9,-25 2,-25 -4,-23 -6,-21 -9,-15 -9,-8 -8,-4 -6,0"/>
  </object>
  <object id="28" x="286" y="429">
   <polygon points="0,0 0,9 0,10 0,11 6,11 6,-8 1,-8 -1,-8 0,1"/>
  </object>
  <object id="29" x="318" y="442">
   <polygon points="0,0 0,-23 6,-23 5,0"/>
  </object>
  <object id="31" x="720" y="281">
   <polygon points="0,0 -7,-1 -13,-2 -17,-3 -21,-3 -25,0 -25,5 -22,10 -20,11 -19,14 -20,17 -23,24 -25,27 -29,29 -38,27 -42,27 -45,29 -52,32 -54,36 -55,39 -54,43 -52,48 -52,51 -54,55 -56,58 -60,61 -64,63 -68,64 -72,67 -72,72 -73,76 -77,78 -82,80 -84,81 -89,80 -94,79 -97,78 -100,80 -102,81 -103,86 -105,90 -108,93 -113,95 -117,96 -121,100 -120,104 -121,108 -124,110 -129,108 -136,108 -140,109 -147,111 -151,115 -153,121 -156,124 -162,128 -163,131 -159,128 -155,126 -152,124 -151,120 -149,116 -147,114 -142,113 -134,114 -126,114 -119,110 -118,103 -117,100 -112,98 -104,96 -99,91 -97,83 -91,83 -84,83 -76,81 -70,76 -69,72 -64,67 -55,63 -49,51 -49,40 -43,32 -37,29 -31,31 -18,23 -15,15 -16,7 -22,3 -16,-1 -11,2 -4,2"/>
  </object>
  <object id="33" x="532" y="412">
   <polygon points="0,0 -1,-4 -6,-6 -7,-7 -12,-7 -17,-6 -21,-3 -25,-1 -28,-1 -34,-2 -39,-3 -43,0 -53,0 -57,-3 -61,-2 -67,-4 -69,-7 -72,-7 -76,-7 -83,-7 -93,-8 -102,-8 -105,-4 -105,-2 -109,-1 -113,-3 -116,-4 -120,-5 -125,-5 -130,-6 -133,-8 -138,-8 -145,-8 -151,-6 -152,-3 -157,0 -162,-2 -165,-5 -170,-5 -172,-2 -177,-4 -189,1 -189,4 -188,8 -191,11 -198,11 -199,14 -199,15 -206,16 -207,15 -208,14 -208,18 -203,20 -189,14 -185,9 -185,4 -184,1 -179,0 -176,2 -172,2 -163,2 -155,3 -145,-2 -139,-2 -134,-1 -125,0 -118,0 -110,1 -105,2 -97,0 -90,-1 -81,-1 -72,-1 -62,1 -55,1 -31,4 -20,3 -15,0 -10,0 -6,2 -3,1"/>
  </object>
  <object id="34" x="36" y="105">
   <polygon points="0,0 2,1 5,3 8,4 10,1 12,0 15,1 18,1 22,2 24,-1 26,-3 31,-4 39,-4 46,-3 49,-3 52,-9 55,-17 52,-23 50,-25 50,-28 50,-31 54,-34 59,-36 65,-38 66,-41 69,-41 69,-37 65,-35 61,-34 57,-31 55,-28 56,-23 59,-19 57,-10 53,-5 51,-2 47,1 43,3 35,3 31,3 26,3 22,4 19,4 11,4 4,5 0,6 0,2"/>
  </object>
  <object id="35" x="123" y="70">
   <polygon points="1,0 5,1 8,4 9,5 13,6 17,6 18,3 20,1 24,0 26,-2 27,-6 27,-10 30,-12 33,-15 39,-17 45,-18 53,-17 58,-14 63,-11 69,-12 72,-14 75,-18 76,-21 77,-25 79,-28 84,-30 90,-29 92,-27 97,-23 101,-21 107,-19 110,-20 113,-22 114,-25 112,-28 115,-31 120,-32 124,-33 126,-38 126,-42 128,-46 134,-48 133,-43 130,-42 128,-38 127,-34 123,-29 118,-26 115,-24 113,-20 104,-18 96,-20 93,-22 87,-26 85,-26 81,-24 79,-21 79,-17 75,-14 73,-11 69,-9 66,-8 59,-7 53,-8 46,-9 40,-9 35,-9 30,-7 30,-3 27,1 24,3 21,5 16,6 11,8 7,6 2,4"/>
  </object>
  <object id="36" x="533" y="18">
   <polygon points="0,0 -1,4 -2,8 3,17 6,18 17,19 23,17 32,17 42,17 50,20 53,27 53,35 52,42 54,48 61,50 69,52 79,52 83,53 84,57 88,64 93,67 101,67 111,67 121,66 128,69 134,73 139,79 144,82 142,92 143,103 137,101 136,98 132,93 129,88 124,86 118,87 113,88 105,85 100,87 95,87 91,85 87,83 85,78 84,72 83,71 76,71 72,68 66,69 61,70 57,67 53,63 53,56 52,51 49,47 48,45 47,41 48,37 44,37 41,37 37,39 30,39 27,38 20,38 14,38 10,36 7,34 5,31 5,27 3,18 -3,12 -4,7 -4,3 -2,-2"/>
  </object>
  <object id="37" x="703" y="101">
   <polygon points="0,0 1,8 0,14 -1,18 2,21 5,21 16,21 18,5 16,-3 17,-4 6,-3 1,-3"/>
  </object>
  <object id="38" x="346" y="298">
   <polygon points="0,0 16,10 37,24 49,34 61,40 76,43 84,43 88,47 90,54 89,63 77,63 66,62 64,54 62,48 55,47 46,46 37,46 34,41 31,33 27,31 21,30 9,30 4,28 1,23 -1,18 -2,13 -1,7"/>
  </object>
  <object id="39" x="464" y="342">
   <polygon points="0,0 -2,14 4,19 11,19 17,15 19,6 29,0 36,-11 45,-15 50,-21 54,-32 55,-41 52,-46 19,-11 9,-5"/>
  </object>
  <object id="45" x="563" y="204">
   <polygon points="1,-1 -4,2 -10,3 -15,4 -18,2 -22,1 -29,0 -34,0 -39,1 -42,1 -45,-2 -46,-6 -48,-11 -47,-17 -46,-25 -50,-29 -55,-31 -58,-32 -60,-35 -63,-40 -65,-46 -66,-49 -66,-55 -64,-59 -59,-61 -52,-59 -45,-58 -38,-57 -35,-61 -33,-67 -34,-69 -31,-75 -28,-77 -22,-76 -20,-75 -18,-78 -17,-83 -17,-86 -16,-90 -12,-91 -4,-92 3,-92 2,-90 -5,-91 -10,-90 -14,-88 -15,-82 -16,-78 -18,-75 -22,-74 -27,-75 -30,-73 -31,-70 -32,-62 -34,-59 -40,-56 -46,-56 -54,-58 -60,-58 -64,-57 -64,-52 -62,-42 -59,-37 -51,-31 -47,-31 -46,-28 -44,-24 -44,-15 -45,-11 -42,-5 -38,-3 -30,-2 -22,-2 -16,-1 -13,2 -8,0 -4,-1 1,-3"/>
  </object>
  <object id="46" x="590" y="201">
   <polygon points="0,0 0,2 0,4 4,4 7,5 16,3 21,2 23,-3 23,-5 25,-8 24,-11 27,-14 31,-16 35,-18 39,-17 41,-16 43,-15 46,-17 47,-22 49,-26 53,-28 58,-29 62,-32 64,-37 65,-41 66,-46 65,-51 61,-55 57,-57 52,-57 49,-58 48,-61 48,-67 46,-70 44,-72 41,-73 37,-73 34,-73 33,-74 32,-80 31,-84 29,-87 28,-88 22,-90 15,-90 12,-89 5,-88 1,-87 -1,-88 -1,-86 1,-85 8,-84 11,-85 15,-86 18,-86 21,-87 24,-87 26,-85 30,-79 30,-76 31,-74 32,-72 35,-70 39,-70 43,-69 45,-66 45,-64 45,-61 45,-57 47,-54 50,-54 54,-54 58,-53 60,-50 61,-47 60,-43 61,-37 60,-34 57,-31 53,-30 49,-28 47,-26 46,-24 45,-21 44,-18 43,-17 42,-18 37,-20 33,-19 26,-15 23,-12 21,-5 21,-3 16,-1 13,0 10,0 7,0 4,1 2,0"/>
  </object>
  <object id="49" x="590" y="116">
   <polygon points="0,0 0,86 1,87 3,87 2,0"/>
  </object>
  <object id="51" x="564" y="115">
   <polygon points="0,0 -2,53 0,58 0,86 -4,87 -3,1 -2,-1 0,-1"/>
  </object>
  <object id="54" x="466" y="172">
   <polygon points="0,0 1,2 3,1 8,-2 10,-6 12,-13 13,-19 10,-23 7,-26 3,-27 -6,-27 -10,-27 -14,-25 -16,-20 -16,-13 -13,-5 -7,1 -2,2 1,2 -1,0 -4,-1 -8,-3 -11,-7 -14,-13 -14,-18 -14,-21 -11,-24 -5,-25 0,-25 5,-25 7,-23 9,-20 10,-18 10,-15 10,-12 9,-8 7,-5 5,-3 3,-1 1,0"/>
  </object>
  <object id="56" x="458" y="102">
   <polygon points="0,0 -1,4 1,10 2,15 5,17 9,19 12,20 11,16 11,13 9,10 7,4 0,0"/>
  </object>
  <object id="57" x="494" y="109">
   <polygon points="0,0 -1,12 2,11 6,7 8,1 9,-4 9,-7 8,-9 4,-6"/>
  </object>
  <object id="59" x="456" y="52">
   <polygon points="0,0 8,-2 13,-2 17,0 19,4 20,9 19,16 18,20 16,22 12,23 8,24 5,25 4,27 3,31 3,35 1,37 -2,39 -5,39 -9,38 -11,37 -14,36 -18,36 -20,37 -26,39 -31,40 -34,41 -36,41 -38,40 -42,38 -44,37 -54,38 -59,38 -62,37 -65,34 -67,29 -68,25 -69,20 -67,18 -65,16 -62,15 -57,15 -52,13 -52,9 -52,5 -52,2 -49,-1 -44,-1 -39,0 -35,2 -31,3 -30,1 -31,1 -31,1 -32,1 -35,1 -37,0 -41,-1 -45,-2 -51,-1 -53,2 -53,12 -57,14 -61,14 -65,13 -69,18 -70,21 -69,30 -65,37 -60,40 -52,40 -43,40 -39,42 -35,43 -29,43 -19,39 -16,37 -13,38 -8,41 -5,42 0,40 4,36 5,29 6,26 9,25 17,24 20,19 21,12 22,5 19,1 17,-2 12,-3 4,-3 1,-2"/>
  </object>
  <object id="60" x="424" y="45">
   <polygon points="0,0 2,5 3,7 5,9 7,10 10,12 13,12 18,13 22,13 26,10 29,7 31,4 32,1 33,0 33,3 33,6 31,9 27,12 23,15 20,16 15,15 11,15 8,14 4,11 3,9 1,6 0,4 -1,1"/>
  </object>
  <object id="61" x="313" y="157">
   <polygon points="0,0 2,-3 5,-5 9,-6 14,-2 16,0 15,4 12,7 9,10 6,11 4,9 3,7 1,6 1,2 0,1 -1,1 0,3 0,6 2,8 4,10 6,12 9,11 14,7 17,2 17,-1 13,-4 10,-6 8,-7 4,-5 0,-3 -1,0 -1,1 0,1"/>
  </object>
  <object id="62" x="296" y="198">
   <polygon points="0,1 -6,0 -10,0 -14,3 -17,5 -18,9 -18,13 -21,16 -25,17 -31,19 -33,23 -32,27 -29,33 -24,35 -21,37 -18,38 -16,41 -13,47 -11,51 -6,51 -1,48 6,51 10,51 13,49 15,45 17,41 20,38 24,37 26,35 29,33 31,27 32,24 31,20 29,18 25,16 21,15 19,12 17,9 15,5 13,3 12,1 7,1 2,1 2,3 5,3 9,3 11,4 13,6 14,9 15,12 19,16 22,17 25,19 28,20 29,24 28,28 26,32 24,34 20,35 17,37 15,38 14,42 13,44 11,46 9,48 7,47 3,47 0,45 -5,45 -7,47 -9,47 -11,44 -14,39 -16,35 -19,33 -22,32 -26,29 -29,27 -29,23 -28,20 -24,20 -16,17 -13,14 -13,10 -12,6 -8,4 -6,4 -3,4 -1,4 2,5 2,3 2,1"/>
  </object>
  <object id="63" x="518" y="280">
   <polygon points="0,0 -1,6 1,11 2,20 1,22 -15,31 -20,16 -9,5 -8,-1 -2,0"/>
  </object>
  <object id="64" x="345" y="277">
   <polygon points="0,0 1,8 2,14 0,22 7,25 11,27 12,21 10,8 10,4"/>
  </object>
  <object id="65" x="432" y="311">
   <polygon points="0,0 2,35 -8,31 -8,6 -8,-1"/>
  </object>
  <object id="66" x="463" y="310">
   <polygon points="0,0 0,39 5,33 6,-1"/>
  </object>
  <object id="67" x="468" y="101">
   <polygon points="0,0 0,3 -1,10 -1,11 -3,5 -3,0 -1,-1"/>
  </object>
  <object id="69" x="491" y="100">
   <polygon points="0,0 -1,3 3,9 5,6 3,0"/>
  </object>
  <object id="73" x="367" y="246">
   <polygon points="9,-5 8,-6 7,-9 21,-10 96,-13 127,-14 139,-15 144,-15 146,-15 151,-13 148,-10 108,-7 49,-7 19,-6"/>
  </object>
  <object id="74" x="376" y="241">
   <polygon points="0,0 -6,4 -15,5 -23,5 -29,6 -34,11 -37,18 -36,27 -35,33 -33,35 -30,37 -30,32 -34,22 -34,15 -30,11 -20,8 -12,6 -7,6 -2,5 1,2"/>
  </object>
  <object id="75" x="516" y="236">
   <polygon points="0,0 2,-3 3,-2 7,3 9,9 11,12 9,20 9,29 8,34 4,42 3,45 -1,44 -2,43 2,36 5,29 5,21 6,15 7,12 6,7 3,4"/>
  </object>
  <object id="82" name="Dungeon Entery" x="572" y="74">
   <polygon points="91,-34 91,-28 110,-28 110,-34"/>
  </object>
  <object id="83" x="591" y="80">
   <polygon points="91,-33 96,-33 96,-34 111,-34 112,-36 111,-37 111,-47 112,-49 116,-50 126,-50 127,-50 128,-52 128,-56 128,-62 128,-63 128,-64 126,-64 127,-63 119,-68 111,-66 111,-65 104,-71 104,-66 101,-64 100,-62 95,-62 92,-42 91,-42"/>
  </object>
  <object id="84" x="591" y="73">
   <polygon points="91,-33 71,-33 71,-37 92,-37"/>
  </object>
  <object id="85" x="572" y="73">
   <polygon points="90,-34 91,-28 91,-27 91,-26 86,-26 86,-27 82,-27 69,-27 69,-30 69,-38 70,-43 56,-43 53,-44 53,-46 54,-50 54,-54 53,-56 60,-58 64,-57 67,-57 68,-55 75,-54 81,-56 86,-54 89,-54"/>
  </object>
 </objectgroup>
</map>
