<?xml version="1.0" encoding="UTF-8"?>
<map version="1.10" tiledversion="1.12.1" orientation="orthogonal" renderorder="right-down" width="38" height="25" tilewidth="16" tileheight="16" infinite="1" nextlayerid="109" nextobjectid="81">
 <tileset firstgid="1" name="Ground_rocks" tilewidth="16" tileheight="16" tilecount="2262" columns="26">
  <image source="../Art/UnDead/Ground_rocks.png" width="416" height="1392"/>
 </tileset>
 <tileset firstgid="2263" source="../Tilesets/UnDead/Water_detilazation2.tsx"/>
 <tileset firstgid="5149" name="Water_detilazation" tilewidth="16" tileheight="16" tilecount="2886" columns="37">
  <image source="../Art/UnDead/water_detilazation.png" width="592" height="1248"/>
  <tile id="40">
   <animation>
    <frame tileid="40" duration="150"/>
    <frame tileid="521" duration="150"/>
    <frame tileid="1002" duration="150"/>
    <frame tileid="1483" duration="150"/>
    <frame tileid="1964" duration="150"/>
    <frame tileid="2445" duration="150"/>
   </animation>
  </tile>
  <tile id="41">
   <animation>
    <frame tileid="41" duration="150"/>
    <frame tileid="522" duration="150"/>
    <frame tileid="1003" duration="150"/>
    <frame tileid="1484" duration="150"/>
    <frame tileid="1965" duration="150"/>
    <frame tileid="2446" duration="150"/>
   </animation>
  </tile>
  <tile id="42">
   <animation>
    <frame tileid="42" duration="150"/>
    <frame tileid="523" duration="150"/>
    <frame tileid="1004" duration="150"/>
    <frame tileid="1485" duration="150"/>
    <frame tileid="1966" duration="150"/>
    <frame tileid="2447" duration="150"/>
   </animation>
  </tile>
  <tile id="43">
   <animation>
    <frame tileid="43" duration="150"/>
    <frame tileid="524" duration="150"/>
    <frame tileid="1005" duration="150"/>
    <frame tileid="1486" duration="150"/>
    <frame tileid="1967" duration="150"/>
    <frame tileid="2448" duration="150"/>
   </animation>
  </tile>
  <tile id="44">
   <animation>
    <frame tileid="44" duration="150"/>
    <frame tileid="525" duration="150"/>
    <frame tileid="1006" duration="150"/>
    <frame tileid="1487" duration="150"/>
    <frame tileid="1968" duration="150"/>
    <frame tileid="2449" duration="150"/>
   </animation>
  </tile>
  <tile id="45">
   <animation>
    <frame tileid="45" duration="150"/>
    <frame tileid="526" duration="150"/>
    <frame tileid="1007" duration="150"/>
    <frame tileid="1488" duration="150"/>
    <frame tileid="1969" duration="150"/>
    <frame tileid="2450" duration="150"/>
   </animation>
  </tile>
  <tile id="46">
   <animation>
    <frame tileid="46" duration="150"/>
    <frame tileid="527" duration="150"/>
    <frame tileid="1008" duration="150"/>
    <frame tileid="1489" duration="150"/>
    <frame tileid="1970" duration="150"/>
    <frame tileid="2451" duration="150"/>
   </animation>
  </tile>
  <tile id="47">
   <animation>
    <frame tileid="47" duration="150"/>
    <frame tileid="528" duration="150"/>
    <frame tileid="1009" duration="150"/>
    <frame tileid="1490" duration="150"/>
    <frame tileid="1971" duration="150"/>
    <frame tileid="2452" duration="150"/>
   </animation>
  </tile>
  <tile id="48">
   <animation>
    <frame tileid="48" duration="150"/>
    <frame tileid="529" duration="150"/>
    <frame tileid="1010" duration="150"/>
    <frame tileid="1491" duration="150"/>
    <frame tileid="1972" duration="150"/>
    <frame tileid="2453" duration="150"/>
   </animation>
  </tile>
  <tile id="49">
   <animation>
    <frame tileid="49" duration="150"/>
    <frame tileid="530" duration="150"/>
    <frame tileid="1011" duration="150"/>
    <frame tileid="1492" duration="150"/>
    <frame tileid="1973" duration="150"/>
    <frame tileid="2454" duration="150"/>
   </animation>
  </tile>
  <tile id="50">
   <animation>
    <frame tileid="50" duration="150"/>
    <frame tileid="531" duration="150"/>
    <frame tileid="1012" duration="150"/>
    <frame tileid="1493" duration="150"/>
    <frame tileid="1974" duration="150"/>
    <frame tileid="2455" duration="150"/>
   </animation>
  </tile>
  <tile id="51">
   <animation>
    <frame tileid="51" duration="150"/>
    <frame tileid="532" duration="150"/>
    <frame tileid="1013" duration="150"/>
    <frame tileid="1494" duration="150"/>
    <frame tileid="1975" duration="150"/>
    <frame tileid="2456" duration="150"/>
   </animation>
  </tile>
  <tile id="52">
   <animation>
    <frame tileid="52" duration="150"/>
    <frame tileid="533" duration="150"/>
    <frame tileid="1014" duration="150"/>
    <frame tileid="1495" duration="150"/>
    <frame tileid="1976" duration="150"/>
    <frame tileid="2457" duration="150"/>
   </animation>
  </tile>
  <tile id="53">
   <animation>
    <frame tileid="53" duration="150"/>
    <frame tileid="534" duration="150"/>
    <frame tileid="1015" duration="150"/>
    <frame tileid="1496" duration="150"/>
    <frame tileid="1977" duration="150"/>
    <frame tileid="2458" duration="150"/>
   </animation>
  </tile>
  <tile id="56">
   <animation>
    <frame tileid="56" duration="150"/>
    <frame tileid="537" duration="150"/>
    <frame tileid="1018" duration="150"/>
    <frame tileid="1499" duration="150"/>
    <frame tileid="1980" duration="150"/>
    <frame tileid="2461" duration="150"/>
   </animation>
  </tile>
  <tile id="57">
   <animation>
    <frame tileid="57" duration="150"/>
    <frame tileid="538" duration="150"/>
    <frame tileid="1019" duration="150"/>
    <frame tileid="1500" duration="150"/>
    <frame tileid="1981" duration="150"/>
    <frame tileid="2462" duration="150"/>
   </animation>
  </tile>
  <tile id="58">
   <animation>
    <frame tileid="58" duration="150"/>
    <frame tileid="539" duration="150"/>
    <frame tileid="1020" duration="150"/>
    <frame tileid="1501" duration="150"/>
    <frame tileid="1982" duration="150"/>
    <frame tileid="2463" duration="150"/>
   </animation>
  </tile>
  <tile id="59">
   <animation>
    <frame tileid="59" duration="150"/>
    <frame tileid="540" duration="150"/>
    <frame tileid="1021" duration="150"/>
    <frame tileid="1502" duration="150"/>
    <frame tileid="1983" duration="150"/>
    <frame tileid="2464" duration="150"/>
   </animation>
  </tile>
  <tile id="60">
   <animation>
    <frame tileid="60" duration="150"/>
    <frame tileid="541" duration="150"/>
    <frame tileid="1022" duration="150"/>
    <frame tileid="1503" duration="150"/>
    <frame tileid="1984" duration="150"/>
    <frame tileid="2465" duration="150"/>
   </animation>
  </tile>
  <tile id="61">
   <animation>
    <frame tileid="61" duration="150"/>
    <frame tileid="542" duration="150"/>
    <frame tileid="1023" duration="150"/>
    <frame tileid="1504" duration="150"/>
    <frame tileid="1985" duration="150"/>
    <frame tileid="2466" duration="150"/>
   </animation>
  </tile>
  <tile id="62">
   <animation>
    <frame tileid="62" duration="150"/>
    <frame tileid="543" duration="150"/>
    <frame tileid="1024" duration="150"/>
    <frame tileid="1505" duration="150"/>
    <frame tileid="1986" duration="150"/>
    <frame tileid="2467" duration="150"/>
   </animation>
  </tile>
  <tile id="63">
   <animation>
    <frame tileid="63" duration="150"/>
    <frame tileid="544" duration="150"/>
    <frame tileid="1025" duration="150"/>
    <frame tileid="1506" duration="150"/>
    <frame tileid="1987" duration="150"/>
    <frame tileid="2468" duration="150"/>
   </animation>
  </tile>
  <tile id="74">
   <animation>
    <frame tileid="74" duration="150"/>
    <frame tileid="555" duration="150"/>
    <frame tileid="1036" duration="150"/>
    <frame tileid="1517" duration="150"/>
    <frame tileid="1998" duration="150"/>
    <frame tileid="2479" duration="150"/>
   </animation>
  </tile>
  <tile id="75">
   <animation>
    <frame tileid="75" duration="150"/>
    <frame tileid="556" duration="150"/>
    <frame tileid="1037" duration="150"/>
    <frame tileid="1518" duration="150"/>
    <frame tileid="1999" duration="150"/>
    <frame tileid="2480" duration="150"/>
   </animation>
  </tile>
  <tile id="76">
   <animation>
    <frame tileid="76" duration="150"/>
    <frame tileid="557" duration="150"/>
    <frame tileid="1038" duration="150"/>
    <frame tileid="1519" duration="150"/>
    <frame tileid="2000" duration="150"/>
    <frame tileid="2481" duration="150"/>
   </animation>
  </tile>
  <tile id="77">
   <animation>
    <frame tileid="77" duration="150"/>
    <frame tileid="558" duration="150"/>
    <frame tileid="1039" duration="150"/>
    <frame tileid="1520" duration="150"/>
    <frame tileid="2001" duration="150"/>
    <frame tileid="2482" duration="150"/>
   </animation>
  </tile>
  <tile id="78">
   <animation>
    <frame tileid="78" duration="150"/>
    <frame tileid="559" duration="150"/>
    <frame tileid="1040" duration="150"/>
    <frame tileid="1521" duration="150"/>
    <frame tileid="2002" duration="150"/>
    <frame tileid="2483" duration="150"/>
   </animation>
  </tile>
  <tile id="79">
   <animation>
    <frame tileid="79" duration="150"/>
    <frame tileid="560" duration="150"/>
    <frame tileid="1041" duration="150"/>
    <frame tileid="1522" duration="150"/>
    <frame tileid="2003" duration="150"/>
    <frame tileid="2484" duration="150"/>
   </animation>
  </tile>
  <tile id="80">
   <animation>
    <frame tileid="80" duration="150"/>
    <frame tileid="561" duration="150"/>
    <frame tileid="1042" duration="150"/>
    <frame tileid="1523" duration="150"/>
    <frame tileid="2004" duration="150"/>
    <frame tileid="2485" duration="150"/>
   </animation>
  </tile>
  <tile id="81">
   <animation>
    <frame tileid="81" duration="150"/>
    <frame tileid="562" duration="150"/>
    <frame tileid="1043" duration="150"/>
    <frame tileid="1524" duration="150"/>
    <frame tileid="2005" duration="150"/>
    <frame tileid="2486" duration="150"/>
   </animation>
  </tile>
  <tile id="82">
   <animation>
    <frame tileid="82" duration="150"/>
    <frame tileid="563" duration="150"/>
    <frame tileid="1044" duration="150"/>
    <frame tileid="1525" duration="150"/>
    <frame tileid="2006" duration="150"/>
    <frame tileid="2487" duration="150"/>
   </animation>
  </tile>
  <tile id="83">
   <animation>
    <frame tileid="83" duration="150"/>
    <frame tileid="564" duration="150"/>
    <frame tileid="1045" duration="150"/>
    <frame tileid="1526" duration="150"/>
    <frame tileid="2007" duration="150"/>
    <frame tileid="2488" duration="150"/>
   </animation>
  </tile>
  <tile id="84">
   <animation>
    <frame tileid="84" duration="150"/>
    <frame tileid="565" duration="150"/>
    <frame tileid="1046" duration="150"/>
    <frame tileid="1527" duration="150"/>
    <frame tileid="2008" duration="150"/>
    <frame tileid="2489" duration="150"/>
   </animation>
  </tile>
  <tile id="85">
   <animation>
    <frame tileid="85" duration="150"/>
    <frame tileid="566" duration="150"/>
    <frame tileid="1047" duration="150"/>
    <frame tileid="1528" duration="150"/>
    <frame tileid="2009" duration="150"/>
    <frame tileid="2490" duration="150"/>
   </animation>
  </tile>
  <tile id="86">
   <animation>
    <frame tileid="86" duration="150"/>
    <frame tileid="567" duration="150"/>
    <frame tileid="1048" duration="150"/>
    <frame tileid="1529" duration="150"/>
    <frame tileid="2010" duration="150"/>
    <frame tileid="2491" duration="150"/>
   </animation>
  </tile>
  <tile id="87">
   <animation>
    <frame tileid="87" duration="150"/>
    <frame tileid="568" duration="150"/>
    <frame tileid="1049" duration="150"/>
    <frame tileid="1530" duration="150"/>
    <frame tileid="2011" duration="150"/>
    <frame tileid="2492" duration="150"/>
   </animation>
  </tile>
  <tile id="88">
   <animation>
    <frame tileid="88" duration="150"/>
    <frame tileid="569" duration="150"/>
    <frame tileid="1050" duration="150"/>
    <frame tileid="1531" duration="150"/>
    <frame tileid="2012" duration="150"/>
    <frame tileid="2493" duration="150"/>
   </animation>
  </tile>
  <tile id="89">
   <animation>
    <frame tileid="89" duration="150"/>
    <frame tileid="570" duration="150"/>
    <frame tileid="1051" duration="150"/>
    <frame tileid="1532" duration="150"/>
    <frame tileid="2013" duration="150"/>
    <frame tileid="2494" duration="150"/>
   </animation>
  </tile>
  <tile id="90">
   <animation>
    <frame tileid="90" duration="150"/>
    <frame tileid="571" duration="150"/>
    <frame tileid="1052" duration="150"/>
    <frame tileid="1533" duration="150"/>
    <frame tileid="2014" duration="150"/>
    <frame tileid="2495" duration="150"/>
   </animation>
  </tile>
  <tile id="92">
   <animation>
    <frame tileid="92" duration="150"/>
    <frame tileid="573" duration="150"/>
    <frame tileid="1054" duration="150"/>
    <frame tileid="1535" duration="150"/>
    <frame tileid="2016" duration="150"/>
    <frame tileid="2497" duration="150"/>
   </animation>
  </tile>
  <tile id="93">
   <animation>
    <frame tileid="93" duration="150"/>
    <frame tileid="574" duration="150"/>
    <frame tileid="1055" duration="150"/>
    <frame tileid="1536" duration="150"/>
    <frame tileid="2017" duration="150"/>
    <frame tileid="2498" duration="150"/>
   </animation>
  </tile>
  <tile id="94">
   <animation>
    <frame tileid="94" duration="150"/>
    <frame tileid="575" duration="150"/>
    <frame tileid="1056" duration="150"/>
    <frame tileid="1537" duration="150"/>
    <frame tileid="2018" duration="150"/>
    <frame tileid="2499" duration="150"/>
   </animation>
  </tile>
  <tile id="95">
   <animation>
    <frame tileid="95" duration="150"/>
    <frame tileid="576" duration="150"/>
    <frame tileid="1057" duration="150"/>
    <frame tileid="1538" duration="150"/>
    <frame tileid="2019" duration="150"/>
    <frame tileid="2500" duration="150"/>
   </animation>
  </tile>
  <tile id="96">
   <animation>
    <frame tileid="96" duration="150"/>
    <frame tileid="577" duration="150"/>
    <frame tileid="1058" duration="150"/>
    <frame tileid="1539" duration="150"/>
    <frame tileid="2020" duration="150"/>
    <frame tileid="2501" duration="150"/>
   </animation>
  </tile>
  <tile id="97">
   <animation>
    <frame tileid="97" duration="150"/>
    <frame tileid="578" duration="150"/>
    <frame tileid="1059" duration="150"/>
    <frame tileid="1540" duration="150"/>
    <frame tileid="2021" duration="150"/>
    <frame tileid="2502" duration="150"/>
   </animation>
  </tile>
  <tile id="98">
   <animation>
    <frame tileid="98" duration="150"/>
    <frame tileid="579" duration="150"/>
    <frame tileid="1060" duration="150"/>
    <frame tileid="1541" duration="150"/>
    <frame tileid="2022" duration="150"/>
    <frame tileid="2503" duration="150"/>
   </animation>
  </tile>
  <tile id="99">
   <animation>
    <frame tileid="99" duration="150"/>
    <frame tileid="580" duration="150"/>
    <frame tileid="1061" duration="150"/>
    <frame tileid="1542" duration="150"/>
    <frame tileid="2023" duration="150"/>
    <frame tileid="2504" duration="150"/>
   </animation>
  </tile>
  <tile id="100">
   <animation>
    <frame tileid="100" duration="150"/>
    <frame tileid="581" duration="150"/>
    <frame tileid="1062" duration="150"/>
    <frame tileid="1543" duration="150"/>
    <frame tileid="2024" duration="150"/>
    <frame tileid="2505" duration="150"/>
   </animation>
  </tile>
  <tile id="101">
   <animation>
    <frame tileid="101" duration="150"/>
    <frame tileid="582" duration="150"/>
    <frame tileid="1063" duration="150"/>
    <frame tileid="1544" duration="150"/>
    <frame tileid="2025" duration="150"/>
    <frame tileid="2506" duration="150"/>
   </animation>
  </tile>
  <tile id="102">
   <animation>
    <frame tileid="102" duration="150"/>
    <frame tileid="583" duration="150"/>
    <frame tileid="1064" duration="150"/>
    <frame tileid="1545" duration="150"/>
    <frame tileid="2026" duration="150"/>
    <frame tileid="2507" duration="150"/>
   </animation>
  </tile>
  <tile id="103">
   <animation>
    <frame tileid="103" duration="150"/>
    <frame tileid="584" duration="150"/>
    <frame tileid="1065" duration="150"/>
    <frame tileid="1546" duration="150"/>
    <frame tileid="2027" duration="150"/>
    <frame tileid="2508" duration="150"/>
   </animation>
  </tile>
  <tile id="105">
   <animation>
    <frame tileid="105" duration="150"/>
    <frame tileid="586" duration="150"/>
    <frame tileid="1067" duration="150"/>
    <frame tileid="1548" duration="150"/>
    <frame tileid="2029" duration="150"/>
    <frame tileid="2510" duration="150"/>
   </animation>
  </tile>
  <tile id="106">
   <animation>
    <frame tileid="106" duration="150"/>
    <frame tileid="587" duration="150"/>
    <frame tileid="1068" duration="150"/>
    <frame tileid="1549" duration="150"/>
    <frame tileid="2030" duration="150"/>
    <frame tileid="2511" duration="150"/>
   </animation>
  </tile>
  <tile id="107">
   <animation>
    <frame tileid="107" duration="150"/>
    <frame tileid="588" duration="150"/>
    <frame tileid="1069" duration="150"/>
    <frame tileid="1550" duration="150"/>
    <frame tileid="2031" duration="150"/>
    <frame tileid="2512" duration="150"/>
   </animation>
  </tile>
  <tile id="108">
   <animation>
    <frame tileid="108" duration="150"/>
    <frame tileid="589" duration="150"/>
    <frame tileid="1070" duration="150"/>
    <frame tileid="1551" duration="150"/>
    <frame tileid="2032" duration="150"/>
    <frame tileid="2513" duration="150"/>
   </animation>
  </tile>
  <tile id="109">
   <animation>
    <frame tileid="109" duration="150"/>
    <frame tileid="590" duration="150"/>
    <frame tileid="1071" duration="150"/>
    <frame tileid="1552" duration="150"/>
    <frame tileid="2033" duration="150"/>
    <frame tileid="2514" duration="150"/>
   </animation>
  </tile>
  <tile id="110">
   <animation>
    <frame tileid="110" duration="150"/>
    <frame tileid="591" duration="150"/>
    <frame tileid="1072" duration="150"/>
    <frame tileid="1553" duration="150"/>
    <frame tileid="2034" duration="150"/>
    <frame tileid="2515" duration="150"/>
   </animation>
  </tile>
  <tile id="112">
   <animation>
    <frame tileid="112" duration="150"/>
    <frame tileid="593" duration="150"/>
    <frame tileid="1074" duration="150"/>
    <frame tileid="1555" duration="150"/>
    <frame tileid="2036" duration="150"/>
    <frame tileid="2517" duration="150"/>
   </animation>
  </tile>
  <tile id="113">
   <animation>
    <frame tileid="113" duration="150"/>
    <frame tileid="594" duration="150"/>
    <frame tileid="1075" duration="150"/>
    <frame tileid="1556" duration="150"/>
    <frame tileid="2037" duration="150"/>
    <frame tileid="2518" duration="150"/>
   </animation>
  </tile>
  <tile id="114">
   <animation>
    <frame tileid="114" duration="150"/>
    <frame tileid="595" duration="150"/>
    <frame tileid="1076" duration="150"/>
    <frame tileid="1557" duration="150"/>
    <frame tileid="2038" duration="150"/>
    <frame tileid="2519" duration="150"/>
   </animation>
  </tile>
  <tile id="115">
   <animation>
    <frame tileid="115" duration="150"/>
    <frame tileid="596" duration="150"/>
    <frame tileid="1077" duration="150"/>
    <frame tileid="1558" duration="150"/>
    <frame tileid="2039" duration="150"/>
    <frame tileid="2520" duration="150"/>
   </animation>
  </tile>
  <tile id="116">
   <animation>
    <frame tileid="116" duration="150"/>
    <frame tileid="597" duration="150"/>
    <frame tileid="1078" duration="150"/>
    <frame tileid="1559" duration="150"/>
    <frame tileid="2040" duration="150"/>
    <frame tileid="2521" duration="150"/>
   </animation>
  </tile>
  <tile id="117">
   <animation>
    <frame tileid="117" duration="150"/>
    <frame tileid="598" duration="150"/>
    <frame tileid="1079" duration="150"/>
    <frame tileid="1560" duration="150"/>
    <frame tileid="2041" duration="150"/>
    <frame tileid="2522" duration="150"/>
   </animation>
  </tile>
  <tile id="118">
   <animation>
    <frame tileid="118" duration="150"/>
    <frame tileid="599" duration="150"/>
    <frame tileid="1080" duration="150"/>
    <frame tileid="1561" duration="150"/>
    <frame tileid="2042" duration="150"/>
    <frame tileid="2523" duration="150"/>
   </animation>
  </tile>
  <tile id="119">
   <animation>
    <frame tileid="119" duration="150"/>
    <frame tileid="600" duration="150"/>
    <frame tileid="1081" duration="150"/>
    <frame tileid="1562" duration="150"/>
    <frame tileid="2043" duration="150"/>
    <frame tileid="2524" duration="150"/>
   </animation>
  </tile>
  <tile id="120">
   <animation>
    <frame tileid="120" duration="150"/>
    <frame tileid="601" duration="150"/>
    <frame tileid="1082" duration="150"/>
    <frame tileid="1563" duration="150"/>
    <frame tileid="2044" duration="150"/>
    <frame tileid="2525" duration="150"/>
   </animation>
  </tile>
  <tile id="121">
   <animation>
    <frame tileid="121" duration="150"/>
    <frame tileid="602" duration="150"/>
    <frame tileid="1083" duration="150"/>
    <frame tileid="1564" duration="150"/>
    <frame tileid="2045" duration="150"/>
    <frame tileid="2526" duration="150"/>
   </animation>
  </tile>
  <tile id="122">
   <animation>
    <frame tileid="122" duration="150"/>
    <frame tileid="603" duration="150"/>
    <frame tileid="1084" duration="150"/>
    <frame tileid="1565" duration="150"/>
    <frame tileid="2046" duration="150"/>
    <frame tileid="2527" duration="150"/>
   </animation>
  </tile>
  <tile id="131">
   <animation>
    <frame tileid="131" duration="150"/>
    <frame tileid="612" duration="150"/>
    <frame tileid="1093" duration="150"/>
    <frame tileid="1574" duration="150"/>
    <frame tileid="2055" duration="150"/>
    <frame tileid="2536" duration="150"/>
   </animation>
  </tile>
  <tile id="132">
   <animation>
    <frame tileid="132" duration="150"/>
    <frame tileid="613" duration="150"/>
    <frame tileid="1094" duration="150"/>
    <frame tileid="1575" duration="150"/>
    <frame tileid="2056" duration="150"/>
    <frame tileid="2537" duration="150"/>
   </animation>
  </tile>
  <tile id="133">
   <animation>
    <frame tileid="133" duration="150"/>
    <frame tileid="614" duration="150"/>
    <frame tileid="1095" duration="150"/>
    <frame tileid="1576" duration="150"/>
    <frame tileid="2057" duration="150"/>
    <frame tileid="2538" duration="150"/>
   </animation>
  </tile>
  <tile id="134">
   <animation>
    <frame tileid="134" duration="150"/>
    <frame tileid="615" duration="150"/>
    <frame tileid="1096" duration="150"/>
    <frame tileid="1577" duration="150"/>
    <frame tileid="2058" duration="150"/>
    <frame tileid="2539" duration="150"/>
   </animation>
  </tile>
  <tile id="135">
   <animation>
    <frame tileid="135" duration="150"/>
    <frame tileid="616" duration="150"/>
    <frame tileid="1097" duration="150"/>
    <frame tileid="1578" duration="150"/>
    <frame tileid="2059" duration="150"/>
    <frame tileid="2540" duration="150"/>
   </animation>
  </tile>
  <tile id="136">
   <animation>
    <frame tileid="136" duration="150"/>
    <frame tileid="617" duration="150"/>
    <frame tileid="1098" duration="150"/>
    <frame tileid="1579" duration="150"/>
    <frame tileid="2060" duration="150"/>
    <frame tileid="2541" duration="150"/>
   </animation>
  </tile>
  <tile id="137">
   <animation>
    <frame tileid="137" duration="150"/>
    <frame tileid="618" duration="150"/>
    <frame tileid="1099" duration="150"/>
    <frame tileid="1580" duration="150"/>
    <frame tileid="2060" duration="150"/>
    <frame tileid="2542" duration="150"/>
   </animation>
  </tile>
  <tile id="138">
   <animation>
    <frame tileid="138" duration="150"/>
    <frame tileid="619" duration="150"/>
    <frame tileid="1100" duration="150"/>
    <frame tileid="1581" duration="150"/>
    <frame tileid="2062" duration="150"/>
    <frame tileid="2543" duration="150"/>
   </animation>
  </tile>
  <tile id="176">
   <animation>
    <frame tileid="176" duration="150"/>
    <frame tileid="657" duration="150"/>
    <frame tileid="1138" duration="150"/>
    <frame tileid="1619" duration="150"/>
    <frame tileid="2100" duration="150"/>
    <frame tileid="2581" duration="150"/>
   </animation>
  </tile>
  <tile id="177">
   <animation>
    <frame tileid="177" duration="150"/>
    <frame tileid="658" duration="150"/>
    <frame tileid="1139" duration="150"/>
    <frame tileid="1620" duration="150"/>
    <frame tileid="2101" duration="150"/>
    <frame tileid="2582" duration="150"/>
   </animation>
  </tile>
  <tile id="178">
   <animation>
    <frame tileid="178" duration="150"/>
    <frame tileid="659" duration="150"/>
    <frame tileid="1140" duration="150"/>
    <frame tileid="1621" duration="150"/>
    <frame tileid="2102" duration="150"/>
    <frame tileid="2583" duration="150"/>
   </animation>
  </tile>
  <tile id="179">
   <animation>
    <frame tileid="179" duration="150"/>
    <frame tileid="660" duration="150"/>
    <frame tileid="1141" duration="150"/>
    <frame tileid="1622" duration="150"/>
    <frame tileid="2103" duration="150"/>
    <frame tileid="2584" duration="150"/>
   </animation>
  </tile>
  <tile id="180">
   <animation>
    <frame tileid="180" duration="150"/>
    <frame tileid="661" duration="150"/>
    <frame tileid="1142" duration="150"/>
    <frame tileid="1623" duration="150"/>
    <frame tileid="2104" duration="150"/>
    <frame tileid="2585" duration="150"/>
   </animation>
  </tile>
  <tile id="188">
   <animation>
    <frame tileid="188" duration="150"/>
    <frame tileid="669" duration="150"/>
    <frame tileid="1150" duration="150"/>
    <frame tileid="1631" duration="150"/>
    <frame tileid="2112" duration="150"/>
    <frame tileid="2593" duration="150"/>
   </animation>
  </tile>
  <tile id="189">
   <animation>
    <frame tileid="189" duration="150"/>
    <frame tileid="670" duration="150"/>
    <frame tileid="1151" duration="150"/>
    <frame tileid="1632" duration="150"/>
    <frame tileid="2113" duration="150"/>
    <frame tileid="2594" duration="150"/>
   </animation>
  </tile>
  <tile id="190">
   <animation>
    <frame tileid="190" duration="150"/>
    <frame tileid="671" duration="150"/>
    <frame tileid="1152" duration="150"/>
    <frame tileid="1633" duration="150"/>
    <frame tileid="2114" duration="150"/>
    <frame tileid="2595" duration="150"/>
   </animation>
  </tile>
  <tile id="191">
   <animation>
    <frame tileid="191" duration="150"/>
    <frame tileid="672" duration="150"/>
    <frame tileid="1153" duration="150"/>
    <frame tileid="1634" duration="150"/>
    <frame tileid="2115" duration="150"/>
    <frame tileid="2596" duration="150"/>
   </animation>
  </tile>
  <tile id="192">
   <animation>
    <frame tileid="192" duration="150"/>
    <frame tileid="673" duration="150"/>
    <frame tileid="1154" duration="150"/>
    <frame tileid="1635" duration="150"/>
    <frame tileid="2116" duration="150"/>
    <frame tileid="2597" duration="150"/>
   </animation>
  </tile>
  <tile id="193">
   <animation>
    <frame tileid="193" duration="150"/>
    <frame tileid="674" duration="150"/>
    <frame tileid="1155" duration="150"/>
    <frame tileid="1636" duration="150"/>
    <frame tileid="2117" duration="150"/>
    <frame tileid="2598" duration="150"/>
   </animation>
  </tile>
  <tile id="194">
   <animation>
    <frame tileid="194" duration="150"/>
    <frame tileid="675" duration="150"/>
    <frame tileid="1156" duration="150"/>
    <frame tileid="1637" duration="150"/>
    <frame tileid="2118" duration="150"/>
    <frame tileid="2599" duration="150"/>
   </animation>
  </tile>
  <tile id="201">
   <animation>
    <frame tileid="201" duration="150"/>
    <frame tileid="682" duration="150"/>
    <frame tileid="1163" duration="150"/>
    <frame tileid="1644" duration="150"/>
    <frame tileid="2125" duration="150"/>
    <frame tileid="2606" duration="150"/>
   </animation>
  </tile>
  <tile id="202">
   <animation>
    <frame tileid="202" duration="150"/>
    <frame tileid="683" duration="150"/>
    <frame tileid="1164" duration="150"/>
    <frame tileid="1645" duration="150"/>
    <frame tileid="2126" duration="150"/>
    <frame tileid="2607" duration="150"/>
   </animation>
  </tile>
  <tile id="203">
   <animation>
    <frame tileid="203" duration="150"/>
    <frame tileid="684" duration="150"/>
    <frame tileid="1165" duration="150"/>
    <frame tileid="1646" duration="150"/>
    <frame tileid="2127" duration="150"/>
    <frame tileid="2608" duration="150"/>
   </animation>
  </tile>
  <tile id="204">
   <animation>
    <frame tileid="204" duration="150"/>
    <frame tileid="685" duration="150"/>
    <frame tileid="1166" duration="150"/>
    <frame tileid="1647" duration="150"/>
    <frame tileid="2128" duration="150"/>
    <frame tileid="2609" duration="150"/>
   </animation>
  </tile>
  <tile id="205">
   <animation>
    <frame tileid="205" duration="150"/>
    <frame tileid="686" duration="150"/>
    <frame tileid="1167" duration="150"/>
    <frame tileid="1648" duration="150"/>
    <frame tileid="2129" duration="150"/>
    <frame tileid="2610" duration="150"/>
   </animation>
  </tile>
  <tile id="206">
   <animation>
    <frame tileid="206" duration="150"/>
    <frame tileid="687" duration="150"/>
    <frame tileid="1168" duration="150"/>
    <frame tileid="1649" duration="150"/>
    <frame tileid="2130" duration="150"/>
    <frame tileid="2611" duration="150"/>
   </animation>
  </tile>
  <tile id="207">
   <animation>
    <frame tileid="207" duration="150"/>
    <frame tileid="688" duration="150"/>
    <frame tileid="1169" duration="150"/>
    <frame tileid="1650" duration="150"/>
    <frame tileid="2131" duration="150"/>
    <frame tileid="2612" duration="150"/>
   </animation>
  </tile>
  <tile id="208">
   <animation>
    <frame tileid="208" duration="150"/>
    <frame tileid="689" duration="150"/>
    <frame tileid="1170" duration="150"/>
    <frame tileid="1651" duration="150"/>
    <frame tileid="2132" duration="150"/>
    <frame tileid="2613" duration="150"/>
   </animation>
  </tile>
  <tile id="209">
   <animation>
    <frame tileid="209" duration="150"/>
    <frame tileid="690" duration="150"/>
    <frame tileid="1171" duration="150"/>
    <frame tileid="1652" duration="150"/>
    <frame tileid="2133" duration="150"/>
    <frame tileid="2614" duration="150"/>
   </animation>
  </tile>
  <tile id="210">
   <animation>
    <frame tileid="210" duration="150"/>
    <frame tileid="691" duration="150"/>
    <frame tileid="1172" duration="150"/>
    <frame tileid="1653" duration="150"/>
    <frame tileid="2134" duration="150"/>
    <frame tileid="2615" duration="150"/>
   </animation>
  </tile>
  <tile id="211">
   <animation>
    <frame tileid="211" duration="150"/>
    <frame tileid="692" duration="150"/>
    <frame tileid="1173" duration="150"/>
    <frame tileid="1654" duration="150"/>
    <frame tileid="2135" duration="150"/>
    <frame tileid="2616" duration="150"/>
   </animation>
  </tile>
  <tile id="212">
   <animation>
    <frame tileid="212" duration="150"/>
    <frame tileid="693" duration="150"/>
    <frame tileid="1174" duration="150"/>
    <frame tileid="1655" duration="150"/>
    <frame tileid="2136" duration="150"/>
    <frame tileid="2617" duration="150"/>
   </animation>
  </tile>
  <tile id="213">
   <animation>
    <frame tileid="213" duration="150"/>
    <frame tileid="694" duration="150"/>
    <frame tileid="1175" duration="150"/>
    <frame tileid="1656" duration="150"/>
    <frame tileid="2137" duration="150"/>
    <frame tileid="2618" duration="150"/>
   </animation>
  </tile>
  <tile id="214">
   <animation>
    <frame tileid="214" duration="150"/>
    <frame tileid="695" duration="150"/>
    <frame tileid="1176" duration="150"/>
    <frame tileid="1657" duration="150"/>
    <frame tileid="2138" duration="150"/>
    <frame tileid="2619" duration="150"/>
   </animation>
  </tile>
  <tile id="215">
   <animation>
    <frame tileid="215" duration="150"/>
    <frame tileid="696" duration="150"/>
    <frame tileid="1177" duration="150"/>
    <frame tileid="1658" duration="150"/>
    <frame tileid="2139" duration="150"/>
    <frame tileid="2620" duration="150"/>
   </animation>
  </tile>
  <tile id="223">
   <animation>
    <frame tileid="223" duration="150"/>
    <frame tileid="704" duration="150"/>
    <frame tileid="1185" duration="150"/>
    <frame tileid="1666" duration="150"/>
    <frame tileid="2147" duration="150"/>
    <frame tileid="2628" duration="150"/>
   </animation>
  </tile>
  <tile id="224">
   <animation>
    <frame tileid="224" duration="150"/>
    <frame tileid="705" duration="150"/>
    <frame tileid="1186" duration="150"/>
    <frame tileid="1667" duration="150"/>
    <frame tileid="2148" duration="150"/>
    <frame tileid="2629" duration="150"/>
   </animation>
  </tile>
  <tile id="225">
   <animation>
    <frame tileid="225" duration="150"/>
    <frame tileid="706" duration="150"/>
    <frame tileid="1187" duration="150"/>
    <frame tileid="1668" duration="150"/>
    <frame tileid="2149" duration="150"/>
    <frame tileid="2630" duration="150"/>
   </animation>
  </tile>
  <tile id="226">
   <animation>
    <frame tileid="226" duration="150"/>
    <frame tileid="707" duration="150"/>
    <frame tileid="1188" duration="150"/>
    <frame tileid="1669" duration="150"/>
    <frame tileid="2150" duration="150"/>
    <frame tileid="2631" duration="150"/>
   </animation>
  </tile>
  <tile id="227">
   <animation>
    <frame tileid="227" duration="150"/>
    <frame tileid="708" duration="150"/>
    <frame tileid="1189" duration="150"/>
    <frame tileid="1670" duration="150"/>
    <frame tileid="2151" duration="150"/>
    <frame tileid="2632" duration="150"/>
   </animation>
  </tile>
  <tile id="228">
   <animation>
    <frame tileid="228" duration="150"/>
    <frame tileid="709" duration="150"/>
    <frame tileid="1190" duration="150"/>
    <frame tileid="1671" duration="150"/>
    <frame tileid="2152" duration="150"/>
    <frame tileid="2633" duration="150"/>
   </animation>
  </tile>
  <tile id="229">
   <animation>
    <frame tileid="229" duration="150"/>
    <frame tileid="710" duration="150"/>
    <frame tileid="1191" duration="150"/>
    <frame tileid="1672" duration="150"/>
    <frame tileid="2153" duration="150"/>
    <frame tileid="2634" duration="150"/>
   </animation>
  </tile>
  <tile id="230">
   <animation>
    <frame tileid="230" duration="150"/>
    <frame tileid="711" duration="150"/>
    <frame tileid="1192" duration="150"/>
    <frame tileid="1673" duration="150"/>
    <frame tileid="2154" duration="150"/>
    <frame tileid="2635" duration="150"/>
   </animation>
  </tile>
  <tile id="231">
   <animation>
    <frame tileid="231" duration="150"/>
    <frame tileid="712" duration="150"/>
    <frame tileid="1193" duration="150"/>
    <frame tileid="1674" duration="150"/>
    <frame tileid="2155" duration="150"/>
    <frame tileid="2636" duration="150"/>
   </animation>
  </tile>
  <tile id="232">
   <animation>
    <frame tileid="232" duration="150"/>
    <frame tileid="713" duration="150"/>
    <frame tileid="1194" duration="150"/>
    <frame tileid="1675" duration="150"/>
    <frame tileid="2156" duration="150"/>
    <frame tileid="2637" duration="150"/>
   </animation>
  </tile>
  <tile id="233">
   <animation>
    <frame tileid="233" duration="150"/>
    <frame tileid="714" duration="150"/>
    <frame tileid="1195" duration="150"/>
    <frame tileid="1676" duration="150"/>
    <frame tileid="2157" duration="150"/>
    <frame tileid="2638" duration="150"/>
   </animation>
  </tile>
  <tile id="234">
   <animation>
    <frame tileid="234" duration="150"/>
    <frame tileid="715" duration="150"/>
    <frame tileid="1196" duration="150"/>
    <frame tileid="1677" duration="150"/>
    <frame tileid="2158" duration="150"/>
    <frame tileid="2639" duration="150"/>
   </animation>
  </tile>
  <tile id="235">
   <animation>
    <frame tileid="235" duration="150"/>
    <frame tileid="716" duration="150"/>
    <frame tileid="1197" duration="150"/>
    <frame tileid="1678" duration="150"/>
    <frame tileid="2159" duration="150"/>
    <frame tileid="2640" duration="150"/>
   </animation>
  </tile>
  <tile id="238">
   <animation>
    <frame tileid="238" duration="150"/>
    <frame tileid="719" duration="150"/>
    <frame tileid="1200" duration="150"/>
    <frame tileid="1681" duration="150"/>
    <frame tileid="2162" duration="150"/>
    <frame tileid="2643" duration="150"/>
   </animation>
  </tile>
  <tile id="239">
   <animation>
    <frame tileid="239" duration="150"/>
    <frame tileid="720" duration="150"/>
    <frame tileid="1201" duration="150"/>
    <frame tileid="1682" duration="150"/>
    <frame tileid="2163" duration="150"/>
    <frame tileid="2644" duration="150"/>
   </animation>
  </tile>
  <tile id="240">
   <animation>
    <frame tileid="240" duration="150"/>
    <frame tileid="721" duration="150"/>
    <frame tileid="1202" duration="150"/>
    <frame tileid="1683" duration="150"/>
    <frame tileid="2164" duration="150"/>
    <frame tileid="2645" duration="150"/>
   </animation>
  </tile>
  <tile id="241">
   <animation>
    <frame tileid="241" duration="150"/>
    <frame tileid="722" duration="150"/>
    <frame tileid="1203" duration="150"/>
    <frame tileid="1684" duration="150"/>
    <frame tileid="2165" duration="150"/>
    <frame tileid="2646" duration="150"/>
   </animation>
  </tile>
  <tile id="242">
   <animation>
    <frame tileid="242" duration="150"/>
    <frame tileid="723" duration="150"/>
    <frame tileid="1204" duration="150"/>
    <frame tileid="1685" duration="150"/>
    <frame tileid="2166" duration="150"/>
    <frame tileid="2647" duration="150"/>
   </animation>
  </tile>
  <tile id="243">
   <animation>
    <frame tileid="243" duration="150"/>
    <frame tileid="724" duration="150"/>
    <frame tileid="1205" duration="150"/>
    <frame tileid="1686" duration="150"/>
    <frame tileid="2167" duration="150"/>
    <frame tileid="2648" duration="150"/>
   </animation>
  </tile>
  <tile id="244">
   <animation>
    <frame tileid="244" duration="150"/>
    <frame tileid="725" duration="150"/>
    <frame tileid="1206" duration="150"/>
    <frame tileid="1687" duration="150"/>
    <frame tileid="2168" duration="150"/>
    <frame tileid="2649" duration="150"/>
   </animation>
  </tile>
  <tile id="245">
   <animation>
    <frame tileid="245" duration="150"/>
    <frame tileid="726" duration="150"/>
    <frame tileid="1207" duration="150"/>
    <frame tileid="1688" duration="150"/>
    <frame tileid="2169" duration="150"/>
    <frame tileid="2650" duration="150"/>
   </animation>
  </tile>
  <tile id="246">
   <animation>
    <frame tileid="246" duration="150"/>
    <frame tileid="727" duration="150"/>
    <frame tileid="1208" duration="150"/>
    <frame tileid="1689" duration="150"/>
    <frame tileid="2170" duration="150"/>
    <frame tileid="2651" duration="150"/>
   </animation>
  </tile>
  <tile id="247">
   <animation>
    <frame tileid="247" duration="150"/>
    <frame tileid="728" duration="150"/>
    <frame tileid="1209" duration="150"/>
    <frame tileid="1690" duration="150"/>
    <frame tileid="2171" duration="150"/>
    <frame tileid="2652" duration="150"/>
   </animation>
  </tile>
  <tile id="248">
   <animation>
    <frame tileid="248" duration="150"/>
    <frame tileid="729" duration="150"/>
    <frame tileid="1210" duration="150"/>
    <frame tileid="1691" duration="150"/>
    <frame tileid="2172" duration="150"/>
    <frame tileid="2653" duration="150"/>
   </animation>
  </tile>
  <tile id="249">
   <animation>
    <frame tileid="249" duration="150"/>
    <frame tileid="730" duration="150"/>
    <frame tileid="1211" duration="150"/>
    <frame tileid="1692" duration="150"/>
    <frame tileid="2173" duration="150"/>
    <frame tileid="2654" duration="150"/>
   </animation>
  </tile>
  <tile id="250">
   <animation>
    <frame tileid="250" duration="150"/>
    <frame tileid="731" duration="150"/>
    <frame tileid="1212" duration="150"/>
    <frame tileid="1693" duration="150"/>
    <frame tileid="2174" duration="150"/>
    <frame tileid="2655" duration="150"/>
   </animation>
  </tile>
  <tile id="251">
   <animation>
    <frame tileid="251" duration="150"/>
    <frame tileid="732" duration="150"/>
    <frame tileid="1213" duration="150"/>
    <frame tileid="1694" duration="150"/>
    <frame tileid="2175" duration="150"/>
    <frame tileid="2656" duration="150"/>
   </animation>
  </tile>
  <tile id="255">
   <animation>
    <frame tileid="255" duration="150"/>
    <frame tileid="736" duration="150"/>
    <frame tileid="1217" duration="150"/>
    <frame tileid="1698" duration="150"/>
    <frame tileid="2179" duration="150"/>
    <frame tileid="2660" duration="150"/>
   </animation>
  </tile>
  <tile id="256">
   <animation>
    <frame tileid="256" duration="150"/>
    <frame tileid="737" duration="150"/>
    <frame tileid="1218" duration="150"/>
    <frame tileid="1699" duration="150"/>
    <frame tileid="2180" duration="150"/>
    <frame tileid="2661" duration="150"/>
   </animation>
  </tile>
  <tile id="257">
   <animation>
    <frame tileid="257" duration="150"/>
    <frame tileid="738" duration="150"/>
    <frame tileid="1219" duration="150"/>
    <frame tileid="1700" duration="150"/>
    <frame tileid="2181" duration="150"/>
    <frame tileid="2662" duration="150"/>
   </animation>
  </tile>
  <tile id="264">
   <animation>
    <frame tileid="264" duration="150"/>
    <frame tileid="745" duration="150"/>
    <frame tileid="1226" duration="150"/>
    <frame tileid="1707" duration="150"/>
    <frame tileid="2188" duration="150"/>
    <frame tileid="2669" duration="150"/>
   </animation>
  </tile>
  <tile id="265">
   <animation>
    <frame tileid="265" duration="150"/>
    <frame tileid="746" duration="150"/>
    <frame tileid="1227" duration="150"/>
    <frame tileid="1708" duration="150"/>
    <frame tileid="2189" duration="150"/>
    <frame tileid="2670" duration="150"/>
   </animation>
  </tile>
  <tile id="266">
   <animation>
    <frame tileid="266" duration="150"/>
    <frame tileid="747" duration="150"/>
    <frame tileid="1228" duration="150"/>
    <frame tileid="1709" duration="150"/>
    <frame tileid="2190" duration="150"/>
    <frame tileid="2671" duration="150"/>
   </animation>
  </tile>
  <tile id="267">
   <animation>
    <frame tileid="267" duration="150"/>
    <frame tileid="748" duration="150"/>
    <frame tileid="1229" duration="150"/>
    <frame tileid="1710" duration="150"/>
    <frame tileid="2191" duration="150"/>
    <frame tileid="2672" duration="150"/>
   </animation>
  </tile>
  <tile id="268">
   <animation>
    <frame tileid="268" duration="150"/>
    <frame tileid="749" duration="150"/>
    <frame tileid="1230" duration="150"/>
    <frame tileid="1711" duration="150"/>
    <frame tileid="2192" duration="150"/>
    <frame tileid="2673" duration="150"/>
   </animation>
  </tile>
  <tile id="269">
   <animation>
    <frame tileid="269" duration="150"/>
    <frame tileid="750" duration="150"/>
    <frame tileid="1231" duration="150"/>
    <frame tileid="1712" duration="150"/>
    <frame tileid="2193" duration="150"/>
    <frame tileid="2674" duration="150"/>
   </animation>
  </tile>
  <tile id="313">
   <animation>
    <frame tileid="313" duration="150"/>
    <frame tileid="794" duration="150"/>
    <frame tileid="1275" duration="150"/>
    <frame tileid="1756" duration="150"/>
    <frame tileid="2237" duration="150"/>
    <frame tileid="2718" duration="150"/>
   </animation>
  </tile>
  <tile id="314">
   <animation>
    <frame tileid="314" duration="150"/>
    <frame tileid="795" duration="150"/>
    <frame tileid="1276" duration="150"/>
    <frame tileid="1757" duration="150"/>
    <frame tileid="2238" duration="150"/>
    <frame tileid="2719" duration="150"/>
   </animation>
  </tile>
  <tile id="315">
   <animation>
    <frame tileid="315" duration="150"/>
    <frame tileid="796" duration="150"/>
    <frame tileid="1277" duration="150"/>
    <frame tileid="1758" duration="150"/>
    <frame tileid="2239" duration="150"/>
    <frame tileid="2720" duration="150"/>
   </animation>
  </tile>
  <tile id="316">
   <animation>
    <frame tileid="316" duration="150"/>
    <frame tileid="797" duration="150"/>
    <frame tileid="1278" duration="150"/>
    <frame tileid="1759" duration="150"/>
    <frame tileid="2240" duration="150"/>
    <frame tileid="2721" duration="150"/>
   </animation>
  </tile>
  <tile id="317">
   <animation>
    <frame tileid="317" duration="150"/>
    <frame tileid="798" duration="150"/>
    <frame tileid="1279" duration="150"/>
    <frame tileid="1760" duration="150"/>
    <frame tileid="2241" duration="150"/>
    <frame tileid="2722" duration="150"/>
   </animation>
  </tile>
  <tile id="318">
   <animation>
    <frame tileid="318" duration="150"/>
    <frame tileid="799" duration="150"/>
    <frame tileid="1280" duration="150"/>
    <frame tileid="1761" duration="150"/>
    <frame tileid="2242" duration="150"/>
    <frame tileid="2723" duration="150"/>
   </animation>
  </tile>
  <tile id="319">
   <animation>
    <frame tileid="319" duration="150"/>
    <frame tileid="800" duration="150"/>
    <frame tileid="1281" duration="150"/>
    <frame tileid="1762" duration="150"/>
    <frame tileid="2243" duration="150"/>
    <frame tileid="2724" duration="150"/>
   </animation>
  </tile>
  <tile id="320">
   <animation>
    <frame tileid="320" duration="150"/>
    <frame tileid="801" duration="150"/>
    <frame tileid="1282" duration="150"/>
    <frame tileid="1763" duration="150"/>
    <frame tileid="2244" duration="150"/>
    <frame tileid="2725" duration="150"/>
   </animation>
  </tile>
  <tile id="323">
   <animation>
    <frame tileid="323" duration="150"/>
    <frame tileid="804" duration="150"/>
    <frame tileid="1285" duration="150"/>
    <frame tileid="1766" duration="150"/>
    <frame tileid="2247" duration="150"/>
    <frame tileid="2728" duration="150"/>
   </animation>
  </tile>
  <tile id="324">
   <animation>
    <frame tileid="324" duration="150"/>
    <frame tileid="805" duration="150"/>
    <frame tileid="1286" duration="150"/>
    <frame tileid="1767" duration="150"/>
    <frame tileid="2248" duration="150"/>
    <frame tileid="2729" duration="150"/>
   </animation>
  </tile>
  <tile id="325">
   <animation>
    <frame tileid="325" duration="150"/>
    <frame tileid="806" duration="150"/>
    <frame tileid="1287" duration="150"/>
    <frame tileid="1768" duration="150"/>
    <frame tileid="2249" duration="150"/>
    <frame tileid="2730" duration="150"/>
   </animation>
  </tile>
  <tile id="326">
   <animation>
    <frame tileid="326" duration="150"/>
    <frame tileid="807" duration="150"/>
    <frame tileid="1288" duration="150"/>
    <frame tileid="1769" duration="150"/>
    <frame tileid="2250" duration="150"/>
    <frame tileid="2731" duration="150"/>
   </animation>
  </tile>
  <tile id="327">
   <animation>
    <frame tileid="327" duration="150"/>
    <frame tileid="808" duration="150"/>
    <frame tileid="1289" duration="150"/>
    <frame tileid="1770" duration="150"/>
    <frame tileid="2251" duration="150"/>
    <frame tileid="2732" duration="150"/>
   </animation>
  </tile>
  <tile id="334">
   <animation>
    <frame tileid="334" duration="150"/>
    <frame tileid="815" duration="150"/>
    <frame tileid="1296" duration="150"/>
    <frame tileid="1777" duration="150"/>
    <frame tileid="2258" duration="150"/>
    <frame tileid="2739" duration="150"/>
   </animation>
  </tile>
  <tile id="335">
   <animation>
    <frame tileid="335" duration="150"/>
    <frame tileid="816" duration="150"/>
    <frame tileid="1297" duration="150"/>
    <frame tileid="1778" duration="150"/>
    <frame tileid="2259" duration="150"/>
    <frame tileid="2740" duration="150"/>
   </animation>
  </tile>
  <tile id="336">
   <animation>
    <frame tileid="336" duration="150"/>
    <frame tileid="817" duration="150"/>
    <frame tileid="1298" duration="150"/>
    <frame tileid="1779" duration="150"/>
    <frame tileid="2260" duration="150"/>
    <frame tileid="2741" duration="150"/>
   </animation>
  </tile>
  <tile id="337">
   <animation>
    <frame tileid="337" duration="150"/>
    <frame tileid="818" duration="150"/>
    <frame tileid="1299" duration="150"/>
    <frame tileid="1780" duration="150"/>
    <frame tileid="2261" duration="150"/>
    <frame tileid="2742" duration="150"/>
   </animation>
  </tile>
  <tile id="338">
   <animation>
    <frame tileid="338" duration="150"/>
    <frame tileid="819" duration="150"/>
    <frame tileid="1300" duration="150"/>
    <frame tileid="1781" duration="150"/>
    <frame tileid="2262" duration="150"/>
    <frame tileid="2743" duration="150"/>
   </animation>
  </tile>
  <tile id="339">
   <animation>
    <frame tileid="339" duration="150"/>
    <frame tileid="820" duration="150"/>
    <frame tileid="1301" duration="150"/>
    <frame tileid="1782" duration="150"/>
    <frame tileid="2263" duration="150"/>
    <frame tileid="2744" duration="150"/>
   </animation>
  </tile>
  <tile id="340">
   <animation>
    <frame tileid="340" duration="150"/>
    <frame tileid="821" duration="150"/>
    <frame tileid="1302" duration="150"/>
    <frame tileid="1783" duration="150"/>
    <frame tileid="2264" duration="150"/>
    <frame tileid="2745" duration="150"/>
   </animation>
  </tile>
  <tile id="341">
   <animation>
    <frame tileid="341" duration="150"/>
    <frame tileid="822" duration="150"/>
    <frame tileid="1303" duration="150"/>
    <frame tileid="1784" duration="150"/>
    <frame tileid="2265" duration="150"/>
    <frame tileid="2746" duration="150"/>
   </animation>
  </tile>
  <tile id="342">
   <animation>
    <frame tileid="342" duration="150"/>
    <frame tileid="823" duration="150"/>
    <frame tileid="1304" duration="150"/>
    <frame tileid="1785" duration="150"/>
    <frame tileid="2266" duration="150"/>
    <frame tileid="2747" duration="150"/>
   </animation>
  </tile>
  <tile id="343">
   <animation>
    <frame tileid="343" duration="150"/>
    <frame tileid="824" duration="150"/>
    <frame tileid="1305" duration="150"/>
    <frame tileid="1786" duration="150"/>
    <frame tileid="2267" duration="150"/>
    <frame tileid="2748" duration="150"/>
   </animation>
  </tile>
  <tile id="344">
   <animation>
    <frame tileid="344" duration="150"/>
    <frame tileid="825" duration="150"/>
    <frame tileid="1306" duration="150"/>
    <frame tileid="1787" duration="150"/>
    <frame tileid="2268" duration="150"/>
    <frame tileid="2749" duration="150"/>
   </animation>
  </tile>
  <tile id="345">
   <animation>
    <frame tileid="345" duration="150"/>
    <frame tileid="826" duration="150"/>
    <frame tileid="1307" duration="150"/>
    <frame tileid="1788" duration="150"/>
    <frame tileid="2269" duration="150"/>
    <frame tileid="2750" duration="150"/>
   </animation>
  </tile>
  <tile id="346">
   <animation>
    <frame tileid="346" duration="150"/>
    <frame tileid="827" duration="150"/>
    <frame tileid="1308" duration="150"/>
    <frame tileid="1789" duration="150"/>
    <frame tileid="2270" duration="150"/>
    <frame tileid="2750" duration="150"/>
   </animation>
  </tile>
  <tile id="347">
   <animation>
    <frame tileid="347" duration="150"/>
    <frame tileid="828" duration="150"/>
    <frame tileid="1309" duration="150"/>
    <frame tileid="1790" duration="150"/>
    <frame tileid="2271" duration="150"/>
    <frame tileid="2752" duration="150"/>
   </animation>
  </tile>
  <tile id="350">
   <animation>
    <frame tileid="350" duration="150"/>
    <frame tileid="831" duration="150"/>
    <frame tileid="1312" duration="150"/>
    <frame tileid="1793" duration="150"/>
    <frame tileid="2274" duration="150"/>
    <frame tileid="2755" duration="150"/>
   </animation>
  </tile>
  <tile id="351">
   <animation>
    <frame tileid="351" duration="150"/>
    <frame tileid="832" duration="150"/>
    <frame tileid="1313" duration="150"/>
    <frame tileid="1794" duration="150"/>
    <frame tileid="2275" duration="150"/>
    <frame tileid="2756" duration="150"/>
   </animation>
  </tile>
  <tile id="352">
   <animation>
    <frame tileid="352" duration="150"/>
    <frame tileid="833" duration="150"/>
    <frame tileid="1314" duration="150"/>
    <frame tileid="1795" duration="150"/>
    <frame tileid="2276" duration="150"/>
    <frame tileid="2757" duration="150"/>
   </animation>
  </tile>
  <tile id="353">
   <animation>
    <frame tileid="353" duration="150"/>
    <frame tileid="834" duration="150"/>
    <frame tileid="1315" duration="150"/>
    <frame tileid="1796" duration="150"/>
    <frame tileid="2277" duration="150"/>
    <frame tileid="2758" duration="150"/>
   </animation>
  </tile>
  <tile id="354">
   <animation>
    <frame tileid="354" duration="150"/>
    <frame tileid="835" duration="150"/>
    <frame tileid="1316" duration="150"/>
    <frame tileid="1797" duration="150"/>
    <frame tileid="2278" duration="150"/>
    <frame tileid="2759" duration="150"/>
   </animation>
  </tile>
  <tile id="355">
   <animation>
    <frame tileid="355" duration="150"/>
    <frame tileid="836" duration="150"/>
    <frame tileid="1317" duration="150"/>
    <frame tileid="1798" duration="150"/>
    <frame tileid="2279" duration="150"/>
    <frame tileid="2760" duration="150"/>
   </animation>
  </tile>
  <tile id="356">
   <animation>
    <frame tileid="356" duration="150"/>
    <frame tileid="837" duration="150"/>
    <frame tileid="1318" duration="150"/>
    <frame tileid="1799" duration="150"/>
    <frame tileid="2280" duration="150"/>
    <frame tileid="2761" duration="150"/>
   </animation>
  </tile>
  <tile id="357">
   <animation>
    <frame tileid="357" duration="150"/>
    <frame tileid="838" duration="150"/>
    <frame tileid="1319" duration="150"/>
    <frame tileid="1800" duration="150"/>
    <frame tileid="2281" duration="150"/>
    <frame tileid="2762" duration="150"/>
   </animation>
  </tile>
  <tile id="360">
   <animation>
    <frame tileid="360" duration="150"/>
    <frame tileid="841" duration="150"/>
    <frame tileid="1322" duration="150"/>
    <frame tileid="1803" duration="150"/>
    <frame tileid="2284" duration="150"/>
    <frame tileid="2765" duration="150"/>
   </animation>
  </tile>
  <tile id="361">
   <animation>
    <frame tileid="361" duration="150"/>
    <frame tileid="842" duration="150"/>
    <frame tileid="1323" duration="150"/>
    <frame tileid="1804" duration="150"/>
    <frame tileid="2285" duration="150"/>
    <frame tileid="2766" duration="150"/>
   </animation>
  </tile>
  <tile id="362">
   <animation>
    <frame tileid="362" duration="150"/>
    <frame tileid="843" duration="150"/>
    <frame tileid="1324" duration="150"/>
    <frame tileid="1805" duration="150"/>
    <frame tileid="2286" duration="150"/>
    <frame tileid="2767" duration="150"/>
   </animation>
  </tile>
  <tile id="363">
   <animation>
    <frame tileid="363" duration="150"/>
    <frame tileid="844" duration="150"/>
    <frame tileid="1325" duration="150"/>
    <frame tileid="1806" duration="150"/>
    <frame tileid="2287" duration="150"/>
    <frame tileid="2768" duration="150"/>
   </animation>
  </tile>
  <tile id="370">
   <animation>
    <frame tileid="370" duration="150"/>
    <frame tileid="851" duration="150"/>
    <frame tileid="1332" duration="150"/>
    <frame tileid="1813" duration="150"/>
    <frame tileid="2294" duration="150"/>
    <frame tileid="2775" duration="150"/>
   </animation>
  </tile>
  <tile id="371">
   <animation>
    <frame tileid="371" duration="150"/>
    <frame tileid="852" duration="150"/>
    <frame tileid="1333" duration="150"/>
    <frame tileid="1814" duration="150"/>
    <frame tileid="2295" duration="150"/>
    <frame tileid="2776" duration="150"/>
   </animation>
  </tile>
  <tile id="372">
   <animation>
    <frame tileid="372" duration="150"/>
    <frame tileid="853" duration="150"/>
    <frame tileid="1334" duration="150"/>
    <frame tileid="1815" duration="150"/>
    <frame tileid="2296" duration="150"/>
    <frame tileid="2777" duration="150"/>
   </animation>
  </tile>
  <tile id="373">
   <animation>
    <frame tileid="373" duration="150"/>
    <frame tileid="854" duration="150"/>
    <frame tileid="1335" duration="150"/>
    <frame tileid="1816" duration="150"/>
    <frame tileid="2297" duration="150"/>
    <frame tileid="2778" duration="150"/>
   </animation>
  </tile>
  <tile id="374">
   <animation>
    <frame tileid="374" duration="150"/>
    <frame tileid="855" duration="150"/>
    <frame tileid="1336" duration="150"/>
    <frame tileid="1817" duration="150"/>
    <frame tileid="2298" duration="150"/>
    <frame tileid="2779" duration="150"/>
   </animation>
  </tile>
  <tile id="375">
   <animation>
    <frame tileid="375" duration="150"/>
    <frame tileid="856" duration="150"/>
    <frame tileid="1337" duration="150"/>
    <frame tileid="1818" duration="150"/>
    <frame tileid="2299" duration="150"/>
    <frame tileid="2780" duration="150"/>
   </animation>
  </tile>
  <tile id="376">
   <animation>
    <frame tileid="376" duration="150"/>
    <frame tileid="857" duration="150"/>
    <frame tileid="1338" duration="150"/>
    <frame tileid="1819" duration="150"/>
    <frame tileid="2300" duration="150"/>
    <frame tileid="2781" duration="150"/>
   </animation>
  </tile>
  <tile id="377">
   <animation>
    <frame tileid="377" duration="150"/>
    <frame tileid="858" duration="150"/>
    <frame tileid="1339" duration="150"/>
    <frame tileid="1820" duration="150"/>
    <frame tileid="2301" duration="150"/>
    <frame tileid="2782" duration="150"/>
   </animation>
  </tile>
  <tile id="378">
   <animation>
    <frame tileid="380" duration="150"/>
    <frame tileid="861" duration="150"/>
    <frame tileid="1342" duration="150"/>
    <frame tileid="1823" duration="150"/>
    <frame tileid="2304" duration="150"/>
    <frame tileid="2785" duration="150"/>
   </animation>
  </tile>
  <tile id="379">
   <animation>
    <frame tileid="379" duration="150"/>
    <frame tileid="860" duration="150"/>
    <frame tileid="1341" duration="150"/>
    <frame tileid="1822" duration="150"/>
    <frame tileid="2303" duration="150"/>
    <frame tileid="2784" duration="150"/>
   </animation>
  </tile>
  <tile id="380">
   <animation>
    <frame tileid="380" duration="150"/>
    <frame tileid="861" duration="150"/>
    <frame tileid="1342" duration="150"/>
    <frame tileid="1823" duration="150"/>
    <frame tileid="2304" duration="150"/>
    <frame tileid="2785" duration="150"/>
   </animation>
  </tile>
  <tile id="381">
   <animation>
    <frame tileid="381" duration="150"/>
    <frame tileid="862" duration="150"/>
    <frame tileid="1343" duration="150"/>
    <frame tileid="1824" duration="150"/>
    <frame tileid="2305" duration="150"/>
    <frame tileid="2786" duration="150"/>
   </animation>
  </tile>
  <tile id="382">
   <animation>
    <frame tileid="382" duration="150"/>
    <frame tileid="863" duration="150"/>
    <frame tileid="1344" duration="150"/>
    <frame tileid="1825" duration="150"/>
    <frame tileid="2306" duration="150"/>
    <frame tileid="2787" duration="150"/>
   </animation>
  </tile>
  <tile id="383">
   <animation>
    <frame tileid="383" duration="150"/>
    <frame tileid="864" duration="150"/>
    <frame tileid="1345" duration="150"/>
    <frame tileid="1826" duration="150"/>
    <frame tileid="2307" duration="150"/>
    <frame tileid="2788" duration="150"/>
   </animation>
  </tile>
 </tileset>
 <tileset firstgid="8035" name="water_coasts" tilewidth="16" tileheight="16" tilecount="1403" columns="23">
  <image source="../Art/UnDead/water_coasts.png" width="368" height="976"/>
  <tile id="1">
   <animation>
    <frame tileid="1" duration="150"/>
    <frame tileid="116" duration="150"/>
    <frame tileid="231" duration="150"/>
    <frame tileid="346" duration="150"/>
    <frame tileid="461" duration="150"/>
    <frame tileid="576" duration="150"/>
   </animation>
  </tile>
  <tile id="2">
   <animation>
    <frame tileid="2" duration="150"/>
    <frame tileid="117" duration="150"/>
    <frame tileid="232" duration="150"/>
    <frame tileid="347" duration="150"/>
    <frame tileid="462" duration="150"/>
    <frame tileid="577" duration="150"/>
   </animation>
  </tile>
  <tile id="3">
   <animation>
    <frame tileid="3" duration="150"/>
    <frame tileid="118" duration="150"/>
    <frame tileid="233" duration="150"/>
    <frame tileid="348" duration="150"/>
    <frame tileid="463" duration="150"/>
    <frame tileid="578" duration="150"/>
   </animation>
  </tile>
  <tile id="11">
   <animation>
    <frame tileid="11" duration="150"/>
    <frame tileid="126" duration="150"/>
    <frame tileid="241" duration="150"/>
    <frame tileid="356" duration="150"/>
    <frame tileid="471" duration="150"/>
    <frame tileid="586" duration="150"/>
   </animation>
  </tile>
  <tile id="23">
   <animation>
    <frame tileid="23" duration="150"/>
    <frame tileid="138" duration="150"/>
    <frame tileid="253" duration="150"/>
    <frame tileid="368" duration="150"/>
    <frame tileid="483" duration="150"/>
    <frame tileid="598" duration="150"/>
   </animation>
  </tile>
  <tile id="24">
   <animation>
    <frame tileid="24" duration="150"/>
    <frame tileid="139" duration="150"/>
    <frame tileid="254" duration="150"/>
    <frame tileid="369" duration="150"/>
    <frame tileid="484" duration="150"/>
    <frame tileid="599" duration="150"/>
   </animation>
  </tile>
  <tile id="26">
   <animation>
    <frame tileid="26" duration="150"/>
    <frame tileid="141" duration="150"/>
    <frame tileid="256" duration="150"/>
    <frame tileid="371" duration="150"/>
    <frame tileid="486" duration="150"/>
    <frame tileid="601" duration="150"/>
   </animation>
  </tile>
  <tile id="28">
   <animation>
    <frame tileid="28" duration="150"/>
    <frame tileid="143" duration="150"/>
    <frame tileid="258" duration="150"/>
    <frame tileid="373" duration="150"/>
    <frame tileid="488" duration="150"/>
    <frame tileid="603" duration="150"/>
   </animation>
  </tile>
  <tile id="29">
   <animation>
    <frame tileid="29" duration="150"/>
    <frame tileid="144" duration="150"/>
    <frame tileid="259" duration="150"/>
    <frame tileid="374" duration="150"/>
    <frame tileid="489" duration="150"/>
    <frame tileid="604" duration="150"/>
   </animation>
  </tile>
  <tile id="30">
   <animation>
    <frame tileid="30" duration="150"/>
    <frame tileid="145" duration="150"/>
    <frame tileid="260" duration="150"/>
    <frame tileid="375" duration="150"/>
    <frame tileid="490" duration="150"/>
    <frame tileid="605" duration="150"/>
   </animation>
  </tile>
  <tile id="31">
   <animation>
    <frame tileid="31" duration="150"/>
    <frame tileid="146" duration="150"/>
    <frame tileid="261" duration="150"/>
    <frame tileid="376" duration="150"/>
    <frame tileid="491" duration="150"/>
    <frame tileid="606" duration="150"/>
   </animation>
  </tile>
  <tile id="33">
   <animation>
    <frame tileid="33" duration="150"/>
    <frame tileid="148" duration="150"/>
    <frame tileid="263" duration="150"/>
    <frame tileid="378" duration="150"/>
    <frame tileid="493" duration="150"/>
    <frame tileid="608" duration="150"/>
   </animation>
  </tile>
  <tile id="34">
   <animation>
    <frame tileid="34" duration="150"/>
    <frame tileid="149" duration="150"/>
    <frame tileid="264" duration="150"/>
    <frame tileid="379" duration="150"/>
    <frame tileid="494" duration="150"/>
    <frame tileid="609" duration="150"/>
   </animation>
  </tile>
  <tile id="36">
   <animation>
    <frame tileid="36" duration="150"/>
    <frame tileid="151" duration="150"/>
    <frame tileid="266" duration="150"/>
    <frame tileid="381" duration="150"/>
    <frame tileid="496" duration="150"/>
    <frame tileid="611" duration="150"/>
   </animation>
  </tile>
  <tile id="37">
   <animation>
    <frame tileid="37" duration="150"/>
    <frame tileid="152" duration="150"/>
    <frame tileid="267" duration="150"/>
    <frame tileid="382" duration="150"/>
    <frame tileid="497" duration="150"/>
    <frame tileid="612" duration="150"/>
   </animation>
  </tile>
  <tile id="39">
   <animation>
    <frame tileid="39" duration="150"/>
    <frame tileid="154" duration="150"/>
    <frame tileid="269" duration="150"/>
    <frame tileid="384" duration="150"/>
    <frame tileid="499" duration="150"/>
    <frame tileid="614" duration="150"/>
   </animation>
  </tile>
  <tile id="40">
   <animation>
    <frame tileid="40" duration="150"/>
    <frame tileid="155" duration="150"/>
    <frame tileid="270" duration="150"/>
    <frame tileid="385" duration="150"/>
    <frame tileid="500" duration="150"/>
    <frame tileid="615" duration="150"/>
   </animation>
  </tile>
  <tile id="41">
   <animation>
    <frame tileid="41" duration="150"/>
    <frame tileid="156" duration="150"/>
    <frame tileid="271" duration="150"/>
    <frame tileid="386" duration="150"/>
    <frame tileid="501" duration="150"/>
    <frame tileid="616" duration="150"/>
   </animation>
  </tile>
  <tile id="43">
   <animation>
    <frame tileid="43" duration="150"/>
    <frame tileid="273" duration="150"/>
    <frame tileid="503" duration="150"/>
    <frame tileid="733" duration="150"/>
    <frame tileid="986" duration="150"/>
    <frame tileid="1216" duration="150"/>
   </animation>
  </tile>
  <tile id="44">
   <animation>
    <frame tileid="44" duration="150"/>
    <frame tileid="274" duration="150"/>
    <frame tileid="504" duration="150"/>
    <frame tileid="734" duration="150"/>
    <frame tileid="987" duration="150"/>
    <frame tileid="1217" duration="150"/>
   </animation>
  </tile>
  <tile id="47">
   <animation>
    <frame tileid="47" duration="150"/>
    <frame tileid="162" duration="150"/>
    <frame tileid="277" duration="150"/>
    <frame tileid="392" duration="150"/>
    <frame tileid="507" duration="150"/>
    <frame tileid="622" duration="150"/>
   </animation>
  </tile>
  <tile id="49">
   <animation>
    <frame tileid="49" duration="150"/>
    <frame tileid="164" duration="150"/>
    <frame tileid="279" duration="150"/>
    <frame tileid="394" duration="150"/>
    <frame tileid="509" duration="150"/>
    <frame tileid="624" duration="150"/>
   </animation>
  </tile>
  <tile id="50">
   <animation>
    <frame tileid="50" duration="150"/>
    <frame tileid="165" duration="150"/>
    <frame tileid="280" duration="150"/>
    <frame tileid="395" duration="150"/>
    <frame tileid="510" duration="150"/>
    <frame tileid="625" duration="150"/>
   </animation>
  </tile>
  <tile id="51">
   <animation>
    <frame tileid="51" duration="150"/>
    <frame tileid="166" duration="150"/>
    <frame tileid="281" duration="150"/>
    <frame tileid="396" duration="150"/>
    <frame tileid="511" duration="150"/>
    <frame tileid="626" duration="150"/>
   </animation>
  </tile>
  <tile id="52">
   <animation>
    <frame tileid="52" duration="150"/>
    <frame tileid="167" duration="150"/>
    <frame tileid="282" duration="150"/>
    <frame tileid="397" duration="150"/>
    <frame tileid="512" duration="150"/>
    <frame tileid="627" duration="150"/>
   </animation>
  </tile>
  <tile id="53">
   <animation>
    <frame tileid="53" duration="150"/>
    <frame tileid="168" duration="150"/>
    <frame tileid="283" duration="150"/>
    <frame tileid="398" duration="150"/>
    <frame tileid="513" duration="150"/>
    <frame tileid="628" duration="150"/>
   </animation>
  </tile>
  <tile id="54">
   <animation>
    <frame tileid="54" duration="150"/>
    <frame tileid="169" duration="150"/>
    <frame tileid="284" duration="150"/>
    <frame tileid="399" duration="150"/>
    <frame tileid="514" duration="150"/>
    <frame tileid="629" duration="150"/>
   </animation>
  </tile>
  <tile id="56">
   <animation>
    <frame tileid="56" duration="150"/>
    <frame tileid="171" duration="150"/>
    <frame tileid="286" duration="150"/>
    <frame tileid="401" duration="150"/>
    <frame tileid="516" duration="150"/>
    <frame tileid="631" duration="150"/>
   </animation>
  </tile>
  <tile id="57">
   <animation>
    <frame tileid="57" duration="150"/>
    <frame tileid="172" duration="150"/>
    <frame tileid="287" duration="150"/>
    <frame tileid="402" duration="150"/>
    <frame tileid="517" duration="150"/>
    <frame tileid="632" duration="150"/>
   </animation>
  </tile>
  <tile id="59">
   <animation>
    <frame tileid="59" duration="150"/>
    <frame tileid="174" duration="150"/>
    <frame tileid="289" duration="150"/>
    <frame tileid="404" duration="150"/>
    <frame tileid="519" duration="150"/>
    <frame tileid="634" duration="150"/>
   </animation>
  </tile>
  <tile id="60">
   <animation>
    <frame tileid="60" duration="150"/>
    <frame tileid="175" duration="150"/>
    <frame tileid="290" duration="150"/>
    <frame tileid="405" duration="150"/>
    <frame tileid="520" duration="150"/>
    <frame tileid="635" duration="150"/>
   </animation>
  </tile>
  <tile id="62">
   <animation>
    <frame tileid="62" duration="150"/>
    <frame tileid="177" duration="150"/>
    <frame tileid="292" duration="150"/>
    <frame tileid="407" duration="150"/>
    <frame tileid="522" duration="150"/>
    <frame tileid="637" duration="150"/>
   </animation>
  </tile>
  <tile id="63">
   <animation>
    <frame tileid="63" duration="150"/>
    <frame tileid="178" duration="150"/>
    <frame tileid="293" duration="150"/>
    <frame tileid="408" duration="150"/>
    <frame tileid="523" duration="150"/>
    <frame tileid="638" duration="150"/>
   </animation>
  </tile>
  <tile id="64">
   <animation>
    <frame tileid="64" duration="150"/>
    <frame tileid="179" duration="150"/>
    <frame tileid="294" duration="150"/>
    <frame tileid="409" duration="150"/>
    <frame tileid="524" duration="150"/>
    <frame tileid="639" duration="150"/>
   </animation>
  </tile>
  <tile id="66">
   <animation>
    <frame tileid="66" duration="150"/>
    <frame tileid="296" duration="150"/>
    <frame tileid="526" duration="150"/>
    <frame tileid="756" duration="150"/>
    <frame tileid="1009" duration="150"/>
    <frame tileid="1239" duration="150"/>
   </animation>
  </tile>
  <tile id="67">
   <animation>
    <frame tileid="67" duration="150"/>
    <frame tileid="297" duration="150"/>
    <frame tileid="527" duration="150"/>
    <frame tileid="757" duration="150"/>
    <frame tileid="1010" duration="150"/>
    <frame tileid="1240" duration="150"/>
   </animation>
  </tile>
  <tile id="70">
   <animation>
    <frame tileid="70" duration="150"/>
    <frame tileid="185" duration="150"/>
    <frame tileid="300" duration="150"/>
    <frame tileid="415" duration="150"/>
    <frame tileid="530" duration="150"/>
    <frame tileid="645" duration="150"/>
   </animation>
  </tile>
  <tile id="71">
   <animation>
    <frame tileid="71" duration="150"/>
    <frame tileid="186" duration="150"/>
    <frame tileid="301" duration="150"/>
    <frame tileid="416" duration="150"/>
    <frame tileid="531" duration="150"/>
    <frame tileid="646" duration="150"/>
   </animation>
  </tile>
  <tile id="72">
   <animation>
    <frame tileid="72" duration="150"/>
    <frame tileid="187" duration="150"/>
    <frame tileid="302" duration="150"/>
    <frame tileid="417" duration="150"/>
    <frame tileid="532" duration="150"/>
    <frame tileid="647" duration="150"/>
   </animation>
  </tile>
  <tile id="74">
   <animation>
    <frame tileid="74" duration="150"/>
    <frame tileid="189" duration="150"/>
    <frame tileid="304" duration="150"/>
    <frame tileid="419" duration="150"/>
    <frame tileid="534" duration="150"/>
    <frame tileid="649" duration="150"/>
   </animation>
  </tile>
  <tile id="75">
   <animation>
    <frame tileid="75" duration="150"/>
    <frame tileid="190" duration="150"/>
    <frame tileid="305" duration="150"/>
    <frame tileid="420" duration="150"/>
    <frame tileid="535" duration="150"/>
    <frame tileid="650" duration="150"/>
   </animation>
  </tile>
  <tile id="76">
   <animation>
    <frame tileid="76" duration="150"/>
    <frame tileid="191" duration="150"/>
    <frame tileid="306" duration="150"/>
    <frame tileid="421" duration="150"/>
    <frame tileid="536" duration="150"/>
    <frame tileid="651" duration="150"/>
   </animation>
  </tile>
  <tile id="77">
   <animation>
    <frame tileid="77" duration="150"/>
    <frame tileid="192" duration="150"/>
    <frame tileid="307" duration="150"/>
    <frame tileid="422" duration="150"/>
    <frame tileid="537" duration="150"/>
    <frame tileid="652" duration="150"/>
   </animation>
  </tile>
  <tile id="79">
   <animation>
    <frame tileid="79" duration="150"/>
    <frame tileid="194" duration="150"/>
    <frame tileid="309" duration="150"/>
    <frame tileid="424" duration="150"/>
    <frame tileid="539" duration="150"/>
    <frame tileid="654" duration="150"/>
   </animation>
  </tile>
  <tile id="80">
   <animation>
    <frame tileid="80" duration="150"/>
    <frame tileid="195" duration="150"/>
    <frame tileid="310" duration="150"/>
    <frame tileid="425" duration="150"/>
    <frame tileid="540" duration="150"/>
    <frame tileid="655" duration="150"/>
   </animation>
  </tile>
  <tile id="82">
   <animation>
    <frame tileid="82" duration="150"/>
    <frame tileid="197" duration="150"/>
    <frame tileid="312" duration="150"/>
    <frame tileid="427" duration="150"/>
    <frame tileid="542" duration="150"/>
    <frame tileid="657" duration="150"/>
   </animation>
  </tile>
  <tile id="83">
   <animation>
    <frame tileid="83" duration="150"/>
    <frame tileid="198" duration="150"/>
    <frame tileid="313" duration="150"/>
    <frame tileid="428" duration="150"/>
    <frame tileid="543" duration="150"/>
    <frame tileid="658" duration="150"/>
   </animation>
  </tile>
  <tile id="85">
   <animation>
    <frame tileid="85" duration="150"/>
    <frame tileid="200" duration="150"/>
    <frame tileid="315" duration="150"/>
    <frame tileid="430" duration="150"/>
    <frame tileid="545" duration="150"/>
    <frame tileid="660" duration="150"/>
   </animation>
  </tile>
  <tile id="86">
   <animation>
    <frame tileid="86" duration="150"/>
    <frame tileid="201" duration="150"/>
    <frame tileid="316" duration="150"/>
    <frame tileid="431" duration="150"/>
    <frame tileid="546" duration="150"/>
    <frame tileid="661" duration="150"/>
   </animation>
  </tile>
  <tile id="87">
   <animation>
    <frame tileid="87" duration="150"/>
    <frame tileid="202" duration="150"/>
    <frame tileid="317" duration="150"/>
    <frame tileid="432" duration="150"/>
    <frame tileid="547" duration="150"/>
    <frame tileid="662" duration="150"/>
   </animation>
  </tile>
  <tile id="89">
   <animation>
    <frame tileid="89" duration="150"/>
    <frame tileid="319" duration="150"/>
    <frame tileid="549" duration="150"/>
    <frame tileid="779" duration="150"/>
    <frame tileid="1032" duration="150"/>
    <frame tileid="1262" duration="150"/>
   </animation>
  </tile>
  <tile id="90">
   <animation>
    <frame tileid="90" duration="150"/>
    <frame tileid="320" duration="150"/>
    <frame tileid="550" duration="150"/>
    <frame tileid="780" duration="150"/>
    <frame tileid="1033" duration="150"/>
    <frame tileid="1263" duration="150"/>
   </animation>
  </tile>
  <tile id="93">
   <animation>
    <frame tileid="93" duration="150"/>
    <frame tileid="208" duration="150"/>
    <frame tileid="323" duration="150"/>
    <frame tileid="438" duration="150"/>
    <frame tileid="553" duration="150"/>
    <frame tileid="668" duration="150"/>
   </animation>
  </tile>
  <tile id="94">
   <animation>
    <frame tileid="94" duration="150"/>
    <frame tileid="209" duration="150"/>
    <frame tileid="324" duration="150"/>
    <frame tileid="439" duration="150"/>
    <frame tileid="554" duration="150"/>
    <frame tileid="669" duration="150"/>
   </animation>
  </tile>
  <tile id="95">
   <animation>
    <frame tileid="95" duration="150"/>
    <frame tileid="210" duration="150"/>
    <frame tileid="325" duration="150"/>
    <frame tileid="440" duration="150"/>
    <frame tileid="555" duration="150"/>
    <frame tileid="670" duration="150"/>
   </animation>
  </tile>
  <tile id="97">
   <animation>
    <frame tileid="97" duration="150"/>
    <frame tileid="212" duration="150"/>
    <frame tileid="327" duration="150"/>
    <frame tileid="442" duration="150"/>
    <frame tileid="557" duration="150"/>
    <frame tileid="672" duration="150"/>
   </animation>
  </tile>
  <tile id="98">
   <animation>
    <frame tileid="98" duration="150"/>
    <frame tileid="213" duration="150"/>
    <frame tileid="328" duration="150"/>
    <frame tileid="443" duration="150"/>
    <frame tileid="558" duration="150"/>
    <frame tileid="673" duration="150"/>
   </animation>
  </tile>
  <tile id="99">
   <animation>
    <frame tileid="99" duration="150"/>
    <frame tileid="214" duration="150"/>
    <frame tileid="329" duration="150"/>
    <frame tileid="444" duration="150"/>
    <frame tileid="559" duration="150"/>
    <frame tileid="674" duration="150"/>
   </animation>
  </tile>
  <tile id="100">
   <animation>
    <frame tileid="100" duration="150"/>
    <frame tileid="215" duration="150"/>
    <frame tileid="330" duration="150"/>
    <frame tileid="445" duration="150"/>
    <frame tileid="560" duration="150"/>
    <frame tileid="675" duration="150"/>
   </animation>
  </tile>
  <tile id="101">
   <animation>
    <frame tileid="101" duration="150"/>
    <frame tileid="216" duration="150"/>
    <frame tileid="331" duration="150"/>
    <frame tileid="446" duration="150"/>
    <frame tileid="561" duration="150"/>
    <frame tileid="676" duration="150"/>
   </animation>
  </tile>
  <tile id="102">
   <animation>
    <frame tileid="102" duration="150"/>
    <frame tileid="217" duration="150"/>
    <frame tileid="332" duration="150"/>
    <frame tileid="447" duration="150"/>
    <frame tileid="562" duration="150"/>
    <frame tileid="677" duration="150"/>
   </animation>
  </tile>
  <tile id="103">
   <animation>
    <frame tileid="103" duration="150"/>
    <frame tileid="218" duration="150"/>
    <frame tileid="333" duration="150"/>
    <frame tileid="448" duration="150"/>
    <frame tileid="563" duration="150"/>
    <frame tileid="678" duration="150"/>
   </animation>
  </tile>
  <tile id="104">
   <animation>
    <frame tileid="104" duration="150"/>
    <frame tileid="219" duration="150"/>
    <frame tileid="334" duration="150"/>
    <frame tileid="449" duration="150"/>
    <frame tileid="564" duration="150"/>
    <frame tileid="679" duration="150"/>
   </animation>
  </tile>
  <tile id="112">
   <animation>
    <frame tileid="112" duration="150"/>
    <frame tileid="342" duration="150"/>
    <frame tileid="572" duration="150"/>
    <frame tileid="802" duration="150"/>
    <frame tileid="1055" duration="150"/>
    <frame tileid="1285" duration="150"/>
   </animation>
  </tile>
  <tile id="113">
   <animation>
    <frame tileid="113" duration="150"/>
    <frame tileid="343" duration="150"/>
    <frame tileid="573" duration="150"/>
    <frame tileid="803" duration="150"/>
    <frame tileid="1056" duration="150"/>
    <frame tileid="1286" duration="150"/>
   </animation>
  </tile>
  <tile id="135">
   <animation>
    <frame tileid="135" duration="150"/>
    <frame tileid="365" duration="150"/>
    <frame tileid="595" duration="150"/>
    <frame tileid="825" duration="150"/>
    <frame tileid="1078" duration="150"/>
    <frame tileid="1308" duration="150"/>
   </animation>
  </tile>
  <tile id="136">
   <animation>
    <frame tileid="136" duration="150"/>
    <frame tileid="366" duration="150"/>
    <frame tileid="596" duration="150"/>
    <frame tileid="826" duration="150"/>
    <frame tileid="1079" duration="150"/>
    <frame tileid="1309" duration="150"/>
   </animation>
  </tile>
  <tile id="180">
   <animation>
    <frame tileid="180" duration="150"/>
    <frame tileid="410" duration="150"/>
    <frame tileid="640" duration="150"/>
    <frame tileid="893" duration="150"/>
    <frame tileid="1123" duration="150"/>
    <frame tileid="1353" duration="150"/>
   </animation>
  </tile>
  <tile id="181">
   <animation>
    <frame tileid="181" duration="150"/>
    <frame tileid="411" duration="150"/>
    <frame tileid="641" duration="150"/>
    <frame tileid="894" duration="150"/>
    <frame tileid="1124" duration="150"/>
    <frame tileid="1354" duration="150"/>
   </animation>
  </tile>
  <tile id="182">
   <animation>
    <frame tileid="182" duration="150"/>
    <frame tileid="412" duration="150"/>
    <frame tileid="642" duration="150"/>
    <frame tileid="895" duration="150"/>
    <frame tileid="1125" duration="150"/>
    <frame tileid="1355" duration="150"/>
   </animation>
  </tile>
  <tile id="183">
   <animation>
    <frame tileid="183" duration="150"/>
    <frame tileid="413" duration="150"/>
    <frame tileid="643" duration="150"/>
    <frame tileid="896" duration="150"/>
    <frame tileid="1126" duration="150"/>
    <frame tileid="1356" duration="150"/>
   </animation>
  </tile>
  <tile id="203">
   <animation>
    <frame tileid="203" duration="150"/>
    <frame tileid="433" duration="150"/>
    <frame tileid="663" duration="150"/>
    <frame tileid="916" duration="150"/>
    <frame tileid="1146" duration="150"/>
    <frame tileid="1376" duration="150"/>
   </animation>
  </tile>
  <tile id="204">
   <animation>
    <frame tileid="204" duration="150"/>
    <frame tileid="434" duration="150"/>
    <frame tileid="664" duration="150"/>
    <frame tileid="917" duration="150"/>
    <frame tileid="1147" duration="150"/>
    <frame tileid="1377" duration="150"/>
   </animation>
  </tile>
  <tile id="205">
   <animation>
    <frame tileid="205" duration="150"/>
    <frame tileid="435" duration="150"/>
    <frame tileid="665" duration="150"/>
    <frame tileid="918" duration="150"/>
    <frame tileid="1148" duration="150"/>
    <frame tileid="1378" duration="150"/>
   </animation>
  </tile>
  <tile id="206">
   <animation>
    <frame tileid="206" duration="150"/>
    <frame tileid="436" duration="150"/>
    <frame tileid="666" duration="150"/>
    <frame tileid="919" duration="150"/>
    <frame tileid="1149" duration="150"/>
    <frame tileid="1379" duration="150"/>
   </animation>
  </tile>
  <tile id="226">
   <animation>
    <frame tileid="226" duration="150"/>
    <frame tileid="456" duration="150"/>
    <frame tileid="686" duration="150"/>
    <frame tileid="939" duration="150"/>
    <frame tileid="1169" duration="150"/>
    <frame tileid="1399" duration="150"/>
   </animation>
  </tile>
  <tile id="227">
   <animation>
    <frame tileid="227" duration="150"/>
    <frame tileid="457" duration="150"/>
    <frame tileid="687" duration="150"/>
    <frame tileid="940" duration="150"/>
    <frame tileid="1170" duration="150"/>
    <frame tileid="1400" duration="150"/>
   </animation>
  </tile>
  <tile id="228">
   <animation>
    <frame tileid="228" duration="150"/>
    <frame tileid="458" duration="150"/>
    <frame tileid="688" duration="150"/>
    <frame tileid="941" duration="150"/>
    <frame tileid="1171" duration="150"/>
    <frame tileid="1401" duration="150"/>
   </animation>
  </tile>
  <tile id="229">
   <animation>
    <frame tileid="229" duration="150"/>
    <frame tileid="459" duration="150"/>
    <frame tileid="689" duration="150"/>
    <frame tileid="942" duration="150"/>
    <frame tileid="1172" duration="150"/>
    <frame tileid="1402" duration="150"/>
   </animation>
  </tile>
  <tile id="691">
   <animation>
    <frame tileid="1" duration="150"/>
    <frame tileid="116" duration="150"/>
    <frame tileid="231" duration="150"/>
    <frame tileid="346" duration="150"/>
    <frame tileid="461" duration="150"/>
    <frame tileid="576" duration="150"/>
   </animation>
  </tile>
  <tile id="692">
   <animation>
    <frame tileid="2" duration="150"/>
    <frame tileid="117" duration="150"/>
    <frame tileid="232" duration="150"/>
    <frame tileid="347" duration="150"/>
    <frame tileid="462" duration="150"/>
    <frame tileid="577" duration="150"/>
   </animation>
  </tile>
  <tile id="693">
   <animation>
    <frame tileid="3" duration="150"/>
    <frame tileid="118" duration="150"/>
    <frame tileid="233" duration="150"/>
    <frame tileid="348" duration="150"/>
    <frame tileid="463" duration="150"/>
    <frame tileid="578" duration="150"/>
   </animation>
  </tile>
  <tile id="713">
   <animation>
    <frame tileid="23" duration="150"/>
    <frame tileid="138" duration="150"/>
    <frame tileid="253" duration="150"/>
    <frame tileid="368" duration="150"/>
    <frame tileid="483" duration="150"/>
    <frame tileid="598" duration="150"/>
   </animation>
  </tile>
  <tile id="714">
   <animation>
    <frame tileid="714" duration="150"/>
    <frame tileid="829" duration="150"/>
    <frame tileid="944" duration="150"/>
    <frame tileid="1059" duration="150"/>
    <frame tileid="1174" duration="150"/>
    <frame tileid="1289" duration="150"/>
   </animation>
  </tile>
  <tile id="716">
   <animation>
    <frame tileid="716" duration="150"/>
    <frame tileid="831" duration="150"/>
    <frame tileid="946" duration="150"/>
    <frame tileid="1061" duration="150"/>
    <frame tileid="1176" duration="150"/>
    <frame tileid="1291" duration="150"/>
   </animation>
  </tile>
  <tile id="718">
   <animation>
    <frame tileid="718" duration="150"/>
    <frame tileid="833" duration="150"/>
    <frame tileid="948" duration="150"/>
    <frame tileid="1063" duration="150"/>
    <frame tileid="1178" duration="150"/>
    <frame tileid="1293" duration="150"/>
   </animation>
  </tile>
  <tile id="719">
   <animation>
    <frame tileid="719" duration="150"/>
    <frame tileid="834" duration="150"/>
    <frame tileid="949" duration="150"/>
    <frame tileid="1064" duration="150"/>
    <frame tileid="1179" duration="150"/>
    <frame tileid="1294" duration="150"/>
   </animation>
  </tile>
  <tile id="720">
   <animation>
    <frame tileid="720" duration="150"/>
    <frame tileid="835" duration="150"/>
    <frame tileid="950" duration="150"/>
    <frame tileid="1065" duration="150"/>
    <frame tileid="1180" duration="150"/>
    <frame tileid="1295" duration="150"/>
   </animation>
  </tile>
  <tile id="721">
   <animation>
    <frame tileid="721" duration="150"/>
    <frame tileid="836" duration="150"/>
    <frame tileid="951" duration="150"/>
    <frame tileid="1066" duration="150"/>
    <frame tileid="1181" duration="150"/>
    <frame tileid="1296" duration="150"/>
   </animation>
  </tile>
  <tile id="723">
   <animation>
    <frame tileid="723" duration="150"/>
    <frame tileid="838" duration="150"/>
    <frame tileid="953" duration="150"/>
    <frame tileid="1068" duration="150"/>
    <frame tileid="1183" duration="150"/>
    <frame tileid="1298" duration="150"/>
   </animation>
  </tile>
  <tile id="724">
   <animation>
    <frame tileid="724" duration="150"/>
    <frame tileid="839" duration="150"/>
    <frame tileid="954" duration="150"/>
    <frame tileid="1069" duration="150"/>
    <frame tileid="1184" duration="150"/>
    <frame tileid="1299" duration="150"/>
   </animation>
  </tile>
  <tile id="726">
   <animation>
    <frame tileid="726" duration="150"/>
    <frame tileid="841" duration="150"/>
    <frame tileid="956" duration="150"/>
    <frame tileid="1071" duration="150"/>
    <frame tileid="1186" duration="150"/>
    <frame tileid="1301" duration="150"/>
   </animation>
  </tile>
  <tile id="727">
   <animation>
    <frame tileid="727" duration="150"/>
    <frame tileid="842" duration="150"/>
    <frame tileid="957" duration="150"/>
    <frame tileid="1072" duration="150"/>
    <frame tileid="1187" duration="150"/>
    <frame tileid="1302" duration="150"/>
   </animation>
  </tile>
  <tile id="729">
   <animation>
    <frame tileid="729" duration="150"/>
    <frame tileid="844" duration="150"/>
    <frame tileid="959" duration="150"/>
    <frame tileid="1074" duration="150"/>
    <frame tileid="1189" duration="150"/>
    <frame tileid="1304" duration="150"/>
   </animation>
  </tile>
  <tile id="730">
   <animation>
    <frame tileid="730" duration="150"/>
    <frame tileid="845" duration="150"/>
    <frame tileid="960" duration="150"/>
    <frame tileid="1075" duration="150"/>
    <frame tileid="1190" duration="150"/>
    <frame tileid="1305" duration="150"/>
   </animation>
  </tile>
  <tile id="731">
   <animation>
    <frame tileid="731" duration="150"/>
    <frame tileid="846" duration="150"/>
    <frame tileid="961" duration="150"/>
    <frame tileid="1076" duration="150"/>
    <frame tileid="1191" duration="150"/>
    <frame tileid="1306" duration="150"/>
   </animation>
  </tile>
  <tile id="737">
   <animation>
    <frame tileid="737" duration="150"/>
    <frame tileid="852" duration="150"/>
    <frame tileid="967" duration="150"/>
    <frame tileid="1082" duration="150"/>
    <frame tileid="1197" duration="150"/>
    <frame tileid="1312" duration="150"/>
   </animation>
  </tile>
  <tile id="739">
   <animation>
    <frame tileid="739" duration="150"/>
    <frame tileid="854" duration="150"/>
    <frame tileid="969" duration="150"/>
    <frame tileid="1084" duration="150"/>
    <frame tileid="1199" duration="150"/>
    <frame tileid="1314" duration="150"/>
   </animation>
  </tile>
  <tile id="740">
   <animation>
    <frame tileid="740" duration="150"/>
    <frame tileid="855" duration="150"/>
    <frame tileid="970" duration="150"/>
    <frame tileid="1085" duration="150"/>
    <frame tileid="1200" duration="150"/>
    <frame tileid="1315" duration="150"/>
   </animation>
  </tile>
  <tile id="741">
   <animation>
    <frame tileid="741" duration="150"/>
    <frame tileid="856" duration="150"/>
    <frame tileid="971" duration="150"/>
    <frame tileid="1086" duration="150"/>
    <frame tileid="1201" duration="150"/>
    <frame tileid="1316" duration="150"/>
   </animation>
  </tile>
  <tile id="742">
   <animation>
    <frame tileid="742" duration="150"/>
    <frame tileid="857" duration="150"/>
    <frame tileid="972" duration="150"/>
    <frame tileid="1087" duration="150"/>
    <frame tileid="1202" duration="150"/>
    <frame tileid="1317" duration="150"/>
   </animation>
  </tile>
  <tile id="743">
   <animation>
    <frame tileid="743" duration="150"/>
    <frame tileid="858" duration="150"/>
    <frame tileid="973" duration="150"/>
    <frame tileid="1088" duration="150"/>
    <frame tileid="1203" duration="150"/>
    <frame tileid="1318" duration="150"/>
   </animation>
  </tile>
  <tile id="744">
   <animation>
    <frame tileid="744" duration="150"/>
    <frame tileid="859" duration="150"/>
    <frame tileid="974" duration="150"/>
    <frame tileid="1089" duration="150"/>
    <frame tileid="1204" duration="150"/>
    <frame tileid="1319" duration="150"/>
   </animation>
  </tile>
  <tile id="746">
   <animation>
    <frame tileid="746" duration="150"/>
    <frame tileid="861" duration="150"/>
    <frame tileid="976" duration="150"/>
    <frame tileid="1091" duration="150"/>
    <frame tileid="1206" duration="150"/>
    <frame tileid="1321" duration="150"/>
   </animation>
  </tile>
  <tile id="747">
   <animation>
    <frame tileid="747" duration="150"/>
    <frame tileid="862" duration="150"/>
    <frame tileid="977" duration="150"/>
    <frame tileid="1092" duration="150"/>
    <frame tileid="1207" duration="150"/>
    <frame tileid="1322" duration="150"/>
   </animation>
  </tile>
  <tile id="749">
   <animation>
    <frame tileid="749" duration="150"/>
    <frame tileid="864" duration="150"/>
    <frame tileid="979" duration="150"/>
    <frame tileid="1094" duration="150"/>
    <frame tileid="1209" duration="150"/>
    <frame tileid="1324" duration="150"/>
   </animation>
  </tile>
  <tile id="750">
   <animation>
    <frame tileid="750" duration="150"/>
    <frame tileid="865" duration="150"/>
    <frame tileid="980" duration="150"/>
    <frame tileid="1095" duration="150"/>
    <frame tileid="1210" duration="150"/>
    <frame tileid="1325" duration="150"/>
   </animation>
  </tile>
  <tile id="752">
   <animation>
    <frame tileid="752" duration="150"/>
    <frame tileid="867" duration="150"/>
    <frame tileid="982" duration="150"/>
    <frame tileid="1097" duration="150"/>
    <frame tileid="1212" duration="150"/>
    <frame tileid="1327" duration="150"/>
   </animation>
  </tile>
  <tile id="753">
   <animation>
    <frame tileid="753" duration="150"/>
    <frame tileid="868" duration="150"/>
    <frame tileid="983" duration="150"/>
    <frame tileid="1098" duration="150"/>
    <frame tileid="1213" duration="150"/>
    <frame tileid="1328" duration="150"/>
   </animation>
  </tile>
  <tile id="754">
   <animation>
    <frame tileid="754" duration="150"/>
    <frame tileid="869" duration="150"/>
    <frame tileid="984" duration="150"/>
    <frame tileid="1099" duration="150"/>
    <frame tileid="1214" duration="150"/>
    <frame tileid="1329" duration="150"/>
   </animation>
  </tile>
  <tile id="760">
   <animation>
    <frame tileid="760" duration="150"/>
    <frame tileid="875" duration="150"/>
    <frame tileid="990" duration="150"/>
    <frame tileid="1105" duration="150"/>
    <frame tileid="1220" duration="150"/>
    <frame tileid="1335" duration="150"/>
   </animation>
  </tile>
  <tile id="761">
   <animation>
    <frame tileid="761" duration="150"/>
    <frame tileid="876" duration="150"/>
    <frame tileid="991" duration="150"/>
    <frame tileid="1106" duration="150"/>
    <frame tileid="1221" duration="150"/>
    <frame tileid="1336" duration="150"/>
   </animation>
  </tile>
  <tile id="762">
   <animation>
    <frame tileid="762" duration="150"/>
    <frame tileid="877" duration="150"/>
    <frame tileid="992" duration="150"/>
    <frame tileid="1107" duration="150"/>
    <frame tileid="1222" duration="150"/>
    <frame tileid="1337" duration="150"/>
   </animation>
  </tile>
  <tile id="764">
   <animation>
    <frame tileid="764" duration="150"/>
    <frame tileid="879" duration="150"/>
    <frame tileid="994" duration="150"/>
    <frame tileid="1109" duration="150"/>
    <frame tileid="1224" duration="150"/>
    <frame tileid="1339" duration="150"/>
   </animation>
  </tile>
  <tile id="765">
   <animation>
    <frame tileid="765" duration="150"/>
    <frame tileid="880" duration="150"/>
    <frame tileid="995" duration="150"/>
    <frame tileid="1110" duration="150"/>
    <frame tileid="1225" duration="150"/>
    <frame tileid="1340" duration="150"/>
   </animation>
  </tile>
  <tile id="766">
   <animation>
    <frame tileid="766" duration="150"/>
    <frame tileid="881" duration="150"/>
    <frame tileid="996" duration="150"/>
    <frame tileid="1111" duration="150"/>
    <frame tileid="1226" duration="150"/>
    <frame tileid="1341" duration="150"/>
   </animation>
  </tile>
  <tile id="767">
   <animation>
    <frame tileid="767" duration="150"/>
    <frame tileid="882" duration="150"/>
    <frame tileid="997" duration="150"/>
    <frame tileid="1112" duration="150"/>
    <frame tileid="1227" duration="150"/>
    <frame tileid="1342" duration="150"/>
   </animation>
  </tile>
  <tile id="769">
   <animation>
    <frame tileid="769" duration="150"/>
    <frame tileid="884" duration="150"/>
    <frame tileid="999" duration="150"/>
    <frame tileid="1114" duration="150"/>
    <frame tileid="1229" duration="150"/>
    <frame tileid="1344" duration="150"/>
   </animation>
  </tile>
  <tile id="770">
   <animation>
    <frame tileid="770" duration="150"/>
    <frame tileid="885" duration="150"/>
    <frame tileid="1000" duration="150"/>
    <frame tileid="1115" duration="150"/>
    <frame tileid="1230" duration="150"/>
    <frame tileid="1345" duration="150"/>
   </animation>
  </tile>
  <tile id="772">
   <animation>
    <frame tileid="772" duration="150"/>
    <frame tileid="887" duration="150"/>
    <frame tileid="1002" duration="150"/>
    <frame tileid="1117" duration="150"/>
    <frame tileid="1232" duration="150"/>
    <frame tileid="1347" duration="150"/>
   </animation>
  </tile>
  <tile id="773">
   <animation>
    <frame tileid="773" duration="150"/>
    <frame tileid="888" duration="150"/>
    <frame tileid="1003" duration="150"/>
    <frame tileid="1118" duration="150"/>
    <frame tileid="1233" duration="150"/>
    <frame tileid="1348" duration="150"/>
   </animation>
  </tile>
  <tile id="775">
   <animation>
    <frame tileid="775" duration="150"/>
    <frame tileid="890" duration="150"/>
    <frame tileid="1005" duration="150"/>
    <frame tileid="1120" duration="150"/>
    <frame tileid="1235" duration="150"/>
    <frame tileid="1350" duration="150"/>
   </animation>
  </tile>
  <tile id="776">
   <animation>
    <frame tileid="776" duration="150"/>
    <frame tileid="891" duration="150"/>
    <frame tileid="1006" duration="150"/>
    <frame tileid="1121" duration="150"/>
    <frame tileid="1236" duration="150"/>
    <frame tileid="1351" duration="150"/>
   </animation>
  </tile>
  <tile id="777">
   <animation>
    <frame tileid="777" duration="150"/>
    <frame tileid="892" duration="150"/>
    <frame tileid="1007" duration="150"/>
    <frame tileid="1122" duration="150"/>
    <frame tileid="1237" duration="150"/>
    <frame tileid="1352" duration="150"/>
   </animation>
  </tile>
  <tile id="783">
   <animation>
    <frame tileid="783" duration="150"/>
    <frame tileid="898" duration="150"/>
    <frame tileid="1013" duration="150"/>
    <frame tileid="1128" duration="150"/>
    <frame tileid="1243" duration="150"/>
    <frame tileid="1358" duration="150"/>
   </animation>
  </tile>
  <tile id="784">
   <animation>
    <frame tileid="784" duration="150"/>
    <frame tileid="899" duration="150"/>
    <frame tileid="1014" duration="150"/>
    <frame tileid="1129" duration="150"/>
    <frame tileid="1244" duration="150"/>
    <frame tileid="1359" duration="150"/>
   </animation>
  </tile>
  <tile id="785">
   <animation>
    <frame tileid="785" duration="150"/>
    <frame tileid="900" duration="150"/>
    <frame tileid="1015" duration="150"/>
    <frame tileid="1130" duration="150"/>
    <frame tileid="1245" duration="150"/>
    <frame tileid="1360" duration="150"/>
   </animation>
  </tile>
  <tile id="787">
   <animation>
    <frame tileid="787" duration="150"/>
    <frame tileid="902" duration="150"/>
    <frame tileid="1017" duration="150"/>
    <frame tileid="1132" duration="150"/>
    <frame tileid="1247" duration="150"/>
    <frame tileid="1362" duration="150"/>
   </animation>
  </tile>
  <tile id="788">
   <animation>
    <frame tileid="788" duration="150"/>
    <frame tileid="903" duration="150"/>
    <frame tileid="1018" duration="150"/>
    <frame tileid="1133" duration="150"/>
    <frame tileid="1248" duration="150"/>
    <frame tileid="1363" duration="150"/>
   </animation>
  </tile>
  <tile id="789">
   <animation>
    <frame tileid="789" duration="150"/>
    <frame tileid="904" duration="150"/>
    <frame tileid="1019" duration="150"/>
    <frame tileid="1134" duration="150"/>
    <frame tileid="1249" duration="150"/>
    <frame tileid="1364" duration="150"/>
   </animation>
  </tile>
  <tile id="790">
   <animation>
    <frame tileid="790" duration="150"/>
    <frame tileid="905" duration="150"/>
    <frame tileid="1020" duration="150"/>
    <frame tileid="1135" duration="150"/>
    <frame tileid="1250" duration="150"/>
    <frame tileid="1365" duration="150"/>
   </animation>
  </tile>
  <tile id="791">
   <animation>
    <frame tileid="791" duration="150"/>
    <frame tileid="906" duration="150"/>
    <frame tileid="1021" duration="150"/>
    <frame tileid="1136" duration="150"/>
    <frame tileid="1251" duration="150"/>
    <frame tileid="1366" duration="150"/>
   </animation>
  </tile>
  <tile id="792">
   <animation>
    <frame tileid="792" duration="150"/>
    <frame tileid="907" duration="150"/>
    <frame tileid="1022" duration="150"/>
    <frame tileid="1137" duration="150"/>
    <frame tileid="1252" duration="150"/>
    <frame tileid="1367" duration="150"/>
   </animation>
  </tile>
  <tile id="793">
   <animation>
    <frame tileid="793" duration="150"/>
    <frame tileid="908" duration="150"/>
    <frame tileid="1023" duration="150"/>
    <frame tileid="1138" duration="150"/>
    <frame tileid="1253" duration="150"/>
    <frame tileid="1368" duration="150"/>
   </animation>
  </tile>
  <tile id="794">
   <animation>
    <frame tileid="794" duration="150"/>
    <frame tileid="909" duration="150"/>
    <frame tileid="1024" duration="150"/>
    <frame tileid="1139" duration="150"/>
    <frame tileid="1254" duration="150"/>
    <frame tileid="1369" duration="150"/>
   </animation>
  </tile>
 </tileset>
 <tileset firstgid="9438" name="Objects" tilewidth="16" tileheight="16" tilecount="3600" columns="75">
  <image source="../Art/UnDead/Objects.png" width="1200" height="768"/>
 </tileset>
 <tileset firstgid="13038" name="Objects_animated" tilewidth="16" tileheight="16" tilecount="1716" columns="44">
  <image source="../Art/UnDead/Objects_animated.png" width="704" height="624"/>
  <tile id="136">
   <animation>
    <frame tileid="136" duration="150"/>
    <frame tileid="143" duration="150"/>
    <frame tileid="150" duration="150"/>
    <frame tileid="157" duration="150"/>
    <frame tileid="164" duration="150"/>
    <frame tileid="171" duration="150"/>
   </animation>
  </tile>
  <tile id="180">
   <animation>
    <frame tileid="180" duration="150"/>
    <frame tileid="187" duration="150"/>
    <frame tileid="194" duration="150"/>
    <frame tileid="201" duration="150"/>
    <frame tileid="208" duration="150"/>
    <frame tileid="215" duration="150"/>
   </animation>
  </tile>
  <tile id="181">
   <animation>
    <frame tileid="181" duration="150"/>
    <frame tileid="188" duration="150"/>
    <frame tileid="195" duration="150"/>
    <frame tileid="202" duration="150"/>
    <frame tileid="209" duration="150"/>
    <frame tileid="216" duration="150"/>
   </animation>
  </tile>
  <tile id="222">
   <animation>
    <frame tileid="222" duration="150"/>
    <frame tileid="229" duration="150"/>
    <frame tileid="236" duration="150"/>
    <frame tileid="243" duration="150"/>
    <frame tileid="250" duration="150"/>
    <frame tileid="257" duration="150"/>
   </animation>
  </tile>
  <tile id="223">
   <animation>
    <frame tileid="223" duration="150"/>
    <frame tileid="230" duration="150"/>
    <frame tileid="237" duration="150"/>
    <frame tileid="244" duration="150"/>
    <frame tileid="251" duration="150"/>
    <frame tileid="258" duration="150"/>
   </animation>
  </tile>
  <tile id="224">
   <animation>
    <frame tileid="224" duration="150"/>
    <frame tileid="231" duration="150"/>
    <frame tileid="238" duration="150"/>
    <frame tileid="245" duration="150"/>
    <frame tileid="252" duration="150"/>
    <frame tileid="259" duration="150"/>
   </animation>
  </tile>
  <tile id="225">
   <animation>
    <frame tileid="225" duration="150"/>
    <frame tileid="232" duration="150"/>
    <frame tileid="239" duration="150"/>
    <frame tileid="246" duration="150"/>
    <frame tileid="253" duration="150"/>
    <frame tileid="260" duration="150"/>
   </animation>
  </tile>
  <tile id="226">
   <animation>
    <frame tileid="226" duration="150"/>
    <frame tileid="233" duration="150"/>
    <frame tileid="240" duration="150"/>
    <frame tileid="247" duration="150"/>
    <frame tileid="254" duration="150"/>
    <frame tileid="261" duration="150"/>
   </animation>
  </tile>
  <tile id="266">
   <animation>
    <frame tileid="266" duration="150"/>
    <frame tileid="273" duration="150"/>
    <frame tileid="280" duration="150"/>
    <frame tileid="287" duration="150"/>
    <frame tileid="294" duration="150"/>
    <frame tileid="301" duration="150"/>
   </animation>
  </tile>
  <tile id="267">
   <animation>
    <frame tileid="267" duration="150"/>
    <frame tileid="274" duration="150"/>
    <frame tileid="281" duration="150"/>
    <frame tileid="288" duration="150"/>
    <frame tileid="295" duration="150"/>
    <frame tileid="302" duration="150"/>
   </animation>
  </tile>
  <tile id="268">
   <animation>
    <frame tileid="268" duration="150"/>
    <frame tileid="275" duration="150"/>
    <frame tileid="282" duration="150"/>
    <frame tileid="289" duration="150"/>
    <frame tileid="296" duration="150"/>
    <frame tileid="303" duration="150"/>
   </animation>
  </tile>
  <tile id="269">
   <animation>
    <frame tileid="269" duration="150"/>
    <frame tileid="276" duration="150"/>
    <frame tileid="283" duration="150"/>
    <frame tileid="290" duration="150"/>
    <frame tileid="297" duration="150"/>
    <frame tileid="304" duration="150"/>
   </animation>
  </tile>
  <tile id="270">
   <animation>
    <frame tileid="270" duration="150"/>
    <frame tileid="277" duration="150"/>
    <frame tileid="284" duration="150"/>
    <frame tileid="291" duration="150"/>
    <frame tileid="298" duration="150"/>
    <frame tileid="305" duration="150"/>
   </animation>
  </tile>
  <tile id="310">
   <animation>
    <frame tileid="310" duration="150"/>
    <frame tileid="317" duration="150"/>
    <frame tileid="324" duration="150"/>
    <frame tileid="331" duration="150"/>
    <frame tileid="338" duration="150"/>
    <frame tileid="345" duration="150"/>
   </animation>
  </tile>
  <tile id="311">
   <animation>
    <frame tileid="311" duration="150"/>
    <frame tileid="318" duration="150"/>
    <frame tileid="325" duration="150"/>
    <frame tileid="332" duration="150"/>
    <frame tileid="339" duration="150"/>
    <frame tileid="346" duration="150"/>
   </animation>
  </tile>
  <tile id="312">
   <animation>
    <frame tileid="312" duration="150"/>
    <frame tileid="319" duration="150"/>
    <frame tileid="326" duration="150"/>
    <frame tileid="333" duration="150"/>
    <frame tileid="340" duration="150"/>
    <frame tileid="347" duration="150"/>
   </animation>
  </tile>
  <tile id="355">
   <animation>
    <frame tileid="355" duration="150"/>
    <frame tileid="362" duration="150"/>
    <frame tileid="369" duration="150"/>
    <frame tileid="376" duration="150"/>
    <frame tileid="383" duration="150"/>
    <frame tileid="390" duration="150"/>
   </animation>
  </tile>
  <tile id="442">
   <animation>
    <frame tileid="442" duration="150"/>
    <frame tileid="449" duration="150"/>
    <frame tileid="456" duration="150"/>
    <frame tileid="463" duration="150"/>
    <frame tileid="470" duration="150"/>
    <frame tileid="477" duration="150"/>
   </animation>
  </tile>
  <tile id="485">
   <animation>
    <frame tileid="485" duration="150"/>
    <frame tileid="492" duration="150"/>
    <frame tileid="499" duration="150"/>
    <frame tileid="506" duration="150"/>
    <frame tileid="513" duration="150"/>
    <frame tileid="520" duration="150"/>
   </animation>
  </tile>
  <tile id="486">
   <animation>
    <frame tileid="486" duration="150"/>
    <frame tileid="493" duration="150"/>
    <frame tileid="500" duration="150"/>
    <frame tileid="507" duration="150"/>
    <frame tileid="514" duration="150"/>
    <frame tileid="521" duration="150"/>
   </animation>
  </tile>
  <tile id="487">
   <animation>
    <frame tileid="487" duration="150"/>
    <frame tileid="494" duration="150"/>
    <frame tileid="501" duration="150"/>
    <frame tileid="508" duration="150"/>
    <frame tileid="515" duration="150"/>
    <frame tileid="522" duration="150"/>
   </animation>
  </tile>
  <tile id="488">
   <animation>
    <frame tileid="488" duration="150"/>
    <frame tileid="495" duration="150"/>
    <frame tileid="502" duration="150"/>
    <frame tileid="509" duration="150"/>
    <frame tileid="516" duration="150"/>
    <frame tileid="523" duration="150"/>
   </animation>
  </tile>
  <tile id="529">
   <animation>
    <frame tileid="529" duration="150"/>
    <frame tileid="536" duration="150"/>
    <frame tileid="543" duration="150"/>
    <frame tileid="550" duration="150"/>
    <frame tileid="557" duration="150"/>
    <frame tileid="564" duration="150"/>
   </animation>
  </tile>
  <tile id="530">
   <animation>
    <frame tileid="530" duration="150"/>
    <frame tileid="537" duration="150"/>
    <frame tileid="544" duration="150"/>
    <frame tileid="551" duration="150"/>
    <frame tileid="558" duration="150"/>
    <frame tileid="565" duration="150"/>
   </animation>
  </tile>
  <tile id="531">
   <animation>
    <frame tileid="531" duration="150"/>
    <frame tileid="538" duration="150"/>
    <frame tileid="545" duration="150"/>
    <frame tileid="552" duration="150"/>
    <frame tileid="559" duration="150"/>
    <frame tileid="566" duration="150"/>
   </animation>
  </tile>
  <tile id="532">
   <animation>
    <frame tileid="532" duration="150"/>
    <frame tileid="539" duration="150"/>
    <frame tileid="546" duration="150"/>
    <frame tileid="553" duration="150"/>
    <frame tileid="560" duration="150"/>
    <frame tileid="567" duration="150"/>
   </animation>
  </tile>
  <tile id="573">
   <animation>
    <frame tileid="573" duration="150"/>
    <frame tileid="580" duration="150"/>
    <frame tileid="587" duration="150"/>
    <frame tileid="594" duration="150"/>
    <frame tileid="601" duration="150"/>
    <frame tileid="608" duration="150"/>
   </animation>
  </tile>
  <tile id="574">
   <animation>
    <frame tileid="574" duration="150"/>
    <frame tileid="581" duration="150"/>
    <frame tileid="588" duration="150"/>
    <frame tileid="595" duration="150"/>
    <frame tileid="602" duration="150"/>
    <frame tileid="609" duration="150"/>
   </animation>
  </tile>
  <tile id="575">
   <animation>
    <frame tileid="575" duration="150"/>
    <frame tileid="582" duration="150"/>
    <frame tileid="589" duration="150"/>
    <frame tileid="596" duration="150"/>
    <frame tileid="603" duration="150"/>
    <frame tileid="610" duration="150"/>
   </animation>
  </tile>
  <tile id="576">
   <animation>
    <frame tileid="576" duration="150"/>
    <frame tileid="583" duration="150"/>
    <frame tileid="590" duration="150"/>
    <frame tileid="597" duration="150"/>
    <frame tileid="604" duration="150"/>
    <frame tileid="611" duration="150"/>
   </animation>
  </tile>
  <tile id="617">
   <animation>
    <frame tileid="617" duration="150"/>
    <frame tileid="624" duration="150"/>
    <frame tileid="631" duration="150"/>
    <frame tileid="638" duration="150"/>
    <frame tileid="645" duration="150"/>
    <frame tileid="652" duration="150"/>
   </animation>
  </tile>
  <tile id="618">
   <animation>
    <frame tileid="618" duration="150"/>
    <frame tileid="625" duration="150"/>
    <frame tileid="632" duration="150"/>
    <frame tileid="639" duration="150"/>
    <frame tileid="646" duration="150"/>
    <frame tileid="653" duration="150"/>
   </animation>
  </tile>
  <tile id="619">
   <animation>
    <frame tileid="619" duration="150"/>
    <frame tileid="626" duration="150"/>
    <frame tileid="633" duration="150"/>
    <frame tileid="640" duration="150"/>
    <frame tileid="647" duration="150"/>
    <frame tileid="654" duration="150"/>
   </animation>
  </tile>
  <tile id="620">
   <animation>
    <frame tileid="620" duration="150"/>
    <frame tileid="627" duration="150"/>
    <frame tileid="634" duration="150"/>
    <frame tileid="641" duration="150"/>
    <frame tileid="648" duration="150"/>
    <frame tileid="655" duration="150"/>
   </animation>
  </tile>
  <tile id="705">
   <animation>
    <frame tileid="705" duration="150"/>
    <frame tileid="712" duration="150"/>
    <frame tileid="719" duration="150"/>
    <frame tileid="726" duration="150"/>
    <frame tileid="733" duration="150"/>
    <frame tileid="740" duration="150"/>
   </animation>
  </tile>
  <tile id="706">
   <animation>
    <frame tileid="706" duration="150"/>
    <frame tileid="713" duration="150"/>
    <frame tileid="720" duration="150"/>
    <frame tileid="727" duration="150"/>
    <frame tileid="734" duration="150"/>
    <frame tileid="741" duration="150"/>
   </animation>
  </tile>
  <tile id="707">
   <animation>
    <frame tileid="707" duration="150"/>
    <frame tileid="714" duration="150"/>
    <frame tileid="721" duration="150"/>
    <frame tileid="728" duration="150"/>
    <frame tileid="735" duration="150"/>
    <frame tileid="742" duration="150"/>
   </animation>
  </tile>
  <tile id="749">
   <animation>
    <frame tileid="749" duration="150"/>
    <frame tileid="756" duration="150"/>
    <frame tileid="763" duration="150"/>
    <frame tileid="770" duration="150"/>
    <frame tileid="777" duration="150"/>
    <frame tileid="784" duration="150"/>
   </animation>
  </tile>
  <tile id="750">
   <animation>
    <frame tileid="750" duration="150"/>
    <frame tileid="757" duration="150"/>
    <frame tileid="764" duration="150"/>
    <frame tileid="771" duration="150"/>
    <frame tileid="778" duration="150"/>
    <frame tileid="785" duration="150"/>
   </animation>
  </tile>
  <tile id="751">
   <animation>
    <frame tileid="751" duration="150"/>
    <frame tileid="758" duration="150"/>
    <frame tileid="765" duration="150"/>
    <frame tileid="772" duration="150"/>
    <frame tileid="779" duration="150"/>
    <frame tileid="786" duration="150"/>
   </animation>
  </tile>
  <tile id="794">
   <animation>
    <frame tileid="794" duration="150"/>
    <frame tileid="801" duration="150"/>
    <frame tileid="808" duration="150"/>
    <frame tileid="815" duration="150"/>
    <frame tileid="822" duration="150"/>
    <frame tileid="829" duration="150"/>
   </animation>
  </tile>
  <tile id="795">
   <animation>
    <frame tileid="795" duration="150"/>
    <frame tileid="802" duration="150"/>
    <frame tileid="809" duration="150"/>
    <frame tileid="816" duration="150"/>
    <frame tileid="823" duration="150"/>
    <frame tileid="830" duration="150"/>
   </animation>
  </tile>
  <tile id="882">
   <animation>
    <frame tileid="882" duration="150"/>
    <frame tileid="889" duration="150"/>
    <frame tileid="896" duration="150"/>
    <frame tileid="903" duration="150"/>
    <frame tileid="910" duration="150"/>
    <frame tileid="917" duration="150"/>
   </animation>
  </tile>
  <tile id="883">
   <animation>
    <frame tileid="883" duration="150"/>
    <frame tileid="890" duration="150"/>
    <frame tileid="897" duration="150"/>
    <frame tileid="904" duration="150"/>
    <frame tileid="911" duration="150"/>
    <frame tileid="918" duration="150"/>
   </animation>
  </tile>
  <tile id="884">
   <animation>
    <frame tileid="884" duration="150"/>
    <frame tileid="891" duration="150"/>
    <frame tileid="898" duration="150"/>
    <frame tileid="905" duration="150"/>
    <frame tileid="912" duration="150"/>
    <frame tileid="919" duration="150"/>
   </animation>
  </tile>
  <tile id="885">
   <animation>
    <frame tileid="885" duration="150"/>
    <frame tileid="892" duration="150"/>
    <frame tileid="899" duration="150"/>
    <frame tileid="906" duration="150"/>
    <frame tileid="913" duration="150"/>
    <frame tileid="920" duration="150"/>
   </animation>
  </tile>
  <tile id="926">
   <animation>
    <frame tileid="926" duration="150"/>
    <frame tileid="933" duration="150"/>
    <frame tileid="940" duration="150"/>
    <frame tileid="947" duration="150"/>
    <frame tileid="954" duration="150"/>
    <frame tileid="961" duration="150"/>
   </animation>
  </tile>
  <tile id="927">
   <animation>
    <frame tileid="927" duration="150"/>
    <frame tileid="934" duration="150"/>
    <frame tileid="941" duration="150"/>
    <frame tileid="948" duration="150"/>
    <frame tileid="955" duration="150"/>
    <frame tileid="962" duration="150"/>
   </animation>
  </tile>
  <tile id="928">
   <animation>
    <frame tileid="928" duration="150"/>
    <frame tileid="935" duration="150"/>
    <frame tileid="942" duration="150"/>
    <frame tileid="949" duration="150"/>
    <frame tileid="956" duration="150"/>
    <frame tileid="963" duration="150"/>
   </animation>
  </tile>
  <tile id="929">
   <animation>
    <frame tileid="929" duration="150"/>
    <frame tileid="936" duration="150"/>
    <frame tileid="943" duration="150"/>
    <frame tileid="950" duration="150"/>
    <frame tileid="957" duration="150"/>
    <frame tileid="964" duration="150"/>
   </animation>
  </tile>
  <tile id="970">
   <animation>
    <frame tileid="970" duration="150"/>
    <frame tileid="977" duration="150"/>
    <frame tileid="984" duration="150"/>
    <frame tileid="991" duration="150"/>
    <frame tileid="998" duration="150"/>
    <frame tileid="1005" duration="150"/>
   </animation>
  </tile>
  <tile id="971">
   <animation>
    <frame tileid="971" duration="150"/>
    <frame tileid="978" duration="150"/>
    <frame tileid="985" duration="150"/>
    <frame tileid="992" duration="150"/>
    <frame tileid="999" duration="150"/>
    <frame tileid="1006" duration="150"/>
   </animation>
  </tile>
  <tile id="972">
   <animation>
    <frame tileid="972" duration="150"/>
    <frame tileid="979" duration="150"/>
    <frame tileid="986" duration="150"/>
    <frame tileid="993" duration="150"/>
    <frame tileid="1000" duration="150"/>
    <frame tileid="1007" duration="150"/>
   </animation>
  </tile>
  <tile id="973">
   <animation>
    <frame tileid="973" duration="150"/>
    <frame tileid="980" duration="150"/>
    <frame tileid="987" duration="150"/>
    <frame tileid="994" duration="150"/>
    <frame tileid="1001" duration="150"/>
    <frame tileid="1008" duration="150"/>
   </animation>
  </tile>
  <tile id="1015">
   <animation>
    <frame tileid="1015" duration="150"/>
    <frame tileid="1022" duration="150"/>
    <frame tileid="1029" duration="150"/>
    <frame tileid="1036" duration="150"/>
    <frame tileid="1043" duration="150"/>
    <frame tileid="1050" duration="150"/>
   </animation>
  </tile>
  <tile id="1016">
   <animation>
    <frame tileid="1016" duration="150"/>
    <frame tileid="1023" duration="150"/>
    <frame tileid="1030" duration="150"/>
    <frame tileid="1037" duration="150"/>
    <frame tileid="1044" duration="150"/>
    <frame tileid="1051" duration="150"/>
   </animation>
  </tile>
  <tile id="1147">
   <animation>
    <frame tileid="1147" duration="150"/>
    <frame tileid="1154" duration="150"/>
    <frame tileid="1161" duration="150"/>
    <frame tileid="1168" duration="150"/>
    <frame tileid="1175" duration="150"/>
    <frame tileid="1182" duration="150"/>
   </animation>
  </tile>
  <tile id="1191">
   <animation>
    <frame tileid="1191" duration="150"/>
    <frame tileid="1198" duration="150"/>
    <frame tileid="1205" duration="150"/>
    <frame tileid="1212" duration="150"/>
    <frame tileid="1219" duration="150"/>
    <frame tileid="1226" duration="150"/>
   </animation>
  </tile>
  <tile id="1234">
   <animation>
    <frame tileid="1234" duration="150"/>
    <frame tileid="1241" duration="150"/>
    <frame tileid="1248" duration="150"/>
    <frame tileid="1255" duration="150"/>
    <frame tileid="1262" duration="150"/>
    <frame tileid="1269" duration="150"/>
   </animation>
  </tile>
  <tile id="1235">
   <animation>
    <frame tileid="1235" duration="150"/>
    <frame tileid="1242" duration="150"/>
    <frame tileid="1249" duration="150"/>
    <frame tileid="1256" duration="150"/>
    <frame tileid="1263" duration="150"/>
    <frame tileid="1270" duration="150"/>
   </animation>
  </tile>
  <tile id="1236">
   <animation>
    <frame tileid="1236" duration="150"/>
    <frame tileid="1243" duration="150"/>
    <frame tileid="1250" duration="150"/>
    <frame tileid="1257" duration="150"/>
    <frame tileid="1264" duration="150"/>
    <frame tileid="1271" duration="150"/>
   </animation>
  </tile>
  <tile id="1278">
   <animation>
    <frame tileid="1278" duration="150"/>
    <frame tileid="1285" duration="150"/>
    <frame tileid="1292" duration="150"/>
    <frame tileid="1299" duration="150"/>
    <frame tileid="1306" duration="150"/>
    <frame tileid="1313" duration="150"/>
   </animation>
  </tile>
  <tile id="1279">
   <animation>
    <frame tileid="1279" duration="150"/>
    <frame tileid="1286" duration="150"/>
    <frame tileid="1293" duration="150"/>
    <frame tileid="1300" duration="150"/>
    <frame tileid="1307" duration="150"/>
    <frame tileid="1314" duration="150"/>
   </animation>
  </tile>
  <tile id="1280">
   <animation>
    <frame tileid="1280" duration="150"/>
    <frame tileid="1287" duration="150"/>
    <frame tileid="1294" duration="150"/>
    <frame tileid="1301" duration="150"/>
    <frame tileid="1308" duration="150"/>
    <frame tileid="1315" duration="150"/>
   </animation>
  </tile>
  <tile id="1323">
   <animation>
    <frame tileid="1323" duration="150"/>
    <frame tileid="1330" duration="150"/>
    <frame tileid="1337" duration="150"/>
    <frame tileid="1344" duration="150"/>
    <frame tileid="1351" duration="150"/>
    <frame tileid="1358" duration="150"/>
   </animation>
  </tile>
  <tile id="1324">
   <animation>
    <frame tileid="1324" duration="150"/>
    <frame tileid="1331" duration="150"/>
    <frame tileid="1338" duration="150"/>
    <frame tileid="1345" duration="150"/>
    <frame tileid="1352" duration="150"/>
    <frame tileid="1359" duration="150"/>
   </animation>
  </tile>
  <tile id="1367">
   <animation>
    <frame tileid="1367" duration="150"/>
    <frame tileid="1374" duration="150"/>
    <frame tileid="1381" duration="150"/>
    <frame tileid="1388" duration="150"/>
    <frame tileid="1395" duration="150"/>
    <frame tileid="1402" duration="150"/>
   </animation>
  </tile>
  <tile id="1498">
   <animation>
    <frame tileid="1498" duration="150"/>
    <frame tileid="1505" duration="150"/>
    <frame tileid="1512" duration="150"/>
    <frame tileid="1519" duration="150"/>
    <frame tileid="1526" duration="150"/>
    <frame tileid="1533" duration="150"/>
   </animation>
  </tile>
  <tile id="1542">
   <animation>
    <frame tileid="1542" duration="150"/>
    <frame tileid="1549" duration="150"/>
    <frame tileid="1556" duration="150"/>
    <frame tileid="1563" duration="150"/>
    <frame tileid="1570" duration="150"/>
    <frame tileid="1577" duration="150"/>
   </animation>
  </tile>
  <tile id="1586">
   <animation>
    <frame tileid="1586" duration="150"/>
    <frame tileid="1593" duration="150"/>
    <frame tileid="1600" duration="150"/>
    <frame tileid="1607" duration="150"/>
    <frame tileid="1614" duration="150"/>
    <frame tileid="1621" duration="150"/>
   </animation>
  </tile>
 </tileset>
 <tileset firstgid="14754" name="Objects_animated2" tilewidth="16" tileheight="16" tilecount="1716" columns="44">
  <image source="../Art/UnDead/Objects_animated2.png" width="704" height="624"/>
  <tile id="136">
   <animation>
    <frame tileid="136" duration="150"/>
    <frame tileid="143" duration="150"/>
    <frame tileid="150" duration="150"/>
    <frame tileid="157" duration="150"/>
    <frame tileid="164" duration="150"/>
    <frame tileid="171" duration="150"/>
   </animation>
  </tile>
  <tile id="180">
   <animation>
    <frame tileid="180" duration="150"/>
    <frame tileid="187" duration="150"/>
    <frame tileid="194" duration="150"/>
    <frame tileid="201" duration="150"/>
    <frame tileid="208" duration="150"/>
    <frame tileid="215" duration="150"/>
   </animation>
  </tile>
  <tile id="181">
   <animation>
    <frame tileid="181" duration="150"/>
    <frame tileid="188" duration="150"/>
    <frame tileid="195" duration="150"/>
    <frame tileid="202" duration="150"/>
    <frame tileid="209" duration="150"/>
    <frame tileid="216" duration="150"/>
   </animation>
  </tile>
  <tile id="222">
   <animation>
    <frame tileid="222" duration="150"/>
    <frame tileid="229" duration="150"/>
    <frame tileid="236" duration="150"/>
    <frame tileid="243" duration="150"/>
    <frame tileid="250" duration="150"/>
    <frame tileid="257" duration="150"/>
   </animation>
  </tile>
  <tile id="223">
   <animation>
    <frame tileid="223" duration="150"/>
    <frame tileid="230" duration="150"/>
    <frame tileid="237" duration="150"/>
    <frame tileid="244" duration="150"/>
    <frame tileid="251" duration="150"/>
    <frame tileid="258" duration="150"/>
   </animation>
  </tile>
  <tile id="224">
   <animation>
    <frame tileid="224" duration="150"/>
    <frame tileid="231" duration="150"/>
    <frame tileid="238" duration="150"/>
    <frame tileid="245" duration="150"/>
    <frame tileid="252" duration="150"/>
    <frame tileid="259" duration="150"/>
   </animation>
  </tile>
  <tile id="225">
   <animation>
    <frame tileid="225" duration="150"/>
    <frame tileid="232" duration="150"/>
    <frame tileid="239" duration="150"/>
    <frame tileid="246" duration="150"/>
    <frame tileid="253" duration="150"/>
    <frame tileid="260" duration="150"/>
   </animation>
  </tile>
  <tile id="226">
   <animation>
    <frame tileid="226" duration="150"/>
    <frame tileid="233" duration="150"/>
    <frame tileid="240" duration="150"/>
    <frame tileid="247" duration="150"/>
    <frame tileid="254" duration="150"/>
    <frame tileid="261" duration="150"/>
   </animation>
  </tile>
  <tile id="266">
   <animation>
    <frame tileid="266" duration="150"/>
    <frame tileid="273" duration="150"/>
    <frame tileid="280" duration="150"/>
    <frame tileid="287" duration="150"/>
    <frame tileid="294" duration="150"/>
    <frame tileid="301" duration="150"/>
   </animation>
  </tile>
  <tile id="267">
   <animation>
    <frame tileid="267" duration="150"/>
    <frame tileid="274" duration="150"/>
    <frame tileid="281" duration="150"/>
    <frame tileid="288" duration="150"/>
    <frame tileid="295" duration="150"/>
    <frame tileid="302" duration="150"/>
   </animation>
  </tile>
  <tile id="268">
   <animation>
    <frame tileid="268" duration="150"/>
    <frame tileid="275" duration="150"/>
    <frame tileid="282" duration="150"/>
    <frame tileid="289" duration="150"/>
    <frame tileid="296" duration="150"/>
    <frame tileid="303" duration="150"/>
   </animation>
  </tile>
  <tile id="269">
   <animation>
    <frame tileid="269" duration="150"/>
    <frame tileid="276" duration="150"/>
    <frame tileid="283" duration="150"/>
    <frame tileid="290" duration="150"/>
    <frame tileid="297" duration="150"/>
    <frame tileid="304" duration="150"/>
   </animation>
  </tile>
  <tile id="270">
   <animation>
    <frame tileid="270" duration="150"/>
    <frame tileid="277" duration="150"/>
    <frame tileid="284" duration="150"/>
    <frame tileid="291" duration="150"/>
    <frame tileid="298" duration="150"/>
    <frame tileid="305" duration="150"/>
   </animation>
  </tile>
  <tile id="310">
   <animation>
    <frame tileid="310" duration="150"/>
    <frame tileid="317" duration="150"/>
    <frame tileid="324" duration="150"/>
    <frame tileid="331" duration="150"/>
    <frame tileid="338" duration="150"/>
    <frame tileid="345" duration="150"/>
   </animation>
  </tile>
  <tile id="311">
   <animation>
    <frame tileid="311" duration="150"/>
    <frame tileid="318" duration="150"/>
    <frame tileid="325" duration="150"/>
    <frame tileid="332" duration="150"/>
    <frame tileid="339" duration="150"/>
    <frame tileid="346" duration="150"/>
   </animation>
  </tile>
  <tile id="312">
   <animation>
    <frame tileid="312" duration="150"/>
    <frame tileid="319" duration="150"/>
    <frame tileid="326" duration="150"/>
    <frame tileid="333" duration="150"/>
    <frame tileid="340" duration="150"/>
    <frame tileid="347" duration="150"/>
   </animation>
  </tile>
  <tile id="355">
   <animation>
    <frame tileid="355" duration="150"/>
    <frame tileid="362" duration="150"/>
    <frame tileid="369" duration="150"/>
    <frame tileid="376" duration="150"/>
    <frame tileid="383" duration="150"/>
    <frame tileid="390" duration="150"/>
   </animation>
  </tile>
  <tile id="442">
   <animation>
    <frame tileid="442" duration="150"/>
    <frame tileid="449" duration="150"/>
    <frame tileid="456" duration="150"/>
    <frame tileid="463" duration="150"/>
    <frame tileid="470" duration="150"/>
    <frame tileid="477" duration="150"/>
   </animation>
  </tile>
  <tile id="485">
   <animation>
    <frame tileid="485" duration="150"/>
    <frame tileid="492" duration="150"/>
    <frame tileid="499" duration="150"/>
    <frame tileid="506" duration="150"/>
    <frame tileid="513" duration="150"/>
    <frame tileid="520" duration="150"/>
   </animation>
  </tile>
  <tile id="486">
   <animation>
    <frame tileid="486" duration="150"/>
    <frame tileid="493" duration="150"/>
    <frame tileid="500" duration="150"/>
    <frame tileid="507" duration="150"/>
    <frame tileid="514" duration="150"/>
    <frame tileid="521" duration="150"/>
   </animation>
  </tile>
  <tile id="487">
   <animation>
    <frame tileid="487" duration="150"/>
    <frame tileid="494" duration="150"/>
    <frame tileid="501" duration="150"/>
    <frame tileid="508" duration="150"/>
    <frame tileid="515" duration="150"/>
    <frame tileid="522" duration="150"/>
   </animation>
  </tile>
  <tile id="488">
   <animation>
    <frame tileid="488" duration="150"/>
    <frame tileid="495" duration="150"/>
    <frame tileid="502" duration="150"/>
    <frame tileid="509" duration="150"/>
    <frame tileid="516" duration="150"/>
    <frame tileid="523" duration="150"/>
   </animation>
  </tile>
  <tile id="529">
   <animation>
    <frame tileid="529" duration="150"/>
    <frame tileid="536" duration="150"/>
    <frame tileid="543" duration="150"/>
    <frame tileid="550" duration="150"/>
    <frame tileid="557" duration="150"/>
    <frame tileid="564" duration="150"/>
   </animation>
  </tile>
  <tile id="530">
   <animation>
    <frame tileid="530" duration="150"/>
    <frame tileid="537" duration="150"/>
    <frame tileid="544" duration="150"/>
    <frame tileid="551" duration="150"/>
    <frame tileid="558" duration="150"/>
    <frame tileid="565" duration="150"/>
   </animation>
  </tile>
  <tile id="531">
   <animation>
    <frame tileid="531" duration="150"/>
    <frame tileid="538" duration="150"/>
    <frame tileid="545" duration="150"/>
    <frame tileid="552" duration="150"/>
    <frame tileid="559" duration="150"/>
    <frame tileid="566" duration="150"/>
   </animation>
  </tile>
  <tile id="532">
   <animation>
    <frame tileid="532" duration="150"/>
    <frame tileid="539" duration="150"/>
    <frame tileid="546" duration="150"/>
    <frame tileid="553" duration="150"/>
    <frame tileid="560" duration="150"/>
    <frame tileid="567" duration="150"/>
   </animation>
  </tile>
  <tile id="573">
   <animation>
    <frame tileid="573" duration="150"/>
    <frame tileid="580" duration="150"/>
    <frame tileid="587" duration="150"/>
    <frame tileid="594" duration="150"/>
    <frame tileid="601" duration="150"/>
    <frame tileid="608" duration="150"/>
   </animation>
  </tile>
  <tile id="574">
   <animation>
    <frame tileid="574" duration="150"/>
    <frame tileid="581" duration="150"/>
    <frame tileid="588" duration="150"/>
    <frame tileid="595" duration="150"/>
    <frame tileid="602" duration="150"/>
    <frame tileid="609" duration="150"/>
   </animation>
  </tile>
  <tile id="575">
   <animation>
    <frame tileid="575" duration="150"/>
    <frame tileid="582" duration="150"/>
    <frame tileid="589" duration="150"/>
    <frame tileid="596" duration="150"/>
    <frame tileid="603" duration="150"/>
    <frame tileid="610" duration="150"/>
   </animation>
  </tile>
  <tile id="576">
   <animation>
    <frame tileid="576" duration="150"/>
    <frame tileid="583" duration="150"/>
    <frame tileid="590" duration="150"/>
    <frame tileid="597" duration="150"/>
    <frame tileid="604" duration="150"/>
    <frame tileid="611" duration="150"/>
   </animation>
  </tile>
  <tile id="617">
   <animation>
    <frame tileid="617" duration="150"/>
    <frame tileid="624" duration="150"/>
    <frame tileid="631" duration="150"/>
    <frame tileid="638" duration="150"/>
    <frame tileid="645" duration="150"/>
    <frame tileid="652" duration="150"/>
   </animation>
  </tile>
  <tile id="618">
   <animation>
    <frame tileid="618" duration="150"/>
    <frame tileid="625" duration="150"/>
    <frame tileid="632" duration="150"/>
    <frame tileid="639" duration="150"/>
    <frame tileid="646" duration="150"/>
    <frame tileid="653" duration="150"/>
   </animation>
  </tile>
  <tile id="619">
   <animation>
    <frame tileid="619" duration="150"/>
    <frame tileid="626" duration="150"/>
    <frame tileid="633" duration="150"/>
    <frame tileid="640" duration="150"/>
    <frame tileid="647" duration="150"/>
    <frame tileid="654" duration="150"/>
   </animation>
  </tile>
  <tile id="620">
   <animation>
    <frame tileid="620" duration="150"/>
    <frame tileid="627" duration="150"/>
    <frame tileid="634" duration="150"/>
    <frame tileid="641" duration="150"/>
    <frame tileid="648" duration="150"/>
    <frame tileid="655" duration="150"/>
   </animation>
  </tile>
  <tile id="705">
   <animation>
    <frame tileid="705" duration="150"/>
    <frame tileid="712" duration="150"/>
    <frame tileid="719" duration="150"/>
    <frame tileid="726" duration="150"/>
    <frame tileid="733" duration="150"/>
    <frame tileid="740" duration="150"/>
   </animation>
  </tile>
  <tile id="706">
   <animation>
    <frame tileid="706" duration="150"/>
    <frame tileid="713" duration="150"/>
    <frame tileid="720" duration="150"/>
    <frame tileid="727" duration="150"/>
    <frame tileid="734" duration="150"/>
    <frame tileid="741" duration="150"/>
   </animation>
  </tile>
  <tile id="707">
   <animation>
    <frame tileid="707" duration="150"/>
    <frame tileid="714" duration="150"/>
    <frame tileid="721" duration="150"/>
    <frame tileid="728" duration="150"/>
    <frame tileid="735" duration="150"/>
    <frame tileid="742" duration="150"/>
   </animation>
  </tile>
  <tile id="749">
   <animation>
    <frame tileid="749" duration="150"/>
    <frame tileid="756" duration="150"/>
    <frame tileid="763" duration="150"/>
    <frame tileid="770" duration="150"/>
    <frame tileid="777" duration="150"/>
    <frame tileid="784" duration="150"/>
   </animation>
  </tile>
  <tile id="750">
   <animation>
    <frame tileid="750" duration="150"/>
    <frame tileid="757" duration="150"/>
    <frame tileid="764" duration="150"/>
    <frame tileid="771" duration="150"/>
    <frame tileid="778" duration="150"/>
    <frame tileid="785" duration="150"/>
   </animation>
  </tile>
  <tile id="751">
   <animation>
    <frame tileid="751" duration="150"/>
    <frame tileid="758" duration="150"/>
    <frame tileid="765" duration="150"/>
    <frame tileid="772" duration="150"/>
    <frame tileid="779" duration="150"/>
    <frame tileid="786" duration="150"/>
   </animation>
  </tile>
  <tile id="794">
   <animation>
    <frame tileid="794" duration="150"/>
    <frame tileid="801" duration="150"/>
    <frame tileid="808" duration="150"/>
    <frame tileid="815" duration="150"/>
    <frame tileid="822" duration="150"/>
    <frame tileid="829" duration="150"/>
   </animation>
  </tile>
  <tile id="795">
   <animation>
    <frame tileid="795" duration="150"/>
    <frame tileid="802" duration="150"/>
    <frame tileid="809" duration="150"/>
    <frame tileid="816" duration="150"/>
    <frame tileid="823" duration="150"/>
    <frame tileid="830" duration="150"/>
   </animation>
  </tile>
  <tile id="882">
   <animation>
    <frame tileid="882" duration="150"/>
    <frame tileid="889" duration="150"/>
    <frame tileid="896" duration="150"/>
    <frame tileid="903" duration="150"/>
    <frame tileid="910" duration="150"/>
    <frame tileid="917" duration="150"/>
   </animation>
  </tile>
  <tile id="883">
   <animation>
    <frame tileid="883" duration="150"/>
    <frame tileid="890" duration="150"/>
    <frame tileid="897" duration="150"/>
    <frame tileid="904" duration="150"/>
    <frame tileid="911" duration="150"/>
    <frame tileid="918" duration="150"/>
   </animation>
  </tile>
  <tile id="884">
   <animation>
    <frame tileid="884" duration="150"/>
    <frame tileid="891" duration="150"/>
    <frame tileid="898" duration="150"/>
    <frame tileid="905" duration="150"/>
    <frame tileid="912" duration="150"/>
    <frame tileid="919" duration="150"/>
   </animation>
  </tile>
  <tile id="885">
   <animation>
    <frame tileid="885" duration="150"/>
    <frame tileid="892" duration="150"/>
    <frame tileid="899" duration="150"/>
    <frame tileid="906" duration="150"/>
    <frame tileid="913" duration="150"/>
    <frame tileid="920" duration="150"/>
   </animation>
  </tile>
  <tile id="926">
   <animation>
    <frame tileid="926" duration="150"/>
    <frame tileid="933" duration="150"/>
    <frame tileid="940" duration="150"/>
    <frame tileid="947" duration="150"/>
    <frame tileid="954" duration="150"/>
    <frame tileid="961" duration="150"/>
   </animation>
  </tile>
  <tile id="927">
   <animation>
    <frame tileid="927" duration="150"/>
    <frame tileid="934" duration="150"/>
    <frame tileid="941" duration="150"/>
    <frame tileid="948" duration="150"/>
    <frame tileid="955" duration="150"/>
    <frame tileid="962" duration="150"/>
   </animation>
  </tile>
  <tile id="928">
   <animation>
    <frame tileid="928" duration="150"/>
    <frame tileid="935" duration="150"/>
    <frame tileid="942" duration="150"/>
    <frame tileid="949" duration="150"/>
    <frame tileid="956" duration="150"/>
    <frame tileid="963" duration="150"/>
   </animation>
  </tile>
  <tile id="929">
   <animation>
    <frame tileid="929" duration="150"/>
    <frame tileid="936" duration="150"/>
    <frame tileid="943" duration="150"/>
    <frame tileid="950" duration="150"/>
    <frame tileid="957" duration="150"/>
    <frame tileid="964" duration="150"/>
   </animation>
  </tile>
  <tile id="970">
   <animation>
    <frame tileid="970" duration="150"/>
    <frame tileid="977" duration="150"/>
    <frame tileid="984" duration="150"/>
    <frame tileid="991" duration="150"/>
    <frame tileid="998" duration="150"/>
    <frame tileid="1005" duration="150"/>
   </animation>
  </tile>
  <tile id="971">
   <animation>
    <frame tileid="971" duration="150"/>
    <frame tileid="978" duration="150"/>
    <frame tileid="985" duration="150"/>
    <frame tileid="992" duration="150"/>
    <frame tileid="999" duration="150"/>
    <frame tileid="1006" duration="150"/>
   </animation>
  </tile>
  <tile id="972">
   <animation>
    <frame tileid="972" duration="150"/>
    <frame tileid="979" duration="150"/>
    <frame tileid="986" duration="150"/>
    <frame tileid="993" duration="150"/>
    <frame tileid="1000" duration="150"/>
    <frame tileid="1007" duration="150"/>
   </animation>
  </tile>
  <tile id="973">
   <animation>
    <frame tileid="973" duration="150"/>
    <frame tileid="980" duration="150"/>
    <frame tileid="987" duration="150"/>
    <frame tileid="994" duration="150"/>
    <frame tileid="1001" duration="150"/>
    <frame tileid="1008" duration="150"/>
   </animation>
  </tile>
  <tile id="1015">
   <animation>
    <frame tileid="1015" duration="150"/>
    <frame tileid="1022" duration="150"/>
    <frame tileid="1029" duration="150"/>
    <frame tileid="1036" duration="150"/>
    <frame tileid="1043" duration="150"/>
    <frame tileid="1050" duration="150"/>
   </animation>
  </tile>
  <tile id="1016">
   <animation>
    <frame tileid="1016" duration="150"/>
    <frame tileid="1023" duration="150"/>
    <frame tileid="1030" duration="150"/>
    <frame tileid="1037" duration="150"/>
    <frame tileid="1044" duration="150"/>
    <frame tileid="1051" duration="150"/>
   </animation>
  </tile>
  <tile id="1147">
   <animation>
    <frame tileid="1147" duration="150"/>
    <frame tileid="1154" duration="150"/>
    <frame tileid="1161" duration="150"/>
    <frame tileid="1168" duration="150"/>
    <frame tileid="1175" duration="150"/>
    <frame tileid="1182" duration="150"/>
   </animation>
  </tile>
  <tile id="1191">
   <animation>
    <frame tileid="1191" duration="150"/>
    <frame tileid="1198" duration="150"/>
    <frame tileid="1205" duration="150"/>
    <frame tileid="1212" duration="150"/>
    <frame tileid="1219" duration="150"/>
    <frame tileid="1226" duration="150"/>
   </animation>
  </tile>
  <tile id="1234">
   <animation>
    <frame tileid="1234" duration="150"/>
    <frame tileid="1241" duration="150"/>
    <frame tileid="1248" duration="150"/>
    <frame tileid="1255" duration="150"/>
    <frame tileid="1262" duration="150"/>
    <frame tileid="1269" duration="150"/>
   </animation>
  </tile>
  <tile id="1235">
   <animation>
    <frame tileid="1235" duration="150"/>
    <frame tileid="1242" duration="150"/>
    <frame tileid="1249" duration="150"/>
    <frame tileid="1256" duration="150"/>
    <frame tileid="1263" duration="150"/>
    <frame tileid="1270" duration="150"/>
   </animation>
  </tile>
  <tile id="1236">
   <animation>
    <frame tileid="1236" duration="150"/>
    <frame tileid="1243" duration="150"/>
    <frame tileid="1250" duration="150"/>
    <frame tileid="1257" duration="150"/>
    <frame tileid="1264" duration="150"/>
    <frame tileid="1271" duration="150"/>
   </animation>
  </tile>
  <tile id="1278">
   <animation>
    <frame tileid="1278" duration="150"/>
    <frame tileid="1285" duration="150"/>
    <frame tileid="1292" duration="150"/>
    <frame tileid="1299" duration="150"/>
    <frame tileid="1306" duration="150"/>
    <frame tileid="1313" duration="150"/>
   </animation>
  </tile>
  <tile id="1279">
   <animation>
    <frame tileid="1279" duration="150"/>
    <frame tileid="1286" duration="150"/>
    <frame tileid="1293" duration="150"/>
    <frame tileid="1300" duration="150"/>
    <frame tileid="1307" duration="150"/>
    <frame tileid="1314" duration="150"/>
   </animation>
  </tile>
  <tile id="1280">
   <animation>
    <frame tileid="1280" duration="150"/>
    <frame tileid="1287" duration="150"/>
    <frame tileid="1294" duration="150"/>
    <frame tileid="1301" duration="150"/>
    <frame tileid="1308" duration="150"/>
    <frame tileid="1315" duration="150"/>
   </animation>
  </tile>
  <tile id="1323">
   <animation>
    <frame tileid="1323" duration="150"/>
    <frame tileid="1330" duration="150"/>
    <frame tileid="1337" duration="150"/>
    <frame tileid="1344" duration="150"/>
    <frame tileid="1351" duration="150"/>
    <frame tileid="1358" duration="150"/>
   </animation>
  </tile>
  <tile id="1324">
   <animation>
    <frame tileid="1324" duration="150"/>
    <frame tileid="1331" duration="150"/>
    <frame tileid="1338" duration="150"/>
    <frame tileid="1345" duration="150"/>
    <frame tileid="1352" duration="150"/>
    <frame tileid="1359" duration="150"/>
   </animation>
  </tile>
  <tile id="1367">
   <animation>
    <frame tileid="1367" duration="150"/>
    <frame tileid="1374" duration="150"/>
    <frame tileid="1381" duration="150"/>
    <frame tileid="1388" duration="150"/>
    <frame tileid="1395" duration="150"/>
    <frame tileid="1402" duration="150"/>
   </animation>
  </tile>
  <tile id="1498">
   <animation>
    <frame tileid="1498" duration="150"/>
    <frame tileid="1505" duration="150"/>
    <frame tileid="1512" duration="150"/>
    <frame tileid="1519" duration="150"/>
    <frame tileid="1526" duration="150"/>
    <frame tileid="1533" duration="150"/>
   </animation>
  </tile>
  <tile id="1542">
   <animation>
    <frame tileid="1542" duration="150"/>
    <frame tileid="1549" duration="150"/>
    <frame tileid="1556" duration="150"/>
    <frame tileid="1563" duration="150"/>
    <frame tileid="1570" duration="150"/>
    <frame tileid="1577" duration="150"/>
   </animation>
  </tile>
  <tile id="1586">
   <animation>
    <frame tileid="1586" duration="150"/>
    <frame tileid="1593" duration="150"/>
    <frame tileid="1600" duration="150"/>
    <frame tileid="1607" duration="150"/>
    <frame tileid="1614" duration="150"/>
    <frame tileid="1621" duration="150"/>
   </animation>
  </tile>
 </tileset>
 <tileset firstgid="16470" name="Objects_animated3" tilewidth="16" tileheight="16" tilecount="1716" columns="44">
  <image source="../Art/UnDead/Objects_animated3.png" width="704" height="624"/>
  <tile id="136">
   <animation>
    <frame tileid="136" duration="150"/>
    <frame tileid="143" duration="150"/>
    <frame tileid="150" duration="150"/>
    <frame tileid="157" duration="150"/>
    <frame tileid="164" duration="150"/>
    <frame tileid="171" duration="150"/>
   </animation>
  </tile>
  <tile id="180">
   <animation>
    <frame tileid="180" duration="150"/>
    <frame tileid="187" duration="150"/>
    <frame tileid="194" duration="150"/>
    <frame tileid="201" duration="150"/>
    <frame tileid="208" duration="150"/>
    <frame tileid="215" duration="150"/>
   </animation>
  </tile>
  <tile id="181">
   <animation>
    <frame tileid="181" duration="150"/>
    <frame tileid="188" duration="150"/>
    <frame tileid="195" duration="150"/>
    <frame tileid="202" duration="150"/>
    <frame tileid="209" duration="150"/>
    <frame tileid="216" duration="150"/>
   </animation>
  </tile>
  <tile id="222">
   <animation>
    <frame tileid="222" duration="150"/>
    <frame tileid="229" duration="150"/>
    <frame tileid="236" duration="150"/>
    <frame tileid="243" duration="150"/>
    <frame tileid="250" duration="150"/>
    <frame tileid="257" duration="150"/>
   </animation>
  </tile>
  <tile id="223">
   <animation>
    <frame tileid="223" duration="150"/>
    <frame tileid="230" duration="150"/>
    <frame tileid="237" duration="150"/>
    <frame tileid="244" duration="150"/>
    <frame tileid="251" duration="150"/>
    <frame tileid="258" duration="150"/>
   </animation>
  </tile>
  <tile id="224">
   <animation>
    <frame tileid="224" duration="150"/>
    <frame tileid="231" duration="150"/>
    <frame tileid="238" duration="150"/>
    <frame tileid="245" duration="150"/>
    <frame tileid="252" duration="150"/>
    <frame tileid="259" duration="150"/>
   </animation>
  </tile>
  <tile id="225">
   <animation>
    <frame tileid="225" duration="150"/>
    <frame tileid="232" duration="150"/>
    <frame tileid="239" duration="150"/>
    <frame tileid="246" duration="150"/>
    <frame tileid="253" duration="150"/>
    <frame tileid="260" duration="150"/>
   </animation>
  </tile>
  <tile id="226">
   <animation>
    <frame tileid="226" duration="150"/>
    <frame tileid="233" duration="150"/>
    <frame tileid="240" duration="150"/>
    <frame tileid="247" duration="150"/>
    <frame tileid="254" duration="150"/>
    <frame tileid="261" duration="150"/>
   </animation>
  </tile>
  <tile id="266">
   <animation>
    <frame tileid="266" duration="150"/>
    <frame tileid="273" duration="150"/>
    <frame tileid="280" duration="150"/>
    <frame tileid="287" duration="150"/>
    <frame tileid="294" duration="150"/>
    <frame tileid="301" duration="150"/>
   </animation>
  </tile>
  <tile id="267">
   <animation>
    <frame tileid="267" duration="150"/>
    <frame tileid="274" duration="150"/>
    <frame tileid="281" duration="150"/>
    <frame tileid="288" duration="150"/>
    <frame tileid="295" duration="150"/>
    <frame tileid="302" duration="150"/>
   </animation>
  </tile>
  <tile id="268">
   <animation>
    <frame tileid="268" duration="150"/>
    <frame tileid="275" duration="150"/>
    <frame tileid="282" duration="150"/>
    <frame tileid="289" duration="150"/>
    <frame tileid="296" duration="150"/>
    <frame tileid="303" duration="150"/>
   </animation>
  </tile>
  <tile id="269">
   <animation>
    <frame tileid="269" duration="150"/>
    <frame tileid="276" duration="150"/>
    <frame tileid="283" duration="150"/>
    <frame tileid="290" duration="150"/>
    <frame tileid="297" duration="150"/>
    <frame tileid="304" duration="150"/>
   </animation>
  </tile>
  <tile id="270">
   <animation>
    <frame tileid="270" duration="150"/>
    <frame tileid="277" duration="150"/>
    <frame tileid="284" duration="150"/>
    <frame tileid="291" duration="150"/>
    <frame tileid="298" duration="150"/>
    <frame tileid="305" duration="150"/>
   </animation>
  </tile>
  <tile id="310">
   <animation>
    <frame tileid="310" duration="150"/>
    <frame tileid="317" duration="150"/>
    <frame tileid="324" duration="150"/>
    <frame tileid="331" duration="150"/>
    <frame tileid="338" duration="150"/>
    <frame tileid="345" duration="150"/>
   </animation>
  </tile>
  <tile id="311">
   <animation>
    <frame tileid="311" duration="150"/>
    <frame tileid="318" duration="150"/>
    <frame tileid="325" duration="150"/>
    <frame tileid="332" duration="150"/>
    <frame tileid="339" duration="150"/>
    <frame tileid="346" duration="150"/>
   </animation>
  </tile>
  <tile id="312">
   <animation>
    <frame tileid="312" duration="150"/>
    <frame tileid="319" duration="150"/>
    <frame tileid="326" duration="150"/>
    <frame tileid="333" duration="150"/>
    <frame tileid="340" duration="150"/>
    <frame tileid="347" duration="150"/>
   </animation>
  </tile>
  <tile id="355">
   <animation>
    <frame tileid="355" duration="150"/>
    <frame tileid="362" duration="150"/>
    <frame tileid="369" duration="150"/>
    <frame tileid="376" duration="150"/>
    <frame tileid="383" duration="150"/>
    <frame tileid="390" duration="150"/>
   </animation>
  </tile>
  <tile id="442">
   <animation>
    <frame tileid="442" duration="150"/>
    <frame tileid="449" duration="150"/>
    <frame tileid="456" duration="150"/>
    <frame tileid="463" duration="150"/>
    <frame tileid="470" duration="150"/>
    <frame tileid="477" duration="150"/>
   </animation>
  </tile>
  <tile id="485">
   <animation>
    <frame tileid="485" duration="150"/>
    <frame tileid="492" duration="150"/>
    <frame tileid="499" duration="150"/>
    <frame tileid="506" duration="150"/>
    <frame tileid="513" duration="150"/>
    <frame tileid="520" duration="150"/>
   </animation>
  </tile>
  <tile id="486">
   <animation>
    <frame tileid="486" duration="150"/>
    <frame tileid="493" duration="150"/>
    <frame tileid="500" duration="150"/>
    <frame tileid="507" duration="150"/>
    <frame tileid="514" duration="150"/>
    <frame tileid="521" duration="150"/>
   </animation>
  </tile>
  <tile id="487">
   <animation>
    <frame tileid="487" duration="150"/>
    <frame tileid="494" duration="150"/>
    <frame tileid="501" duration="150"/>
    <frame tileid="508" duration="150"/>
    <frame tileid="515" duration="150"/>
    <frame tileid="522" duration="150"/>
   </animation>
  </tile>
  <tile id="488">
   <animation>
    <frame tileid="488" duration="150"/>
    <frame tileid="495" duration="150"/>
    <frame tileid="502" duration="150"/>
    <frame tileid="509" duration="150"/>
    <frame tileid="516" duration="150"/>
    <frame tileid="523" duration="150"/>
   </animation>
  </tile>
  <tile id="529">
   <animation>
    <frame tileid="529" duration="150"/>
    <frame tileid="536" duration="150"/>
    <frame tileid="543" duration="150"/>
    <frame tileid="550" duration="150"/>
    <frame tileid="557" duration="150"/>
    <frame tileid="564" duration="150"/>
   </animation>
  </tile>
  <tile id="530">
   <animation>
    <frame tileid="530" duration="150"/>
    <frame tileid="537" duration="150"/>
    <frame tileid="544" duration="150"/>
    <frame tileid="551" duration="150"/>
    <frame tileid="558" duration="150"/>
    <frame tileid="565" duration="150"/>
   </animation>
  </tile>
  <tile id="531">
   <animation>
    <frame tileid="531" duration="150"/>
    <frame tileid="538" duration="150"/>
    <frame tileid="545" duration="150"/>
    <frame tileid="552" duration="150"/>
    <frame tileid="559" duration="150"/>
    <frame tileid="566" duration="150"/>
   </animation>
  </tile>
  <tile id="532">
   <animation>
    <frame tileid="532" duration="150"/>
    <frame tileid="539" duration="150"/>
    <frame tileid="546" duration="150"/>
    <frame tileid="553" duration="150"/>
    <frame tileid="560" duration="150"/>
    <frame tileid="567" duration="150"/>
   </animation>
  </tile>
  <tile id="573">
   <animation>
    <frame tileid="573" duration="150"/>
    <frame tileid="580" duration="150"/>
    <frame tileid="587" duration="150"/>
    <frame tileid="594" duration="150"/>
    <frame tileid="601" duration="150"/>
    <frame tileid="608" duration="150"/>
   </animation>
  </tile>
  <tile id="574">
   <animation>
    <frame tileid="574" duration="150"/>
    <frame tileid="581" duration="150"/>
    <frame tileid="588" duration="150"/>
    <frame tileid="595" duration="150"/>
    <frame tileid="602" duration="150"/>
    <frame tileid="609" duration="150"/>
   </animation>
  </tile>
  <tile id="575">
   <animation>
    <frame tileid="575" duration="150"/>
    <frame tileid="582" duration="150"/>
    <frame tileid="589" duration="150"/>
    <frame tileid="596" duration="150"/>
    <frame tileid="603" duration="150"/>
    <frame tileid="610" duration="150"/>
   </animation>
  </tile>
  <tile id="576">
   <animation>
    <frame tileid="576" duration="150"/>
    <frame tileid="583" duration="150"/>
    <frame tileid="590" duration="150"/>
    <frame tileid="597" duration="150"/>
    <frame tileid="604" duration="150"/>
    <frame tileid="611" duration="150"/>
   </animation>
  </tile>
  <tile id="617">
   <animation>
    <frame tileid="617" duration="150"/>
    <frame tileid="624" duration="150"/>
    <frame tileid="631" duration="150"/>
    <frame tileid="638" duration="150"/>
    <frame tileid="645" duration="150"/>
    <frame tileid="652" duration="150"/>
   </animation>
  </tile>
  <tile id="618">
   <animation>
    <frame tileid="618" duration="150"/>
    <frame tileid="625" duration="150"/>
    <frame tileid="632" duration="150"/>
    <frame tileid="639" duration="150"/>
    <frame tileid="646" duration="150"/>
    <frame tileid="653" duration="150"/>
   </animation>
  </tile>
  <tile id="619">
   <animation>
    <frame tileid="619" duration="150"/>
    <frame tileid="626" duration="150"/>
    <frame tileid="633" duration="150"/>
    <frame tileid="640" duration="150"/>
    <frame tileid="647" duration="150"/>
    <frame tileid="654" duration="150"/>
   </animation>
  </tile>
  <tile id="620">
   <animation>
    <frame tileid="620" duration="150"/>
    <frame tileid="627" duration="150"/>
    <frame tileid="634" duration="150"/>
    <frame tileid="641" duration="150"/>
    <frame tileid="648" duration="150"/>
    <frame tileid="655" duration="150"/>
   </animation>
  </tile>
  <tile id="705">
   <animation>
    <frame tileid="705" duration="150"/>
    <frame tileid="712" duration="150"/>
    <frame tileid="719" duration="150"/>
    <frame tileid="726" duration="150"/>
    <frame tileid="733" duration="150"/>
    <frame tileid="740" duration="150"/>
   </animation>
  </tile>
  <tile id="706">
   <animation>
    <frame tileid="706" duration="150"/>
    <frame tileid="713" duration="150"/>
    <frame tileid="720" duration="150"/>
    <frame tileid="727" duration="150"/>
    <frame tileid="734" duration="150"/>
    <frame tileid="741" duration="150"/>
   </animation>
  </tile>
  <tile id="707">
   <animation>
    <frame tileid="707" duration="150"/>
    <frame tileid="714" duration="150"/>
    <frame tileid="721" duration="150"/>
    <frame tileid="728" duration="150"/>
    <frame tileid="735" duration="150"/>
    <frame tileid="742" duration="150"/>
   </animation>
  </tile>
  <tile id="749">
   <animation>
    <frame tileid="749" duration="150"/>
    <frame tileid="756" duration="150"/>
    <frame tileid="763" duration="150"/>
    <frame tileid="770" duration="150"/>
    <frame tileid="777" duration="150"/>
    <frame tileid="784" duration="150"/>
   </animation>
  </tile>
  <tile id="750">
   <animation>
    <frame tileid="750" duration="150"/>
    <frame tileid="757" duration="150"/>
    <frame tileid="764" duration="150"/>
    <frame tileid="771" duration="150"/>
    <frame tileid="778" duration="150"/>
    <frame tileid="785" duration="150"/>
   </animation>
  </tile>
  <tile id="751">
   <animation>
    <frame tileid="751" duration="150"/>
    <frame tileid="758" duration="150"/>
    <frame tileid="765" duration="150"/>
    <frame tileid="772" duration="150"/>
    <frame tileid="779" duration="150"/>
    <frame tileid="786" duration="150"/>
   </animation>
  </tile>
  <tile id="794">
   <animation>
    <frame tileid="794" duration="150"/>
    <frame tileid="801" duration="150"/>
    <frame tileid="808" duration="150"/>
    <frame tileid="815" duration="150"/>
    <frame tileid="822" duration="150"/>
    <frame tileid="829" duration="150"/>
   </animation>
  </tile>
  <tile id="795">
   <animation>
    <frame tileid="795" duration="150"/>
    <frame tileid="802" duration="150"/>
    <frame tileid="809" duration="150"/>
    <frame tileid="816" duration="150"/>
    <frame tileid="823" duration="150"/>
    <frame tileid="830" duration="150"/>
   </animation>
  </tile>
  <tile id="882">
   <animation>
    <frame tileid="882" duration="150"/>
    <frame tileid="889" duration="150"/>
    <frame tileid="896" duration="150"/>
    <frame tileid="903" duration="150"/>
    <frame tileid="910" duration="150"/>
    <frame tileid="917" duration="150"/>
   </animation>
  </tile>
  <tile id="883">
   <animation>
    <frame tileid="883" duration="150"/>
    <frame tileid="890" duration="150"/>
    <frame tileid="897" duration="150"/>
    <frame tileid="904" duration="150"/>
    <frame tileid="911" duration="150"/>
    <frame tileid="918" duration="150"/>
   </animation>
  </tile>
  <tile id="884">
   <animation>
    <frame tileid="884" duration="150"/>
    <frame tileid="891" duration="150"/>
    <frame tileid="898" duration="150"/>
    <frame tileid="905" duration="150"/>
    <frame tileid="912" duration="150"/>
    <frame tileid="919" duration="150"/>
   </animation>
  </tile>
  <tile id="885">
   <animation>
    <frame tileid="885" duration="150"/>
    <frame tileid="892" duration="150"/>
    <frame tileid="899" duration="150"/>
    <frame tileid="906" duration="150"/>
    <frame tileid="913" duration="150"/>
    <frame tileid="920" duration="150"/>
   </animation>
  </tile>
  <tile id="926">
   <animation>
    <frame tileid="926" duration="150"/>
    <frame tileid="933" duration="150"/>
    <frame tileid="940" duration="150"/>
    <frame tileid="947" duration="150"/>
    <frame tileid="954" duration="150"/>
    <frame tileid="961" duration="150"/>
   </animation>
  </tile>
  <tile id="927">
   <animation>
    <frame tileid="927" duration="150"/>
    <frame tileid="934" duration="150"/>
    <frame tileid="941" duration="150"/>
    <frame tileid="948" duration="150"/>
    <frame tileid="955" duration="150"/>
    <frame tileid="962" duration="150"/>
   </animation>
  </tile>
  <tile id="928">
   <animation>
    <frame tileid="928" duration="150"/>
    <frame tileid="935" duration="150"/>
    <frame tileid="942" duration="150"/>
    <frame tileid="949" duration="150"/>
    <frame tileid="956" duration="150"/>
    <frame tileid="963" duration="150"/>
   </animation>
  </tile>
  <tile id="929">
   <animation>
    <frame tileid="929" duration="150"/>
    <frame tileid="936" duration="150"/>
    <frame tileid="943" duration="150"/>
    <frame tileid="950" duration="150"/>
    <frame tileid="957" duration="150"/>
    <frame tileid="964" duration="150"/>
   </animation>
  </tile>
  <tile id="970">
   <animation>
    <frame tileid="970" duration="150"/>
    <frame tileid="977" duration="150"/>
    <frame tileid="984" duration="150"/>
    <frame tileid="991" duration="150"/>
    <frame tileid="998" duration="150"/>
    <frame tileid="1005" duration="150"/>
   </animation>
  </tile>
  <tile id="971">
   <animation>
    <frame tileid="971" duration="150"/>
    <frame tileid="978" duration="150"/>
    <frame tileid="985" duration="150"/>
    <frame tileid="992" duration="150"/>
    <frame tileid="999" duration="150"/>
    <frame tileid="1006" duration="150"/>
   </animation>
  </tile>
  <tile id="972">
   <animation>
    <frame tileid="972" duration="150"/>
    <frame tileid="979" duration="150"/>
    <frame tileid="986" duration="150"/>
    <frame tileid="993" duration="150"/>
    <frame tileid="1000" duration="150"/>
    <frame tileid="1007" duration="150"/>
   </animation>
  </tile>
  <tile id="973">
   <animation>
    <frame tileid="973" duration="150"/>
    <frame tileid="980" duration="150"/>
    <frame tileid="987" duration="150"/>
    <frame tileid="994" duration="150"/>
    <frame tileid="1001" duration="150"/>
    <frame tileid="1008" duration="150"/>
   </animation>
  </tile>
  <tile id="1015">
   <animation>
    <frame tileid="1015" duration="150"/>
    <frame tileid="1022" duration="150"/>
    <frame tileid="1029" duration="150"/>
    <frame tileid="1036" duration="150"/>
    <frame tileid="1043" duration="150"/>
    <frame tileid="1050" duration="150"/>
   </animation>
  </tile>
  <tile id="1016">
   <animation>
    <frame tileid="1016" duration="150"/>
    <frame tileid="1023" duration="150"/>
    <frame tileid="1030" duration="150"/>
    <frame tileid="1037" duration="150"/>
    <frame tileid="1044" duration="150"/>
    <frame tileid="1051" duration="150"/>
   </animation>
  </tile>
  <tile id="1147">
   <animation>
    <frame tileid="1147" duration="150"/>
    <frame tileid="1154" duration="150"/>
    <frame tileid="1161" duration="150"/>
    <frame tileid="1168" duration="150"/>
    <frame tileid="1175" duration="150"/>
    <frame tileid="1182" duration="150"/>
   </animation>
  </tile>
  <tile id="1191">
   <animation>
    <frame tileid="1191" duration="150"/>
    <frame tileid="1198" duration="150"/>
    <frame tileid="1205" duration="150"/>
    <frame tileid="1212" duration="150"/>
    <frame tileid="1219" duration="150"/>
    <frame tileid="1226" duration="150"/>
   </animation>
  </tile>
  <tile id="1234">
   <animation>
    <frame tileid="1234" duration="150"/>
    <frame tileid="1241" duration="150"/>
    <frame tileid="1248" duration="150"/>
    <frame tileid="1255" duration="150"/>
    <frame tileid="1262" duration="150"/>
    <frame tileid="1269" duration="150"/>
   </animation>
  </tile>
  <tile id="1235">
   <animation>
    <frame tileid="1235" duration="150"/>
    <frame tileid="1242" duration="150"/>
    <frame tileid="1249" duration="150"/>
    <frame tileid="1256" duration="150"/>
    <frame tileid="1263" duration="150"/>
    <frame tileid="1270" duration="150"/>
   </animation>
  </tile>
  <tile id="1236">
   <animation>
    <frame tileid="1236" duration="150"/>
    <frame tileid="1243" duration="150"/>
    <frame tileid="1250" duration="150"/>
    <frame tileid="1257" duration="150"/>
    <frame tileid="1264" duration="150"/>
    <frame tileid="1271" duration="150"/>
   </animation>
  </tile>
  <tile id="1278">
   <animation>
    <frame tileid="1278" duration="150"/>
    <frame tileid="1285" duration="150"/>
    <frame tileid="1292" duration="150"/>
    <frame tileid="1299" duration="150"/>
    <frame tileid="1306" duration="150"/>
    <frame tileid="1313" duration="150"/>
   </animation>
  </tile>
  <tile id="1279">
   <animation>
    <frame tileid="1279" duration="150"/>
    <frame tileid="1286" duration="150"/>
    <frame tileid="1293" duration="150"/>
    <frame tileid="1300" duration="150"/>
    <frame tileid="1307" duration="150"/>
    <frame tileid="1314" duration="150"/>
   </animation>
  </tile>
  <tile id="1280">
   <animation>
    <frame tileid="1280" duration="150"/>
    <frame tileid="1287" duration="150"/>
    <frame tileid="1294" duration="150"/>
    <frame tileid="1301" duration="150"/>
    <frame tileid="1308" duration="150"/>
    <frame tileid="1315" duration="150"/>
   </animation>
  </tile>
  <tile id="1323">
   <animation>
    <frame tileid="1323" duration="150"/>
    <frame tileid="1330" duration="150"/>
    <frame tileid="1337" duration="150"/>
    <frame tileid="1344" duration="150"/>
    <frame tileid="1351" duration="150"/>
    <frame tileid="1358" duration="150"/>
   </animation>
  </tile>
  <tile id="1324">
   <animation>
    <frame tileid="1324" duration="150"/>
    <frame tileid="1331" duration="150"/>
    <frame tileid="1338" duration="150"/>
    <frame tileid="1345" duration="150"/>
    <frame tileid="1352" duration="150"/>
    <frame tileid="1359" duration="150"/>
   </animation>
  </tile>
  <tile id="1367">
   <animation>
    <frame tileid="1367" duration="150"/>
    <frame tileid="1374" duration="150"/>
    <frame tileid="1381" duration="150"/>
    <frame tileid="1388" duration="150"/>
    <frame tileid="1395" duration="150"/>
    <frame tileid="1402" duration="150"/>
   </animation>
  </tile>
  <tile id="1498">
   <animation>
    <frame tileid="1498" duration="150"/>
    <frame tileid="1505" duration="150"/>
    <frame tileid="1512" duration="150"/>
    <frame tileid="1519" duration="150"/>
    <frame tileid="1526" duration="150"/>
    <frame tileid="1533" duration="150"/>
   </animation>
  </tile>
  <tile id="1542">
   <animation>
    <frame tileid="1542" duration="150"/>
    <frame tileid="1549" duration="150"/>
    <frame tileid="1556" duration="150"/>
    <frame tileid="1563" duration="150"/>
    <frame tileid="1570" duration="150"/>
    <frame tileid="1577" duration="150"/>
   </animation>
  </tile>
  <tile id="1586">
   <animation>
    <frame tileid="1586" duration="150"/>
    <frame tileid="1593" duration="150"/>
    <frame tileid="1600" duration="150"/>
    <frame tileid="1607" duration="150"/>
    <frame tileid="1614" duration="150"/>
    <frame tileid="1621" duration="150"/>
   </animation>
  </tile>
 </tileset>
 <tileset firstgid="18186" name="details" tilewidth="16" tileheight="16" tilecount="560" columns="40">
  <image source="../Art/UnDead/details.png" width="640" height="224"/>
 </tileset>
 <tileset firstgid="18746" name="details" tilewidth="16" tileheight="16" tilecount="560" columns="40">
  <image source="../Art/UnDead/details.png" width="640" height="224"/>
 </tileset>
 <group id="98" name="Ground">
  <layer id="82" name="water" width="38" height="25">
   <data encoding="csv">
    <chunk x="16" y="-16" width="16" height="16">
0,0,0,0,0,0,0,0,0,0,0,0,0,0,0,0,
0,0,0,0,0,0,0,0,0,0,0,0,0,0,0,0,
0,0,0,0,0,0,0,0,0,0,0,0,0,0,0,0,
0,0,0,0,0,0,0,0,0,0,0,0,0,0,0,0,
0,0,0,0,0,0,0,0,0,0,0,0,0,0,0,0,
0,0,0,0,0,0,0,0,0,0,0,0,0,0,0,0,
0,0,0,0,0,0,0,0,0,0,0,0,0,0,0,0,
0,0,0,0,0,0,0,0,0,0,0,0,0,0,0,0,
0,0,0,0,0,0,0,0,0,0,0,0,0,0,0,0,
0,0,0,0,0,0,0,0,0,0,0,0,0,0,0,0,
0,0,0,0,0,0,0,0,0,0,0,0,0,0,0,0,
0,0,0,0,0,0,0,0,0,0,0,0,0,0,0,0,
0,0,0,0,0,0,0,0,0,0,0,0,0,0,0,0,
0,0,0,0,0,0,0,0,0,0,0,0,0,0,0,0,
0,0,0,0,0,0,0,0,0,0,0,0,0,0,0,0,
0,0,0,0,0,0,8057,8057,8057,8057,8057,0,0,0,0,0
</chunk>
    <chunk x="0" y="0" width="16" height="16">
0,0,0,0,0,0,0,0,0,0,0,0,0,0,0,0,
0,0,0,0,0,0,0,0,0,0,0,0,0,0,0,0,
0,0,0,0,0,0,0,0,0,0,0,8057,8057,8057,0,0,
0,0,0,0,0,0,0,0,0,8057,8057,8057,8057,8057,8057,0,
0,0,0,0,0,0,0,0,8057,8057,8057,8057,8057,8057,0,0,
0,0,0,0,0,0,0,0,8057,8057,8057,8057,8057,8057,0,0,
0,0,0,0,0,0,0,0,0,0,8057,8057,8057,0,0,0,
0,0,0,0,0,0,0,0,0,0,0,0,0,0,0,0,
0,0,0,0,0,0,0,0,0,0,0,0,0,0,0,0,
0,0,0,0,0,0,0,0,0,0,0,0,0,0,0,0,
0,0,0,0,0,0,0,0,0,0,0,0,0,0,0,0,
0,0,0,0,0,0,0,0,0,0,0,0,0,0,0,0,
0,0,0,0,0,0,0,0,0,0,0,0,0,0,0,0,
0,0,0,0,0,0,0,0,0,0,0,0,0,0,0,0,
0,0,0,0,0,0,0,0,0,0,0,0,0,0,0,0,
0,0,0,0,0,0,0,0,0,0,0,0,0,0,0,0
</chunk>
    <chunk x="16" y="0" width="16" height="16">
0,0,0,0,0,0,8057,8057,8057,8057,8057,8057,0,0,0,0,
0,0,0,0,0,0,8057,8057,8057,8057,8057,0,0,0,0,0,
0,0,0,0,0,0,0,8057,8057,8057,8057,0,0,0,0,0,
0,0,0,0,8057,0,0,8057,8057,8057,0,0,0,0,0,0,
0,0,0,8057,8057,8057,0,0,0,0,0,0,0,0,0,0,
0,0,0,8057,8057,0,0,0,0,0,0,0,0,0,0,0,
0,0,0,0,0,0,0,0,0,0,0,0,0,0,0,0,
0,0,0,0,0,0,0,0,0,0,0,0,0,0,0,0,
0,0,0,0,0,0,0,0,0,0,0,0,0,0,0,0,
0,0,0,0,0,0,0,0,0,0,0,0,0,0,0,0,
0,0,0,0,0,0,0,0,0,0,0,0,0,0,0,0,
0,0,0,0,0,0,0,0,0,0,0,0,0,0,0,0,
0,0,0,0,0,0,0,0,0,0,0,0,0,0,0,0,
0,0,0,0,0,0,0,0,0,0,0,0,0,0,0,0,
0,0,0,0,0,0,0,0,0,0,0,0,0,0,0,0,
0,0,0,0,0,0,0,0,0,0,0,0,0,0,0,0
</chunk>
    <chunk x="32" y="0" width="16" height="16">
0,0,0,0,0,0,0,0,0,0,0,0,0,0,0,0,
0,0,0,0,0,0,0,0,0,0,0,0,0,0,0,0,
0,0,0,0,0,0,0,0,0,0,0,0,0,0,0,0,
0,0,0,0,0,0,0,0,0,0,0,0,0,0,0,0,
0,0,0,8057,8057,0,0,0,0,0,0,0,0,0,0,0,
0,0,8057,8057,8057,0,0,0,0,0,0,0,0,0,0,0,
0,0,8057,8057,8057,0,0,0,0,0,0,0,0,0,0,0,
0,0,8057,8057,8057,0,0,0,0,0,0,0,0,0,0,0,
0,0,0,0,0,0,0,0,0,0,0,0,0,0,0,0,
0,0,0,0,0,0,0,0,0,0,0,0,0,0,0,0,
0,0,0,0,0,0,0,0,0,0,0,0,0,0,0,0,
0,0,0,0,0,0,0,0,0,0,0,0,0,0,0,0,
0,0,0,0,0,0,0,0,0,0,0,0,0,0,0,0,
0,0,0,0,0,0,0,0,0,0,0,0,0,0,0,0,
0,0,0,0,0,0,0,0,0,0,0,0,0,0,0,0,
0,0,0,0,0,0,0,0,0,0,0,0,0,0,0,0
</chunk>
    <chunk x="-16" y="16" width="16" height="16">
0,0,0,0,0,0,0,0,0,0,0,0,0,0,0,0,
0,0,0,0,0,0,0,0,0,0,0,0,0,0,0,0,
0,0,0,0,0,0,0,0,0,0,0,0,0,0,0,0,
0,0,0,0,0,0,0,0,0,0,0,0,0,0,0,0,
0,0,0,0,0,0,0,0,0,0,0,0,0,0,0,8057,
0,0,0,0,0,0,0,0,0,0,0,0,0,0,0,8057,
0,0,0,0,0,0,0,0,0,0,0,0,0,0,0,8057,
0,0,0,0,0,0,0,0,0,0,0,0,0,0,0,8057,
0,0,0,0,0,0,0,0,0,0,0,0,0,0,0,0,
0,0,0,0,0,0,0,0,0,0,0,0,0,0,0,0,
0,0,0,0,0,0,0,0,0,0,0,0,0,0,0,0,
0,0,0,0,0,0,0,0,0,0,0,0,0,0,0,0,
0,0,0,0,0,0,0,0,0,0,0,0,0,0,0,0,
0,0,0,0,0,0,0,0,0,0,0,0,0,0,0,0,
0,0,0,0,0,0,0,0,0,0,0,0,0,0,0,0,
0,0,0,0,0,0,0,0,0,0,0,0,0,0,0,0
</chunk>
    <chunk x="0" y="16" width="16" height="16">
0,0,0,0,0,0,0,0,0,0,0,0,0,0,0,0,
0,0,0,0,0,0,0,0,0,0,0,0,0,0,0,0,
0,0,0,0,0,0,0,0,0,0,0,0,0,0,0,0,
0,0,0,0,0,0,0,0,0,0,0,0,0,0,0,0,
8057,8057,8057,8057,8057,8057,8057,8057,8057,8057,8057,8057,8057,8057,8057,8057,
8057,8057,8057,8057,8057,8057,8057,8057,8057,8057,8057,8057,8057,8057,8057,8057,
8057,8057,8057,8057,8057,8057,8057,8057,8057,8057,8057,8057,8057,8057,8057,8057,
8057,8057,8057,8057,8057,8057,8057,8057,8057,8057,8057,8057,8057,8057,8057,8057,
0,0,0,0,0,0,0,0,0,0,0,0,0,0,0,0,
0,0,0,0,0,0,0,0,0,0,0,0,0,0,0,0,
0,0,0,0,0,0,0,0,0,0,0,0,0,0,0,0,
0,0,0,0,0,0,0,0,0,0,0,0,0,0,0,0,
0,0,0,0,0,0,0,0,0,0,0,0,0,0,0,0,
0,0,0,0,0,0,0,0,0,0,0,0,0,0,0,0,
0,0,0,0,0,0,0,0,0,0,0,0,0,0,0,0,
0,0,0,0,0,0,0,0,0,0,0,0,0,0,0,0
</chunk>
    <chunk x="16" y="16" width="16" height="16">
0,0,0,0,0,0,0,0,0,0,0,0,0,0,0,0,
0,0,0,0,0,0,0,0,0,0,0,8057,8057,0,0,0,
0,0,0,0,0,0,0,0,0,0,0,8057,8057,8057,0,0,
0,0,0,0,0,0,0,0,0,0,0,0,8057,0,0,0,
8057,8057,8057,8057,8057,0,0,0,0,0,0,0,0,0,0,0,
8057,8057,8057,8057,8057,0,0,0,0,0,0,0,0,0,0,0,
8057,8057,8057,8057,8057,0,0,0,0,0,0,0,0,0,0,0,
8057,8057,8057,8057,8057,0,0,0,0,0,0,0,0,0,0,0,
0,0,0,0,0,0,0,0,0,0,0,0,0,0,0,0,
0,0,0,0,0,0,0,0,0,0,0,0,0,0,0,0,
0,0,0,0,0,0,0,0,0,0,0,0,0,0,0,0,
0,0,0,0,0,0,0,0,0,0,0,0,0,0,0,0,
0,0,0,0,0,0,0,0,0,0,0,0,0,0,0,0,
0,0,0,0,0,0,0,0,0,0,0,0,0,0,0,0,
0,0,0,0,0,0,0,0,0,0,0,0,0,0,0,0,
0,0,0,0,0,0,0,0,0,0,0,0,0,0,0,0
</chunk>
   </data>
  </layer>
  <layer id="83" name="water_detailization" width="38" height="25">
   <data encoding="csv">
    <chunk x="16" y="-16" width="16" height="16">
0,0,0,0,0,0,0,0,0,0,0,0,0,0,0,0,
0,0,0,0,0,0,0,0,0,0,0,0,0,0,0,0,
0,0,0,0,0,0,0,0,0,0,0,0,0,0,0,0,
0,0,0,0,0,0,0,0,0,0,0,0,0,0,0,0,
0,0,0,0,0,0,0,0,0,0,0,0,0,0,0,0,
0,0,0,0,0,0,0,0,0,0,0,0,0,0,0,0,
0,0,0,0,0,0,0,0,0,0,0,0,0,0,0,0,
0,0,0,0,0,0,0,0,0,0,0,0,0,0,0,0,
0,0,0,0,0,0,0,0,0,0,0,0,0,0,0,0,
0,0,0,0,0,0,0,0,0,0,0,0,0,0,0,0,
0,0,0,0,0,0,0,0,0,0,0,0,0,0,0,0,
0,0,0,0,0,0,0,0,0,0,0,0,0,0,0,0,
0,0,0,0,0,0,0,0,0,0,0,0,0,0,0,0,
0,0,0,0,0,0,0,0,0,0,0,0,0,0,0,0,
0,0,0,0,0,0,0,0,0,0,0,0,0,0,0,0,
0,0,0,0,0,5205,5206,5207,5208,5209,5210,5211,0,0,0,0
</chunk>
    <chunk x="0" y="0" width="16" height="16">
0,0,0,0,0,0,0,0,0,0,0,0,0,0,0,0,
0,0,0,0,0,0,0,0,0,0,0,0,0,0,0,0,
0,0,0,0,0,0,0,0,0,0,0,0,0,0,0,0,
0,0,0,0,0,0,5204,5205,5206,5207,5208,5209,5210,5211,5212,5213,
0,0,0,0,0,0,5241,5242,5243,5244,5245,5246,5247,5248,5249,5250,
0,0,0,0,0,0,5278,5279,5280,5281,5282,5283,5284,5285,5286,5287,
0,0,0,0,0,0,0,0,0,0,0,0,0,0,0,0,
0,0,0,0,0,0,0,0,0,0,0,0,0,0,0,0,
0,0,0,0,0,0,0,0,0,0,0,0,0,0,0,0,
0,0,0,0,0,0,0,0,0,0,0,0,0,0,0,0,
0,0,0,0,0,0,0,0,0,0,0,0,0,0,0,0,
0,0,0,0,0,0,0,0,0,0,0,0,0,0,0,0,
0,0,0,0,0,0,0,0,0,0,0,0,0,0,0,0,
0,0,0,0,0,0,0,0,0,0,0,0,0,0,0,0,
0,0,0,0,0,0,0,0,0,0,0,0,0,0,0,0,
0,0,0,0,0,0,0,0,0,0,0,0,0,0,0,0
</chunk>
    <chunk x="16" y="0" width="16" height="16">
0,0,0,0,0,5242,5243,5244,5245,5246,5247,5248,0,0,0,0,
0,0,0,0,0,5279,5280,5281,5282,5283,5284,5285,0,5212,5213,5214,
0,0,0,0,0,0,0,0,0,0,0,0,0,5249,5250,5251,
5214,5215,0,0,0,0,0,0,0,0,0,0,0,5286,5287,5288,
5251,5252,0,0,0,0,0,0,0,0,0,0,0,0,0,0,
5288,5289,0,0,0,0,0,0,0,0,0,0,0,0,0,0,
0,0,0,0,0,0,0,0,0,0,0,0,0,0,0,0,
0,0,0,0,0,0,0,0,0,0,0,0,0,0,0,0,
0,0,0,0,0,0,0,0,0,0,0,0,0,0,0,0,
0,0,0,0,0,0,0,0,0,0,0,0,0,0,0,0,
0,0,0,0,0,0,0,0,0,0,0,0,0,0,0,0,
0,0,0,0,0,0,0,0,0,0,0,0,0,0,0,0,
0,0,0,0,0,0,0,0,0,0,0,0,0,0,0,0,
0,0,0,0,0,0,0,0,0,0,0,0,0,0,0,0,
0,0,0,0,0,0,0,0,0,0,0,0,0,0,0,0,
0,0,0,0,0,0,0,0,0,0,0,0,0,0,0,0
</chunk>
    <chunk x="32" y="0" width="16" height="16">
0,0,0,0,0,0,0,0,0,0,0,0,0,0,0,0,
0,0,0,0,0,0,0,0,0,0,0,0,0,0,0,0,
0,0,0,0,0,0,0,0,0,0,0,0,0,0,0,0,
0,0,0,0,0,0,0,0,0,0,0,0,0,0,0,0,
0,0,0,0,0,0,0,0,0,0,0,0,0,0,0,0,
5339,5340,5341,5342,5343,5344,5345,0,0,0,0,0,0,0,0,0,
5376,5377,5378,5379,5380,0,0,0,0,0,0,0,0,0,0,0,
5413,5414,5415,5416,5417,0,0,0,0,0,0,0,0,0,0,0,
0,0,0,0,0,0,0,0,0,0,0,0,0,0,0,0,
0,0,0,0,0,0,0,0,0,0,0,0,0,0,0,0,
0,0,0,0,0,0,0,0,0,0,0,0,0,0,0,0,
0,0,0,0,0,0,0,0,0,0,0,0,0,0,0,0,
0,0,0,0,0,0,0,0,0,0,0,0,0,0,0,0,
0,0,0,0,0,0,0,0,0,0,0,0,0,0,0,0,
0,0,0,0,0,0,0,0,0,0,0,0,0,0,0,0,
0,0,0,0,0,0,0,0,0,0,0,0,0,0,0,0
</chunk>
    <chunk x="0" y="16" width="16" height="16">
0,0,0,0,0,0,0,0,0,0,0,0,0,0,0,0,
0,0,0,0,0,0,0,0,0,0,0,0,0,0,0,0,
0,0,0,0,0,0,0,0,0,0,0,0,0,0,0,0,
0,0,0,0,0,0,0,0,0,0,0,0,0,0,0,0,
0,0,0,0,0,0,0,0,0,0,0,0,0,0,0,0,
0,5186,5187,5188,5189,5190,5191,5192,5193,5194,5195,5196,5197,5198,5199,5200,
0,5223,5224,5225,5226,5227,5228,5229,5230,5231,5232,5233,5234,5235,5236,5237,
0,5260,5261,5262,5263,5264,5265,5266,5267,5268,5269,5270,5271,5462,5463,5464,
0,0,0,0,0,0,0,0,0,0,0,0,0,0,0,0,
0,0,0,0,0,0,0,0,0,0,0,0,0,0,0,0,
0,0,0,0,0,0,0,0,0,0,0,0,0,0,0,0,
0,0,0,0,0,0,0,0,0,0,0,0,0,0,0,0,
0,0,0,0,0,0,0,0,0,0,0,0,0,0,0,0,
0,0,0,0,0,0,0,0,0,0,0,0,0,0,0,0,
0,0,0,0,0,0,0,0,0,0,0,0,0,0,0,0,
0,0,0,0,0,0,0,0,0,0,0,0,0,0,0,0
</chunk>
    <chunk x="16" y="16" width="16" height="16">
0,0,0,0,0,0,0,0,0,0,0,0,0,0,0,0,
0,0,0,0,0,0,0,0,0,0,0,0,0,0,0,0,
0,0,0,0,0,0,0,0,0,5359,5360,5361,5362,5363,5364,0,
0,0,0,0,0,0,0,0,0,5396,5397,5398,5399,5400,5401,0,
0,0,0,0,0,0,0,0,0,0,0,0,0,0,0,0,
5201,5202,0,0,0,0,0,0,0,0,0,0,0,0,0,0,
5238,5239,0,0,0,0,0,0,0,0,0,0,0,0,0,0,
5465,5466,5467,5468,5469,0,0,0,0,0,0,0,0,0,0,0,
0,0,0,0,0,0,0,0,0,0,0,0,0,0,0,0,
0,0,0,0,0,0,0,0,0,0,0,0,0,0,0,0,
0,0,0,0,0,0,0,0,0,0,0,0,0,0,0,0,
0,0,0,0,0,0,0,0,0,0,0,0,0,0,0,0,
0,0,0,0,0,0,0,0,0,0,0,0,0,0,0,0,
0,0,0,0,0,0,0,0,0,0,0,0,0,0,0,0,
0,0,0,0,0,0,0,0,0,0,0,0,0,0,0,0,
0,0,0,0,0,0,0,0,0,0,0,0,0,0,0,0
</chunk>
   </data>
  </layer>
  <layer id="74" name="ground" width="38" height="25">
   <data encoding="csv">
    <chunk x="-16" y="-16" width="16" height="16">
0,0,0,0,0,0,0,0,0,0,0,0,0,0,0,0,
0,0,0,0,0,0,0,0,0,0,0,0,0,0,0,0,
0,0,0,0,0,0,0,0,0,0,0,0,0,0,0,0,
0,0,0,0,0,0,0,0,0,0,0,0,0,0,0,0,
0,0,0,0,0,0,0,0,0,0,0,0,0,0,0,0,
0,0,0,0,0,0,0,0,0,0,0,0,0,0,0,0,
0,0,0,0,0,0,0,0,0,0,0,0,0,0,0,0,
0,0,0,0,0,0,0,0,0,0,0,0,0,0,0,0,
0,0,0,0,0,0,0,0,0,0,0,0,0,0,0,0,
0,0,0,0,0,0,0,0,0,0,0,0,0,0,0,0,
0,0,0,0,0,0,0,0,0,0,0,0,0,0,0,0,
0,0,0,0,0,0,0,0,0,0,0,0,0,0,0,0,
0,0,0,0,0,0,0,0,0,0,0,0,0,0,0,0,
0,0,0,0,0,0,0,0,0,0,0,0,0,0,0,0,
0,0,0,0,0,0,0,0,0,0,0,0,0,0,0,0,
0,0,0,0,0,0,0,0,0,0,0,0,0,0,0,55
</chunk>
    <chunk x="0" y="-16" width="16" height="16">
0,0,0,0,0,0,0,0,0,0,0,0,0,0,0,0,
0,0,0,0,0,0,0,0,0,0,0,0,0,0,0,0,
0,0,0,0,0,0,0,0,0,0,0,0,0,0,0,0,
0,0,0,0,0,0,0,0,0,0,0,0,0,0,0,0,
0,0,0,0,0,0,0,0,0,0,0,0,0,0,0,0,
0,0,0,0,0,0,0,0,0,0,0,0,0,0,0,0,
0,0,0,0,0,0,0,0,0,0,0,0,0,0,0,0,
0,0,0,0,0,0,0,0,0,0,0,0,0,0,0,0,
0,0,0,0,0,0,0,0,0,0,0,0,0,0,0,0,
0,0,0,0,0,0,0,0,0,0,0,0,0,0,0,0,
0,0,0,0,0,0,0,0,0,0,0,0,0,0,0,0,
0,0,0,0,0,0,0,0,0,0,0,0,0,0,0,0,
0,0,0,0,0,0,0,0,0,0,0,0,0,0,0,0,
0,0,0,0,0,0,0,0,0,0,0,0,0,0,0,0,
0,0,0,0,0,0,0,0,0,0,0,0,0,0,0,0,
55,55,55,55,55,55,55,55,55,55,55,55,55,55,55,55
</chunk>
    <chunk x="16" y="-16" width="16" height="16">
0,0,0,0,0,0,0,0,0,0,0,0,0,0,0,0,
0,0,0,0,0,0,0,0,0,0,0,0,0,0,0,0,
0,0,0,0,0,0,0,0,0,0,0,0,0,0,0,0,
0,0,0,0,0,0,0,0,0,0,0,0,0,0,0,0,
0,0,0,0,0,0,0,0,0,0,0,0,0,0,0,0,
0,0,0,0,0,0,0,0,0,0,0,0,0,0,0,0,
0,0,0,0,0,0,0,0,0,0,0,0,0,0,0,0,
0,0,0,0,0,0,0,0,0,0,0,0,0,0,0,0,
0,0,0,0,0,0,0,0,0,0,0,0,0,0,0,0,
0,0,0,0,0,0,0,0,0,0,0,0,0,0,0,0,
0,0,0,0,0,0,0,0,0,0,0,0,0,0,0,0,
0,0,0,0,0,0,0,0,0,0,0,0,0,0,0,0,
0,0,0,0,0,0,0,0,8261,8262,8263,8264,0,0,0,0,
0,0,0,0,0,0,0,0,0,0,0,0,0,0,0,0,
0,0,0,0,0,0,0,0,0,0,0,0,0,0,0,0,
55,55,55,55,55,55,0,0,0,0,0,0,55,55,55,55
</chunk>
    <chunk x="32" y="-16" width="16" height="16">
0,0,0,0,0,0,0,0,0,0,0,0,0,0,0,0,
0,0,0,0,0,0,0,0,0,0,0,0,0,0,0,0,
0,0,0,0,0,0,0,0,0,0,0,0,0,0,0,0,
0,0,0,0,0,0,0,0,0,0,0,0,0,0,0,0,
0,0,0,0,0,0,0,0,0,0,0,0,0,0,0,0,
0,0,0,0,0,0,0,0,0,0,0,0,0,0,0,0,
0,0,0,0,0,0,0,0,0,0,0,0,0,0,0,0,
0,0,0,0,0,0,0,0,0,0,0,0,0,0,0,0,
0,0,0,0,0,0,0,0,0,0,0,0,0,0,0,0,
0,0,0,0,0,0,0,0,0,0,0,0,0,0,0,0,
0,0,0,0,0,0,0,0,0,0,0,0,0,0,0,0,
0,0,0,0,0,0,0,0,0,0,0,0,0,0,0,0,
0,0,0,0,0,0,0,0,0,0,0,0,0,0,0,0,
0,0,0,0,0,0,0,0,0,0,0,0,0,0,0,0,
0,0,0,0,0,0,0,0,0,0,0,0,0,0,0,0,
55,55,55,55,55,0,0,0,0,0,0,0,0,0,0,0
</chunk>
    <chunk x="-16" y="0" width="16" height="16">
0,0,0,0,0,0,0,0,0,0,0,0,0,0,0,55,
0,0,0,0,0,0,0,0,0,0,0,0,0,0,0,55,
0,0,0,0,0,0,0,0,0,0,0,0,0,0,0,55,
0,0,0,0,0,0,0,0,0,0,0,0,0,0,0,55,
0,0,0,0,0,0,0,0,0,0,0,0,0,0,0,55,
0,0,0,0,0,0,0,0,0,0,0,0,0,0,0,55,
0,0,0,0,0,0,0,0,0,0,0,0,0,0,0,55,
0,0,0,0,0,0,0,0,0,0,0,0,0,0,0,55,
0,0,0,0,0,0,0,0,0,0,0,0,0,0,0,55,
0,0,0,0,0,0,0,0,0,0,0,0,0,0,0,55,
0,0,0,0,0,0,0,0,0,0,0,0,0,0,0,55,
0,0,0,0,0,0,0,0,0,0,0,0,0,0,0,55,
0,0,0,0,0,0,0,0,0,0,0,0,0,0,0,55,
0,0,0,0,0,0,0,0,0,0,0,0,0,0,0,55,
0,0,0,0,0,0,0,0,0,0,0,0,0,0,0,55,
0,0,0,0,0,0,0,0,0,0,0,0,0,0,0,55
</chunk>
    <chunk x="0" y="0" width="16" height="16">
55,55,55,55,55,55,55,55,55,55,55,55,55,55,55,55,
55,55,55,55,55,55,55,55,55,55,55,55,55,55,55,55,
55,55,55,55,55,55,55,55,55,55,55,8063,8106,8065,8066,55,
55,55,55,55,55,55,55,55,55,8063,8064,8107,8129,8088,8089,55,
55,55,55,55,55,55,55,55,55,8086,8087,8130,0,8059,55,55,
55,55,55,55,55,55,55,55,55,8109,8110,8037,8111,8112,55,55,
55,55,55,55,55,55,55,55,55,8132,8133,8060,8069,8135,55,55,
55,55,55,55,55,55,55,55,55,55,55,55,55,55,55,55,
55,55,55,55,55,55,55,55,55,55,55,55,55,55,55,55,
55,55,55,55,55,55,55,55,55,55,55,55,55,55,55,55,
55,55,55,55,55,55,55,55,55,55,55,55,55,55,55,55,
55,55,55,55,55,55,55,55,55,55,55,55,55,55,55,55,
55,55,55,55,55,55,55,55,55,55,55,55,55,55,55,55,
55,55,55,55,55,55,55,55,55,55,55,55,55,55,55,55,
55,55,55,55,55,55,55,55,55,55,55,55,55,55,55,55,
55,55,55,55,55,55,55,55,55,55,55,55,55,55,55,55
</chunk>
    <chunk x="16" y="0" width="16" height="16">
55,55,55,55,55,55,0,0,0,0,0,0,0,55,55,55,
55,55,55,55,55,55,0,0,0,0,0,0,0,55,55,55,
55,55,55,8083,8083,55,55,55,0,0,0,0,0,55,55,55,
55,55,55,8083,8083,8083,55,55,0,0,0,0,0,55,55,55,
55,55,55,8083,8083,8083,8083,55,0,0,0,0,0,55,55,55,
55,55,55,8083,8083,8083,8083,55,55,55,55,55,55,55,55,55,
55,55,55,55,55,8083,8083,8083,55,55,55,55,55,55,55,55,
55,55,55,55,55,55,8083,55,55,55,55,55,55,55,55,55,
55,55,55,55,55,55,55,55,55,55,55,55,55,55,55,55,
55,55,55,55,55,55,55,55,55,55,55,55,55,55,55,55,
55,55,55,55,55,55,55,55,55,55,55,55,55,55,55,55,
55,55,55,55,55,55,55,55,55,55,55,55,55,55,55,55,
55,55,55,55,55,55,55,55,55,55,55,55,55,55,55,55,
55,55,55,55,55,55,55,55,55,55,55,55,55,55,55,55,
55,55,55,55,55,55,55,55,55,55,55,55,55,55,55,55,
55,55,55,55,55,55,55,55,55,55,55,55,55,55,55,55
</chunk>
    <chunk x="32" y="0" width="16" height="16">
55,55,55,55,55,0,0,0,0,0,0,0,0,0,0,0,
55,55,55,55,55,0,0,0,0,0,0,0,0,0,0,0,
55,55,55,55,55,0,0,0,0,0,0,0,0,0,0,0,
55,55,55,55,55,0,0,0,0,0,0,0,0,0,0,0,
55,55,55,55,55,0,0,0,0,0,0,0,0,0,0,0,
55,55,0,0,0,0,0,0,0,0,0,0,0,0,0,0,
55,55,0,0,0,0,0,0,0,0,0,0,0,0,0,0,
55,55,0,0,0,0,0,0,0,0,0,0,0,0,0,0,
55,55,55,55,55,0,0,0,0,0,0,0,0,0,0,0,
55,55,55,55,55,0,0,0,0,0,0,0,0,0,0,0,
55,55,55,55,55,0,0,0,0,0,0,0,0,0,0,0,
55,55,55,55,55,0,0,0,0,0,0,0,0,0,0,0,
55,55,55,55,55,0,0,0,0,0,0,0,0,0,0,0,
55,55,55,55,55,0,0,0,0,0,0,0,0,0,0,0,
55,55,55,55,55,0,0,0,0,0,0,0,0,0,0,0,
55,55,55,55,55,0,0,0,0,0,0,0,0,0,0,0
</chunk>
    <chunk x="-16" y="16" width="16" height="16">
0,0,0,0,0,0,0,0,0,0,0,0,0,0,0,55,
0,0,0,0,0,0,0,0,0,0,0,0,0,0,0,55,
0,0,0,0,0,0,0,0,0,0,0,0,0,0,0,55,
0,0,0,0,0,0,0,0,0,0,0,0,0,0,0,55,
0,0,0,0,0,0,0,0,0,0,0,0,0,0,0,55,
0,0,0,0,0,0,0,0,0,0,0,0,0,0,0,55,
0,0,0,0,0,0,0,0,0,0,0,0,0,0,0,55,
0,0,0,0,0,0,0,0,0,0,0,0,0,0,0,8074,
0,0,0,0,0,0,0,0,0,0,0,0,0,0,0,0,
0,0,0,0,0,0,0,0,0,0,0,0,0,0,0,0,
0,0,0,0,0,0,0,0,0,0,0,0,0,0,0,0,
0,0,0,0,0,0,0,0,0,0,0,0,0,0,0,0,
0,0,0,0,0,0,0,0,0,0,0,0,0,0,0,0,
0,0,0,0,0,0,0,0,0,0,0,0,0,0,0,0,
0,0,0,0,0,0,0,0,0,0,0,0,0,0,0,0,
0,0,0,0,0,0,0,0,0,0,0,0,0,0,0,0
</chunk>
    <chunk x="0" y="16" width="16" height="16">
55,55,55,55,55,55,55,55,55,55,55,55,55,55,55,55,
55,55,55,55,55,55,55,55,55,55,55,55,55,55,55,55,
55,55,55,55,55,55,55,55,55,55,55,55,55,55,55,55,
55,55,55,55,55,55,55,55,55,55,55,55,55,55,55,55,
55,55,55,55,55,55,55,8063,8106,8092,8106,8106,8092,8066,55,55,
55,55,8063,8106,8066,55,8063,8107,8129,8115,8129,8129,8115,8105,8106,8066,
55,8063,8107,8129,8095,8106,8107,8130,8036,8045,8046,8037,8046,8128,8129,8105,
8106,8107,8130,0,8128,8129,8130,8058,8059,8068,8069,8060,8069,8061,0,8128,
0,0,0,0,0,0,0,0,0,0,0,0,0,0,0,0,
0,0,0,0,0,0,0,0,0,0,0,0,0,0,0,0,
0,0,0,0,0,0,0,0,0,0,0,0,0,0,0,0,
0,0,0,0,0,0,0,0,0,0,0,0,0,0,0,0,
0,0,0,0,0,0,0,0,0,0,0,0,0,0,0,0,
0,0,0,0,0,0,0,0,0,0,0,0,0,0,0,0,
0,0,0,0,0,0,0,0,0,0,0,0,0,0,0,0,
0,0,0,0,0,0,0,0,0,0,0,0,0,0,0,0
</chunk>
    <chunk x="16" y="16" width="16" height="16">
55,55,55,55,55,55,55,55,55,55,55,55,55,55,55,55,
55,55,55,55,55,55,55,55,55,55,55,8074,8075,8076,55,55,
55,55,55,55,55,55,55,55,55,55,55,8097,8098,8099,55,55,
55,55,55,55,55,55,55,55,55,55,55,8120,8121,8122,55,55,
55,55,55,55,55,55,55,55,55,55,55,55,55,55,55,55,
55,55,55,55,55,55,55,55,55,55,55,55,55,55,55,55,
8106,8091,8076,55,55,55,55,55,55,55,55,55,55,55,55,55,
8129,8114,8105,8076,55,55,55,55,55,55,55,55,55,55,55,55,
0,0,0,0,0,0,0,0,0,0,0,0,0,0,0,0,
0,0,0,0,0,0,0,0,0,0,0,0,0,0,0,0,
0,0,0,0,0,0,0,0,0,0,0,0,0,0,0,0,
0,0,0,0,0,0,0,0,0,0,0,0,0,0,0,0,
0,0,0,0,0,0,0,0,0,0,0,0,0,0,0,0,
0,0,0,0,0,0,0,0,0,0,0,0,0,0,0,0,
0,0,0,0,0,0,0,0,0,0,0,0,0,0,0,0,
0,0,0,0,0,0,0,0,0,0,0,0,0,0,0,0
</chunk>
    <chunk x="32" y="16" width="16" height="16">
55,55,55,55,55,0,0,0,0,0,0,0,0,0,0,0,
55,55,55,55,55,0,0,0,0,0,0,0,0,0,0,0,
55,55,55,55,55,0,0,0,0,0,0,0,0,0,0,0,
55,55,55,55,55,0,0,0,0,0,0,0,0,0,0,0,
55,55,55,55,55,0,0,0,0,0,0,0,0,0,0,0,
55,55,55,55,55,0,0,0,0,0,0,0,0,0,0,0,
55,55,55,55,55,0,0,0,0,0,0,0,0,0,0,0,
55,55,55,55,55,0,0,0,0,0,0,0,0,0,0,0,
0,0,0,0,0,0,0,0,0,0,0,0,0,0,0,0,
0,0,0,0,0,0,0,0,0,0,0,0,0,0,0,0,
0,0,0,0,0,0,0,0,0,0,0,0,0,0,0,0,
0,0,0,0,0,0,0,0,0,0,0,0,0,0,0,0,
0,0,0,0,0,0,0,0,0,0,0,0,0,0,0,0,
0,0,0,0,0,0,0,0,0,0,0,0,0,0,0,0,
0,0,0,0,0,0,0,0,0,0,0,0,0,0,0,0,
0,0,0,0,0,0,0,0,0,0,0,0,0,0,0,0
</chunk>
   </data>
  </layer>
  <layer id="84" name="darker_surface1" width="38" height="25">
   <data encoding="csv">
    <chunk x="0" y="-16" width="16" height="16">
0,0,0,0,0,0,0,0,0,0,0,0,0,0,0,0,
0,0,0,0,0,0,0,0,0,0,0,0,0,0,0,0,
0,0,0,0,0,0,0,0,0,0,0,0,0,0,0,0,
0,0,0,0,0,0,0,0,0,0,0,0,0,0,0,0,
0,0,0,0,0,0,0,0,0,0,0,0,0,0,0,0,
0,0,0,0,0,0,0,0,0,0,0,0,0,0,0,0,
0,0,0,0,0,0,0,0,0,0,0,0,0,0,0,0,
0,0,0,0,0,0,0,0,0,0,0,0,0,0,0,0,
0,0,0,0,0,0,0,0,0,0,0,0,0,0,0,0,
0,0,0,0,0,0,0,0,0,0,0,0,0,0,0,0,
0,0,0,0,0,0,0,0,0,0,0,0,0,0,0,0,
0,0,0,0,0,0,0,0,0,0,0,0,0,0,0,0,
0,0,0,0,0,0,0,0,0,0,0,0,0,0,0,0,
0,0,0,0,0,0,0,0,0,0,0,0,0,0,0,0,
0,0,0,0,0,0,0,0,0,0,0,0,0,0,0,0,
0,0,0,0,0,0,0,0,0,0,0,0,1496,1496,1496,0
</chunk>
    <chunk x="0" y="0" width="16" height="16">
0,0,0,0,0,0,0,0,0,0,1496,1496,1496,1472,1523,0,
0,0,0,0,0,0,0,0,1496,1496,1496,1472,1522,1523,0,0,
0,0,0,0,0,0,0,0,1496,1496,1472,1523,0,0,0,0,
0,0,0,0,0,0,0,0,1527,1528,1523,0,0,0,0,0,
0,0,0,0,0,0,0,0,0,0,0,0,0,0,0,0,
0,0,0,0,0,0,0,0,0,0,0,0,0,0,0,0,
0,1496,1497,0,0,0,0,0,0,0,0,0,0,0,0,0,
0,1496,1524,1471,0,0,0,0,0,0,0,0,0,0,0,0,
0,1496,1496,1524,1470,1471,0,0,0,0,0,0,0,0,0,0,
0,1496,1496,1496,1496,1497,0,0,0,0,0,0,0,0,0,0,
1496,1496,1496,1496,1496,1524,1470,1471,1469,1501,1502,0,0,0,0,0,
0,0,0,0,1496,1496,1496,1524,1525,1496,1496,0,0,0,0,0,
0,0,0,0,0,1496,1496,1496,1496,1496,1496,0,0,0,0,0,
0,0,0,0,0,1496,1496,1496,1496,1496,0,0,0,0,0,0,
0,0,0,0,0,1496,1496,1496,1496,0,0,0,0,0,0,0,
0,0,0,0,1496,1496,1496,1496,1472,0,0,0,0,0,0,0
</chunk>
    <chunk x="16" y="0" width="16" height="16">
0,0,0,0,0,0,0,0,0,0,0,0,0,0,0,0,
0,0,0,0,0,1496,0,0,0,0,0,0,0,0,0,0,
0,0,0,0,1496,1496,0,0,0,0,0,0,0,0,0,0,
0,0,0,1469,1525,1496,1496,0,0,0,0,0,0,0,0,0,
0,0,0,1495,1496,1496,0,0,0,0,0,0,0,0,0,0,
0,0,0,1521,1473,1496,0,0,0,0,0,0,0,0,0,0,
0,0,0,0,1521,1473,1496,1496,0,0,0,0,0,0,0,0,
0,0,0,0,0,1521,1473,1496,1496,0,0,0,0,0,0,0,
0,0,0,0,0,0,1495,1496,1496,1496,0,0,0,0,0,0,
0,0,0,0,0,0,1499,1496,1496,1496,1496,1496,0,0,0,0,
0,0,0,0,0,0,1496,1496,1496,1496,1496,1496,1496,1496,0,0,
0,0,0,0,0,0,0,0,1496,1496,1496,1496,1496,1496,0,0,
0,0,0,0,0,0,0,0,1496,1472,1522,1473,1496,1496,0,0,
0,0,0,0,0,0,0,0,1496,1523,0,1495,1496,1472,1523,0,
0,0,0,0,0,0,0,0,0,0,0,1521,1522,1523,0,0,
0,0,0,0,0,0,0,0,0,0,0,0,0,0,0,0
</chunk>
    <chunk x="32" y="0" width="16" height="16">
0,0,0,0,0,0,0,0,0,0,0,0,0,0,0,0,
0,0,0,0,0,0,0,0,0,0,0,0,0,0,0,0,
0,0,0,0,0,0,0,0,0,0,0,0,0,0,0,0,
0,0,0,0,0,0,0,0,0,0,0,0,0,0,0,0,
0,0,0,0,0,0,0,0,0,0,0,0,0,0,0,0,
0,0,0,0,0,0,0,0,0,0,0,0,0,0,0,0,
0,0,0,0,0,0,0,0,0,0,0,0,0,0,0,0,
0,0,0,0,0,0,0,0,0,0,0,0,0,0,0,0,
0,0,0,0,0,0,0,0,0,0,0,0,0,0,0,0,
0,0,0,0,0,0,0,0,0,0,0,0,0,0,0,0,
0,0,0,1495,1496,0,0,0,0,0,0,0,0,0,0,0,
0,0,0,1495,1496,0,0,0,0,0,0,0,0,0,0,0,
0,1468,1469,1525,1496,0,0,0,0,0,0,0,0,0,0,0,
0,1494,1495,1496,1496,0,0,0,0,0,0,0,0,0,0,0,
0,1520,1521,1473,1496,0,0,0,0,0,0,0,0,0,0,0,
0,0,0,1521,1522,0,0,0,0,0,0,0,0,0,0,0
</chunk>
    <chunk x="0" y="16" width="16" height="16">
0,0,0,1496,1496,1496,1472,1522,1523,0,0,0,0,0,0,0,
0,0,0,1496,1496,1472,1523,0,0,0,0,0,0,0,0,0,
0,0,1496,1496,1472,1523,0,0,0,0,0,0,0,0,0,0,
0,0,1527,1522,1523,0,0,0,0,0,0,0,0,0,0,0,
0,0,0,0,0,0,0,0,0,0,0,0,0,0,0,0,
0,0,0,0,0,0,0,0,0,0,0,0,0,0,0,0,
0,0,0,0,0,0,0,0,0,0,0,0,0,0,0,0,
0,0,0,0,0,0,0,0,0,0,0,0,0,0,0,0,
0,0,0,0,0,0,0,0,0,0,0,0,0,0,0,0,
0,0,0,0,0,0,0,0,0,0,0,0,0,0,0,0,
0,0,0,0,0,0,0,0,0,0,0,0,0,0,0,0,
0,0,0,0,0,0,0,0,0,0,0,0,0,0,0,0,
0,0,0,0,0,0,0,0,0,0,0,0,0,0,0,0,
0,0,0,0,0,0,0,0,0,0,0,0,0,0,0,0,
0,0,0,0,0,0,0,0,0,0,0,0,0,0,0,0,
0,0,0,0,0,0,0,0,0,0,0,0,0,0,0,0
</chunk>
    <chunk x="16" y="16" width="16" height="16">
0,0,0,0,0,0,0,0,0,1497,0,0,0,0,0,0,
0,0,0,0,0,0,0,1496,1496,1524,1471,0,0,0,0,0,
0,0,0,0,0,0,1496,1496,1496,1496,1497,0,0,0,0,0,
0,0,0,0,0,1522,1473,1496,1496,1472,1523,0,0,0,0,0,
0,0,0,0,0,0,1521,1527,1522,1523,0,0,0,0,0,1469,
0,0,0,0,0,0,0,0,0,0,0,0,0,0,1469,1525,
0,0,0,0,0,0,0,0,0,0,0,1469,1502,1470,1525,1496,
0,0,0,0,0,0,0,0,0,0,0,1495,1496,1496,1496,1496,
0,0,0,0,0,0,0,0,0,0,0,0,0,0,0,0,
0,0,0,0,0,0,0,0,0,0,0,0,0,0,0,0,
0,0,0,0,0,0,0,0,0,0,0,0,0,0,0,0,
0,0,0,0,0,0,0,0,0,0,0,0,0,0,0,0,
0,0,0,0,0,0,0,0,0,0,0,0,0,0,0,0,
0,0,0,0,0,0,0,0,0,0,0,0,0,0,0,0,
0,0,0,0,0,0,0,0,0,0,0,0,0,0,0,0,
0,0,0,0,0,0,0,0,0,0,0,0,0,0,0,0
</chunk>
    <chunk x="32" y="16" width="16" height="16">
0,0,0,0,0,0,0,0,0,0,0,0,0,0,0,0,
0,0,0,0,0,0,0,0,0,0,0,0,0,0,0,0,
0,0,0,0,0,0,0,0,0,0,0,0,0,0,0,0,
0,1469,1470,1471,0,0,0,0,0,0,0,0,0,0,0,0,
1470,1525,1496,1524,1470,0,0,0,0,0,0,0,0,0,0,0,
1496,1496,1496,1496,1496,0,0,0,0,0,0,0,0,0,0,0,
1496,1496,1496,1496,1496,0,0,0,0,0,0,0,0,0,0,0,
1496,1496,1496,1496,1496,0,0,0,0,0,0,0,0,0,0,0,
0,0,0,0,0,0,0,0,0,0,0,0,0,0,0,0,
0,0,0,0,0,0,0,0,0,0,0,0,0,0,0,0,
0,0,0,0,0,0,0,0,0,0,0,0,0,0,0,0,
0,0,0,0,0,0,0,0,0,0,0,0,0,0,0,0,
0,0,0,0,0,0,0,0,0,0,0,0,0,0,0,0,
0,0,0,0,0,0,0,0,0,0,0,0,0,0,0,0,
0,0,0,0,0,0,0,0,0,0,0,0,0,0,0,0,
0,0,0,0,0,0,0,0,0,0,0,0,0,0,0,0
</chunk>
   </data>
  </layer>
  <layer id="81" name="bridge" width="38" height="25">
   <data encoding="csv">
    <chunk x="0" y="16" width="16" height="16">
0,0,0,0,0,0,0,0,0,0,0,0,0,0,0,0,
0,0,0,0,0,0,0,0,0,0,0,0,0,0,0,0,
0,0,0,0,0,0,0,0,0,0,0,0,0,0,0,0,
0,0,0,0,0,0,0,0,0,0,8078,8079,0,0,0,0,
0,0,0,0,0,0,0,0,0,0,8101,8102,0,0,0,0,
0,0,0,0,0,0,0,0,0,0,8124,8125,0,0,0,0,
0,0,0,0,0,0,0,0,0,0,8147,8148,0,0,0,0,
0,0,0,0,0,0,0,0,0,0,8170,8171,0,0,0,0,
0,0,0,0,0,0,0,0,0,0,0,0,0,0,0,0,
0,0,0,0,0,0,0,0,0,0,0,0,0,0,0,0,
0,0,0,0,0,0,0,0,0,0,0,0,0,0,0,0,
0,0,0,0,0,0,0,0,0,0,0,0,0,0,0,0,
0,0,0,0,0,0,0,0,0,0,0,0,0,0,0,0,
0,0,0,0,0,0,0,0,0,0,0,0,0,0,0,0,
0,0,0,0,0,0,0,0,0,0,0,0,0,0,0,0,
0,0,0,0,0,0,0,0,0,0,0,0,0,0,0,0
</chunk>
   </data>
  </layer>
  <layer id="77" name="bricks2" width="38" height="25">
   <data encoding="csv">
    <chunk x="0" y="0" width="16" height="16">
0,0,0,0,0,0,0,0,0,0,0,0,0,0,0,0,
0,0,0,0,0,0,0,0,0,0,0,0,0,0,0,0,
0,0,0,0,0,0,0,0,0,0,0,0,0,0,0,0,
0,0,0,0,0,979,981,0,0,0,0,0,0,0,0,0,
0,0,0,0,0,979,981,0,0,0,0,0,0,0,0,0,
0,0,0,0,0,979,981,0,0,0,0,0,0,0,0,0,
0,0,0,0,0,979,1038,955,0,0,0,0,0,0,0,0,
0,0,0,0,0,1005,935,1038,954,957,958,954,955,0,0,0,
0,0,0,0,0,0,1005,1006,983,984,1006,984,0,0,0,0,
0,0,0,0,0,0,0,0,0,0,0,0,0,0,0,0,
0,0,0,0,0,0,0,0,0,0,0,0,0,0,0,0,
0,0,0,0,0,0,0,0,0,0,0,0,0,0,0,0,
0,0,0,0,0,0,0,0,0,0,0,0,0,0,0,0,
0,0,0,0,0,0,0,0,0,0,0,0,0,0,0,0,
0,0,0,0,0,0,0,0,0,0,0,0,0,0,0,0,
0,0,0,0,0,0,0,0,0,0,0,0,0,0,0,0
</chunk>
    <chunk x="16" y="0" width="16" height="16">
0,0,0,0,0,0,0,0,0,0,0,0,0,0,0,0,
0,0,0,0,0,0,0,0,0,0,0,0,0,0,0,0,
0,0,0,0,0,0,0,0,0,0,0,0,0,0,0,0,
0,0,0,0,0,0,0,0,0,0,0,0,0,0,0,0,
0,0,0,0,0,0,0,0,0,0,0,0,0,0,0,0,
0,0,0,0,0,0,0,0,0,0,0,0,0,0,0,0,
0,0,0,0,0,0,0,0,0,0,0,0,0,0,0,0,
0,0,0,0,0,0,0,0,0,0,0,0,0,0,0,0,
0,0,0,0,0,0,0,0,0,0,0,0,0,0,0,0,
0,0,0,0,0,0,0,0,0,0,0,0,0,0,0,0,
0,0,0,0,0,0,0,0,0,0,0,0,0,0,0,0,
0,0,0,0,0,0,0,0,0,0,0,0,0,0,0,0,
0,0,0,0,0,0,0,0,0,0,0,0,0,0,979,981,
0,0,0,0,0,0,0,0,0,0,0,0,0,0,979,981,
0,0,0,0,0,0,0,0,0,0,0,0,0,0,979,981,
0,0,0,0,0,0,0,0,0,0,0,0,0,0,979,1038
</chunk>
    <chunk x="32" y="0" width="16" height="16">
0,0,0,0,0,0,0,0,0,0,0,0,0,0,0,0,
0,0,0,0,0,0,0,0,0,0,0,0,0,0,0,0,
0,0,0,0,0,0,0,0,0,0,0,0,0,0,0,0,
0,0,0,0,0,0,0,0,0,0,0,0,0,0,0,0,
0,0,0,0,0,0,0,0,0,0,0,0,0,0,0,0,
0,0,0,0,0,0,0,0,0,0,0,0,0,0,0,0,
0,0,0,0,0,0,0,0,0,0,0,0,0,0,0,0,
0,0,0,0,0,0,0,0,0,0,0,0,0,0,0,0,
0,0,0,0,0,0,0,0,0,0,0,0,0,0,0,0,
0,0,0,0,0,0,0,0,0,0,0,0,0,0,0,0,
0,0,0,0,0,0,0,0,0,0,0,0,0,0,0,0,
0,0,0,0,0,0,0,0,0,0,0,0,0,0,0,0,
0,0,0,0,0,0,0,0,0,0,0,0,0,0,0,0,
0,0,0,0,0,0,0,0,0,0,0,0,0,0,0,0,
0,0,0,0,0,0,0,0,0,0,0,0,0,0,0,0,
955,0,0,0,0,0,0,0,0,0,0,0,0,0,0,0
</chunk>
    <chunk x="16" y="16" width="16" height="16">
0,0,0,0,0,0,0,0,0,0,0,0,0,0,1005,935,
0,0,0,0,0,0,0,0,0,0,0,0,0,0,0,1005,
0,0,0,0,0,0,0,0,0,0,0,0,0,0,0,0,
0,0,979,981,0,0,0,0,0,0,0,0,0,0,0,0,
0,0,979,1038,954,955,0,0,0,0,0,0,0,0,0,0,
0,0,1005,1006,1013,1038,957,958,954,958,957,958,954,958,954,955,
0,0,0,0,1005,983,984,1006,984,984,984,1006,984,1006,1013,1038,
0,0,0,0,0,0,0,0,0,0,0,0,0,0,1005,1006,
0,0,0,0,0,0,0,0,0,0,0,0,0,0,0,0,
0,0,0,0,0,0,0,0,0,0,0,0,0,0,0,0,
0,0,0,0,0,0,0,0,0,0,0,0,0,0,0,0,
0,0,0,0,0,0,0,0,0,0,0,0,0,0,0,0,
0,0,0,0,0,0,0,0,0,0,0,0,0,0,0,0,
0,0,0,0,0,0,0,0,0,0,0,0,0,0,0,0,
0,0,0,0,0,0,0,0,0,0,0,0,0,0,0,0,
0,0,0,0,0,0,0,0,0,0,0,0,0,0,0,0
</chunk>
    <chunk x="32" y="16" width="16" height="16">
1038,954,957,958,954,0,0,0,0,0,0,0,0,0,0,0,
1006,983,984,1006,984,0,0,0,0,0,0,0,0,0,0,0,
0,0,0,0,0,0,0,0,0,0,0,0,0,0,0,0,
0,0,0,0,0,0,0,0,0,0,0,0,0,0,0,0,
0,0,0,0,0,0,0,0,0,0,0,0,0,0,0,0,
0,0,0,0,0,0,0,0,0,0,0,0,0,0,0,0,
954,955,0,0,0,0,0,0,0,0,0,0,0,0,0,0,
1013,1038,955,0,0,0,0,0,0,0,0,0,0,0,0,0,
0,0,0,0,0,0,0,0,0,0,0,0,0,0,0,0,
0,0,0,0,0,0,0,0,0,0,0,0,0,0,0,0,
0,0,0,0,0,0,0,0,0,0,0,0,0,0,0,0,
0,0,0,0,0,0,0,0,0,0,0,0,0,0,0,0,
0,0,0,0,0,0,0,0,0,0,0,0,0,0,0,0,
0,0,0,0,0,0,0,0,0,0,0,0,0,0,0,0,
0,0,0,0,0,0,0,0,0,0,0,0,0,0,0,0,
0,0,0,0,0,0,0,0,0,0,0,0,0,0,0,0
</chunk>
   </data>
  </layer>
  <layer id="73" name="elevated_space2" width="38" height="25">
   <data encoding="csv">
    <chunk x="-16" y="-16" width="16" height="16">
0,0,0,0,0,0,0,0,0,0,0,0,0,0,0,0,
0,0,0,0,0,0,0,0,0,0,0,0,0,0,0,0,
0,0,0,0,0,0,0,0,0,0,0,0,0,0,0,0,
0,0,0,0,0,0,0,0,0,0,0,0,0,0,0,0,
0,0,0,0,0,0,0,0,0,0,0,0,0,0,0,0,
0,0,0,0,0,0,0,0,0,0,0,0,0,0,0,0,
0,0,0,0,0,0,0,0,0,0,0,0,0,0,0,0,
0,0,0,0,0,0,0,0,0,0,0,0,0,0,0,0,
0,0,0,0,0,0,0,0,0,0,0,0,0,0,0,0,
0,0,0,0,0,0,0,0,0,0,0,0,0,0,0,0,
0,0,0,0,0,0,0,0,0,0,0,0,0,0,0,0,
0,0,0,0,0,0,0,0,0,0,0,0,0,0,0,0,
0,0,0,0,0,0,0,0,0,0,0,0,0,0,0,0,
0,0,0,0,0,0,0,0,0,0,0,0,0,0,0,0,
0,0,0,0,0,0,0,0,0,0,0,0,0,0,0,0,
0,0,0,0,0,0,0,0,0,0,0,0,0,0,0,55
</chunk>
    <chunk x="0" y="-16" width="16" height="16">
0,0,0,0,0,0,0,0,0,0,0,0,0,0,0,0,
0,0,0,0,0,0,0,0,0,0,0,0,0,0,0,0,
0,0,0,0,0,0,0,0,0,0,0,0,0,0,0,0,
0,0,0,0,0,0,0,0,0,0,0,0,0,0,0,0,
0,0,0,0,0,0,0,0,0,0,0,0,0,0,0,0,
0,0,0,0,0,0,0,0,0,0,0,0,0,0,0,0,
0,0,0,0,0,0,0,0,0,0,0,0,0,0,0,0,
0,0,0,0,0,0,0,0,0,0,0,0,0,0,0,0,
0,0,0,0,0,0,0,0,0,0,0,0,0,0,0,0,
0,0,0,0,0,0,0,0,0,0,0,0,0,0,0,0,
0,0,0,0,0,0,0,0,0,0,0,0,0,0,0,0,
0,0,0,0,0,0,0,0,0,0,0,0,0,0,0,0,
0,0,0,0,0,0,0,0,0,0,0,0,0,0,0,0,
0,0,0,0,0,0,0,0,0,0,0,0,0,0,0,0,
0,0,0,0,0,0,0,0,0,0,0,0,0,0,0,0,
55,55,55,55,55,55,55,55,55,940,941,851,306,0,0,0
</chunk>
    <chunk x="-16" y="0" width="16" height="16">
0,0,0,0,0,0,0,0,0,0,0,0,0,0,0,55,
0,0,0,0,0,0,0,0,0,0,0,0,0,0,0,55,
0,0,0,0,0,0,0,0,0,0,0,0,0,0,0,55,
0,0,0,0,0,0,0,0,0,0,0,0,0,0,0,55,
0,0,0,0,0,0,0,0,0,0,0,0,0,0,0,55,
0,0,0,0,0,0,0,0,0,0,0,0,0,0,0,55,
0,0,0,0,0,0,0,0,0,0,0,0,0,0,0,55,
0,0,0,0,0,0,0,0,0,0,0,0,0,0,0,304,
0,0,0,0,0,0,0,0,0,0,0,0,0,0,0,330,
0,0,0,0,0,0,0,0,0,0,0,0,0,0,0,356,
0,0,0,0,0,0,0,0,0,0,0,0,0,0,0,0,
0,0,0,0,0,0,0,0,0,0,0,0,0,0,0,0,
0,0,0,0,0,0,0,0,0,0,0,0,0,0,0,0,
0,0,0,0,0,0,0,0,0,0,0,0,0,0,0,0,
0,0,0,0,0,0,0,0,0,0,0,0,0,0,0,0,
0,0,0,0,0,0,0,0,0,0,0,0,0,0,0,0
</chunk>
    <chunk x="0" y="0" width="16" height="16">
55,55,55,55,55,55,55,950,951,966,2048,2073,332,0,0,0,
55,55,55,55,55,55,55,976,2033,2084,2074,2099,358,0,0,0,
55,55,55,55,55,55,55,1002,2059,2110,2090,0,0,0,0,0,
55,55,945,850,856,857,850,1028,1029,0,0,0,0,0,0,0,
55,55,425,426,336,337,1090,331,332,0,0,0,0,0,0,0,
399,400,451,452,362,1439,1116,357,358,0,0,0,0,0,0,0,
425,2033,1829,478,0,0,0,0,0,0,0,0,0,299,549,6,
451,2059,1855,504,0,0,0,0,0,0,1,548,549,871,575,578,
477,478,0,0,0,0,0,0,0,0,27,574,575,897,55,55,
503,504,0,0,0,0,0,0,0,0,53,600,528,55,55,55,
0,0,0,0,0,0,0,0,1,2,230,231,55,55,55,55,
0,0,0,0,0,0,0,0,27,28,256,257,55,55,55,0,
0,0,0,0,0,0,0,0,53,54,55,55,55,55,55,0,
0,0,0,0,0,0,0,0,204,205,55,55,55,55,55,55,
0,0,0,0,0,0,0,0,178,179,55,55,55,55,55,55,
0,0,0,0,0,0,0,0,302,303,304,392,393,55,55,55
</chunk>
    <chunk x="16" y="0" width="16" height="16">
0,0,0,0,0,0,0,0,0,0,0,0,0,0,0,0,
0,0,0,0,0,0,0,0,0,0,0,0,0,0,0,0,
0,0,0,0,0,0,0,0,0,0,0,0,0,0,0,0,
0,0,0,0,0,0,0,0,0,0,0,0,0,0,0,0,
0,0,0,0,0,0,0,0,0,0,0,0,0,0,0,0,
0,0,0,0,0,0,0,0,0,0,0,0,0,0,0,0,
7,549,550,5,0,0,0,0,0,0,0,0,0,0,0,0,
579,575,576,31,0,0,0,0,0,0,0,0,0,0,0,0,
524,601,601,57,0,0,0,0,0,0,0,0,0,0,0,0,
55,55,0,0,0,0,0,0,0,0,0,0,0,0,0,0,
0,0,0,0,0,0,0,0,0,0,0,0,0,0,0,0,
0,0,0,0,0,0,0,0,265,266,0,0,0,0,0,0,
0,0,0,0,55,0,0,0,291,292,301,0,0,0,0,0,
55,55,0,0,55,55,0,0,317,318,4,5,0,0,0,0,
55,55,55,55,55,55,55,55,343,344,30,31,0,0,0,0,
55,55,55,55,55,55,55,55,399,400,305,306,0,0,0,0
</chunk>
    <chunk x="0" y="16" width="16" height="16">
0,0,0,0,0,0,0,0,328,329,330,418,419,397,398,55,
0,0,0,0,0,0,0,0,354,355,356,444,445,423,424,55,
0,0,0,0,0,0,0,0,0,0,0,470,471,449,450,310,
0,0,0,0,0,0,0,0,0,0,0,0,0,475,476,336,
0,0,0,0,0,0,0,0,0,0,0,0,0,501,502,362,
0,0,0,0,0,0,0,0,0,0,0,0,0,0,0,0,
0,0,0,0,0,0,0,0,0,0,0,0,0,0,0,0,
0,0,0,0,0,0,0,0,0,0,0,0,0,0,0,0,
0,0,0,0,0,0,0,0,0,0,0,0,0,0,0,0,
0,0,0,0,0,0,0,0,0,0,0,0,0,0,0,0,
0,0,0,0,0,0,0,0,0,0,0,0,0,0,0,0,
0,0,0,0,0,0,0,0,0,0,0,0,0,0,0,0,
0,0,0,0,0,0,0,0,0,0,0,0,0,0,0,0,
0,0,0,0,0,0,0,0,0,0,0,0,0,0,0,0,
0,0,0,0,0,0,0,0,0,0,0,0,0,0,0,0,
0,0,0,0,0,0,0,0,0,0,0,0,0,0,0,0
</chunk>
    <chunk x="16" y="16" width="16" height="16">
55,55,55,55,55,55,55,55,425,426,331,332,0,0,0,0,
55,55,55,55,55,394,395,304,451,452,357,358,0,0,0,0,
304,311,304,310,311,420,421,330,477,478,0,0,0,0,0,0,
330,337,1324,1178,337,446,447,356,503,504,0,0,0,0,0,0,
356,363,1350,1204,363,472,473,0,0,0,0,0,0,0,0,0,
0,0,0,0,0,0,0,0,0,0,0,0,0,0,0,0,
0,0,0,0,0,0,0,0,0,0,0,0,0,0,0,0,
0,0,0,0,0,0,0,0,0,0,0,0,0,0,0,0,
0,0,0,0,0,0,0,0,0,0,0,0,0,0,0,0,
0,0,0,0,0,0,0,0,0,0,0,0,0,0,0,0,
0,0,0,0,0,0,0,0,0,0,0,0,0,0,0,0,
0,0,0,0,0,0,0,0,0,0,0,0,0,0,0,0,
0,0,0,0,0,0,0,0,0,0,0,0,0,0,0,0,
0,0,0,0,0,0,0,0,0,0,0,0,0,0,0,0,
0,0,0,0,0,0,0,0,0,0,0,0,0,0,0,0,
0,0,0,0,0,0,0,0,0,0,0,0,0,0,0,0
</chunk>
   </data>
  </layer>
  <layer id="75" name="bricks" width="38" height="25">
   <data encoding="csv">
    <chunk x="-16" y="-16" width="16" height="16">
0,0,0,0,0,0,0,0,0,0,0,0,0,0,0,0,
0,0,0,0,0,0,0,0,0,0,0,0,0,0,0,0,
0,0,0,0,0,0,0,0,0,0,0,0,0,0,0,0,
0,0,0,0,0,0,0,0,0,0,0,0,0,0,0,0,
0,0,0,0,0,0,0,0,0,0,0,0,0,0,0,0,
0,0,0,0,0,0,0,0,0,0,0,0,0,0,0,0,
0,0,0,0,0,0,0,0,0,0,0,0,0,0,0,0,
0,0,0,0,0,0,0,0,0,0,0,0,0,0,0,0,
0,0,0,0,0,0,0,0,0,0,0,0,0,0,0,0,
0,0,0,0,0,0,0,0,0,0,0,0,0,0,0,0,
0,0,0,0,0,0,0,0,0,0,0,0,0,0,0,0,
0,0,0,0,0,0,0,0,0,0,0,0,0,0,0,0,
0,0,0,0,0,0,0,0,0,0,0,0,0,0,0,0,
0,0,0,0,0,0,0,0,0,0,0,0,0,0,0,0,
0,0,0,0,0,0,0,0,0,0,0,0,0,0,0,0,
0,0,0,0,0,0,0,0,0,0,0,0,0,0,0,1006
</chunk>
    <chunk x="0" y="-16" width="16" height="16">
0,0,0,0,0,0,0,0,0,0,0,0,0,0,0,0,
0,0,0,0,0,0,0,0,0,0,0,0,0,0,0,0,
0,0,0,0,0,0,0,0,0,0,0,0,0,0,0,0,
0,0,0,0,0,0,0,0,0,0,0,0,0,0,0,0,
0,0,0,0,0,0,0,0,0,0,0,0,0,0,0,0,
0,0,0,0,0,0,0,0,0,0,0,0,0,0,0,0,
0,0,0,0,0,0,0,0,0,0,0,0,0,0,0,0,
0,0,0,0,0,0,0,0,0,0,0,0,0,0,0,0,
0,0,0,0,0,0,0,0,0,0,0,0,0,0,0,0,
0,0,0,0,0,0,0,0,0,0,0,0,0,0,0,0,
0,0,0,0,0,0,0,0,0,0,0,0,0,0,0,0,
0,0,0,0,0,0,0,0,0,0,0,0,0,0,0,0,
0,0,0,0,0,0,0,0,0,0,0,0,0,0,0,0,
0,0,0,0,0,0,0,0,0,0,0,0,0,0,0,0,
0,0,0,0,0,0,0,0,0,0,0,0,0,0,0,0,
935,530,524,528,530,528,526,524,528,0,0,0,0,0,0,0
</chunk>
    <chunk x="0" y="0" width="16" height="16">
961,1013,530,526,980,530,528,0,0,0,0,0,0,0,0,0,
0,979,528,528,530,530,528,0,0,0,0,0,0,0,0,0,
953,1039,980,522,526,524,526,0,0,0,0,0,0,0,0,0,
1005,1013,0,0,0,0,0,0,0,0,0,0,0,0,0,0,
0,1005,1007,0,0,0,0,0,0,0,0,0,0,0,0,0,
0,0,0,0,0,0,0,0,0,0,0,0,0,0,0,0,
0,0,0,0,0,0,0,0,0,0,0,0,0,0,0,0,
0,0,0,0,0,0,0,0,0,0,0,0,0,0,0,0,
0,0,0,0,0,0,0,0,0,0,0,0,0,0,530,528,
0,0,0,0,0,0,0,0,0,0,0,0,0,526,526,528,
0,0,0,0,0,0,0,0,0,0,0,1005,1013,528,524,524,
0,0,0,0,0,0,0,0,0,0,0,953,1039,524,522,0,
0,0,0,0,0,0,0,0,0,0,0,1005,935,1012,1006,0,
0,0,0,0,0,0,0,0,0,0,0,0,961,1007,0,0,
0,0,0,0,0,0,0,0,0,0,0,0,0,0,0,0,
0,0,0,0,0,0,0,0,0,0,0,0,0,0,0,0
</chunk>
    <chunk x="16" y="0" width="16" height="16">
0,0,0,0,0,0,0,0,0,0,0,0,0,0,0,0,
0,0,0,0,0,0,0,0,0,0,0,0,0,0,0,0,
0,0,0,0,0,0,0,0,0,0,0,0,0,0,0,0,
0,0,0,0,0,0,0,0,0,0,0,0,0,0,0,0,
0,0,0,0,0,0,0,0,0,0,0,0,0,0,0,0,
0,0,0,0,0,0,0,0,0,0,0,0,0,0,0,0,
0,0,0,0,0,0,0,0,0,0,0,0,0,0,0,0,
0,0,0,0,0,0,0,0,0,0,0,0,0,0,0,0,
0,0,0,0,0,0,0,0,0,0,0,0,0,0,0,0,
0,0,0,0,0,0,0,0,0,0,0,0,0,0,0,0,
0,0,0,0,0,0,0,0,0,0,0,0,0,0,0,0,
0,0,0,0,0,0,0,0,0,0,0,0,0,0,0,0,
0,0,0,0,0,0,0,0,0,0,0,0,0,0,0,0,
0,0,0,0,0,0,0,0,0,0,0,0,0,0,0,0,
979,981,0,0,0,0,0,0,0,0,0,0,0,0,0,0,
979,981,0,0,0,0,0,0,0,0,0,0,0,0,0,0
</chunk>
    <chunk x="16" y="16" width="16" height="16">
979,1038,954,955,0,0,0,0,0,0,0,0,0,0,0,0,
1005,1006,935,981,0,0,0,0,0,0,0,0,0,0,0,0,
0,0,1005,1007,0,0,0,0,0,0,0,0,0,0,0,0,
0,0,0,0,0,0,0,0,0,0,0,0,0,0,0,0,
0,0,0,0,0,0,0,0,0,0,0,0,0,0,0,0,
0,0,0,0,0,0,0,0,0,0,0,0,0,0,0,0,
0,0,0,0,0,0,0,0,0,0,0,0,0,0,0,0,
0,0,0,0,0,0,0,0,0,0,0,0,0,0,0,0,
0,0,0,0,0,0,0,0,0,0,0,0,0,0,0,0,
0,0,0,0,0,0,0,0,0,0,0,0,0,0,0,0,
0,0,0,0,0,0,0,0,0,0,0,0,0,0,0,0,
0,0,0,0,0,0,0,0,0,0,0,0,0,0,0,0,
0,0,0,0,0,0,0,0,0,0,0,0,0,0,0,0,
0,0,0,0,0,0,0,0,0,0,0,0,0,0,0,0,
0,0,0,0,0,0,0,0,0,0,0,0,0,0,0,0,
0,0,0,0,0,0,0,0,0,0,0,0,0,0,0,0
</chunk>
   </data>
  </layer>
  <layer id="66" name="elevated_space" width="38" height="25">
   <data encoding="csv">
    <chunk x="0" y="-16" width="16" height="16">
0,0,0,0,0,0,0,0,0,0,0,0,0,0,0,0,
0,0,0,0,0,0,0,0,0,0,0,0,0,0,0,0,
0,0,0,0,0,0,0,0,0,0,0,0,0,0,0,0,
0,0,0,0,0,0,0,0,0,0,0,0,0,0,0,0,
0,0,0,0,0,0,0,0,0,0,0,0,0,0,0,0,
0,0,0,0,0,0,0,0,0,0,0,0,0,0,0,0,
0,0,0,0,0,0,0,0,0,0,0,0,0,0,0,0,
0,0,0,0,0,0,0,0,0,0,0,0,0,0,0,0,
0,0,0,0,0,0,0,0,0,0,0,0,0,0,0,0,
0,0,0,0,0,0,0,0,0,0,0,0,0,0,0,0,
0,0,0,0,0,0,0,0,0,0,0,0,0,0,0,0,
0,0,0,0,0,0,0,0,0,0,0,0,0,0,0,0,
0,0,0,0,0,0,0,0,0,0,0,0,0,0,0,0,
0,0,0,0,0,0,0,0,0,0,0,0,0,0,0,0,
0,0,0,0,0,0,0,0,0,0,0,0,0,0,0,0,
0,0,0,0,0,0,0,0,0,0,0,0,0,2050,1817,95
</chunk>
    <chunk x="16" y="-16" width="16" height="16">
0,0,0,0,0,0,0,0,0,0,0,0,0,0,0,0,
0,0,0,0,0,0,0,0,0,0,0,0,0,0,0,0,
0,0,0,0,0,0,0,0,0,0,0,0,0,0,0,0,
0,0,0,0,0,0,0,0,0,0,0,0,0,0,0,0,
0,0,0,0,0,0,0,0,0,0,0,0,0,0,0,0,
0,0,0,0,0,0,0,0,0,0,0,0,0,0,0,0,
0,0,0,0,0,0,0,0,0,0,0,0,0,0,0,0,
0,0,0,0,0,0,0,0,0,0,0,0,0,0,0,0,
0,0,0,0,0,0,0,0,0,0,0,0,0,0,0,0,
0,0,0,0,0,0,0,0,0,0,0,0,0,0,0,0,
0,0,0,0,0,0,0,0,0,0,0,0,0,0,0,0,
0,0,0,0,0,0,0,0,0,0,0,0,0,0,0,0,
0,0,0,0,0,0,0,0,0,0,0,0,0,0,0,0,
0,0,0,0,0,0,0,0,0,0,0,0,0,0,0,0,
0,0,0,0,0,0,0,0,0,0,0,0,0,0,0,0,
96,192,193,55,55,55,55,8063,8107,8087,8105,8066,55,55,55,55
</chunk>
    <chunk x="32" y="-16" width="16" height="16">
0,0,0,0,0,0,0,0,0,0,0,0,0,0,0,0,
0,0,0,0,0,0,0,0,0,0,0,0,0,0,0,0,
0,0,0,0,0,0,0,0,0,0,0,0,0,0,0,0,
0,0,0,0,0,0,0,0,0,0,0,0,0,0,0,0,
0,0,0,0,0,0,0,0,0,0,0,0,0,0,0,0,
0,0,0,0,0,0,0,0,0,0,0,0,0,0,0,0,
0,0,0,0,0,0,0,0,0,0,0,0,0,0,0,0,
0,0,0,0,0,0,0,0,0,0,0,0,0,0,0,0,
0,0,0,0,0,0,0,0,0,0,0,0,0,0,0,0,
0,0,0,0,0,0,0,0,0,0,0,0,0,0,0,0,
0,0,0,0,0,0,0,0,0,0,0,0,0,0,0,0,
0,0,0,0,0,0,0,0,0,0,0,0,0,0,0,0,
0,0,0,0,0,0,0,0,0,0,0,0,0,0,0,0,
0,0,0,0,0,0,0,0,0,0,0,0,0,0,0,0,
0,0,0,0,0,0,0,0,0,0,0,0,0,0,0,0,
55,55,55,55,55,0,0,0,0,0,0,0,0,0,0,0
</chunk>
    <chunk x="-16" y="0" width="16" height="16">
0,0,0,0,0,0,0,0,0,0,0,0,0,0,0,0,
0,0,0,0,0,0,0,0,0,0,0,0,0,0,0,0,
0,0,0,0,0,0,0,0,0,0,0,0,0,0,0,0,
0,0,0,0,0,0,0,0,0,0,0,0,0,0,0,0,
0,0,0,0,0,0,0,0,0,0,0,0,0,0,0,0,
0,0,0,0,0,0,0,0,0,0,0,0,0,0,0,0,
0,0,0,0,0,0,0,0,0,0,0,0,0,0,0,0,
0,0,0,0,0,0,0,0,0,0,0,0,0,0,0,3,
0,0,0,0,0,0,0,0,0,0,0,0,0,0,0,29,
0,0,0,0,0,0,0,0,0,0,0,0,0,0,0,55,
0,0,0,0,0,0,0,0,0,0,0,0,0,0,0,55,
0,0,0,0,0,0,0,0,0,0,0,0,0,0,0,55,
0,0,0,0,0,0,0,0,0,0,0,0,0,0,0,55,
0,0,0,0,0,0,0,0,0,0,0,0,0,0,0,55,
0,0,0,0,0,0,0,0,0,0,0,0,0,0,0,55,
0,0,0,0,0,0,0,0,0,0,0,0,0,0,0,55
</chunk>
    <chunk x="0" y="0" width="16" height="16">
0,0,0,0,0,0,0,0,0,0,0,0,0,1842,1843,121,
0,0,0,0,0,0,0,0,0,0,0,0,0,0,0,147,
0,0,0,0,0,0,0,0,0,0,0,0,0,0,0,0,
0,0,0,0,0,0,0,0,0,0,0,0,0,0,0,0,
0,0,0,0,0,0,0,0,0,0,0,0,0,0,0,0,
0,0,0,0,0,0,0,0,0,0,0,0,0,0,0,0,
0,0,0,0,0,0,0,0,0,0,0,0,0,0,0,0,
300,301,0,0,0,0,0,0,0,0,0,0,0,0,0,0,
326,327,4,5,0,0,0,0,0,0,0,0,0,0,1,2,
352,353,30,31,0,0,0,0,0,0,0,0,0,0,27,574,
55,55,228,229,4,5,0,0,0,0,0,0,0,0,599,600,
55,55,254,255,30,31,0,0,0,0,0,0,0,0,53,600,
55,55,55,55,56,57,0,0,0,0,0,0,0,0,79,626,
55,55,55,55,56,57,0,0,0,0,0,0,0,0,105,106,
55,55,173,174,82,83,0,0,0,0,0,0,0,0,131,132,
55,55,199,200,108,109,0,0,0,0,0,0,0,0,157,158
</chunk>
    <chunk x="16" y="0" width="16" height="16">
122,218,219,58,59,48,49,8086,8130,0,8128,8089,55,55,55,55,
148,244,245,84,85,74,75,8132,8061,8110,8059,8135,55,55,55,55,
0,131,132,110,1673,100,101,55,8132,8133,8135,55,55,55,0,55,
0,0,158,136,1699,126,127,55,55,55,55,55,55,55,0,55,
0,0,0,0,0,79,80,166,167,55,55,55,55,0,0,55,
0,0,0,0,0,105,106,192,193,55,55,55,55,0,55,55,
0,0,0,0,0,2082,2083,2030,219,166,167,55,55,55,55,55,
298,299,552,553,549,550,2109,2056,245,192,193,55,55,55,55,55,
870,871,578,579,575,576,31,2134,2135,2156,219,59,166,167,55,55,
896,897,524,522,528,774,229,4,2109,2182,245,85,192,193,55,55,
526,522,530,524,526,800,801,576,31,2134,2135,2141,2156,219,605,627,
522,528,524,524,522,530,526,602,57,2160,2161,2167,2182,245,631,653,
605,604,589,590,591,592,627,628,83,0,0,0,2134,2135,1413,679,
631,84,615,616,617,618,107,108,109,0,0,0,2160,2161,1439,705,
1413,1178,95,96,97,98,133,134,135,0,0,0,0,0,0,0,
1439,1204,121,122,123,124,159,160,161,0,0,0,0,0,0,0
</chunk>
    <chunk x="32" y="0" width="16" height="16">
55,55,55,55,55,0,0,0,0,0,0,0,0,0,0,0,
55,55,55,55,55,0,0,0,0,0,0,0,0,0,0,0,
55,55,55,55,55,0,0,0,0,0,0,0,0,0,0,0,
55,55,55,55,55,0,0,0,0,0,0,0,0,0,0,0,
55,55,55,55,55,0,0,0,0,0,0,0,0,0,0,0,
55,55,8074,8075,8076,0,0,0,0,0,0,0,0,0,0,0,
55,55,8097,8098,8099,0,0,0,0,0,0,0,0,0,0,0,
55,55,8120,8121,8122,0,0,0,0,0,0,0,0,0,0,0,
55,55,45,46,58,0,0,0,0,0,0,0,0,0,0,0,
45,46,71,72,84,0,0,0,0,0,0,0,0,0,0,0,
71,72,97,2038,2140,0,0,0,0,0,0,0,0,0,0,0,
97,98,123,2064,2166,0,0,0,0,0,0,0,0,0,0,0,
123,124,149,150,0,0,0,0,0,0,0,0,0,0,0,0,
149,150,0,0,0,0,0,0,0,0,0,0,0,0,0,0,
0,0,0,0,0,0,0,0,0,0,0,0,0,0,0,0,
0,0,0,0,0,0,0,0,0,0,0,0,0,0,0,0
</chunk>
    <chunk x="-16" y="16" width="16" height="16">
0,0,0,0,0,0,0,0,0,0,0,0,0,0,0,55,
0,0,0,0,0,0,0,0,0,0,0,0,0,0,0,55,
0,0,0,0,0,0,0,0,0,0,0,0,0,0,0,55,
0,0,0,0,0,0,0,0,0,0,0,0,0,0,0,59,
0,0,0,0,0,0,0,0,0,0,0,0,0,0,0,85,
0,0,0,0,0,0,0,0,0,0,0,0,0,0,0,111,
0,0,0,0,0,0,0,0,0,0,0,0,0,0,0,137,
0,0,0,0,0,0,0,0,0,0,0,0,0,0,0,0,
0,0,0,0,0,0,0,0,0,0,0,0,0,0,0,0,
0,0,0,0,0,0,0,0,0,0,0,0,0,0,0,0,
0,0,0,0,0,0,0,0,0,0,0,0,0,0,0,0,
0,0,0,0,0,0,0,0,0,0,0,0,0,0,0,0,
0,0,0,0,0,0,0,0,0,0,0,0,0,0,0,0,
0,0,0,0,0,0,0,0,0,0,0,0,0,0,0,0,
0,0,0,0,0,0,0,0,0,0,0,0,0,0,0,0,
0,0,0,0,0,0,0,0,0,0,0,0,0,0,0,0
</chunk>
    <chunk x="0" y="16" width="16" height="16">
55,55,225,2033,2137,2138,0,0,0,0,0,0,0,0,0,0,
168,169,251,2059,2163,2164,0,0,0,0,0,0,0,0,0,0,
194,195,108,109,0,0,0,0,0,0,0,0,0,0,0,0,
220,221,134,2138,0,0,0,0,0,0,0,0,0,0,0,0,
246,247,160,161,0,0,0,0,0,0,0,0,0,0,0,0,
134,135,0,0,0,0,0,0,0,0,0,0,0,0,0,0,
160,161,0,0,0,0,0,0,0,0,0,0,0,0,0,0,
0,0,0,0,0,0,0,0,0,0,0,0,0,0,0,0,
0,0,0,0,0,0,0,0,0,0,0,0,0,0,0,0,
0,0,0,0,0,0,0,0,0,0,0,0,0,0,0,0,
0,0,0,0,0,0,0,0,0,0,0,0,0,0,0,0,
0,0,0,0,0,0,0,0,0,0,0,0,0,0,0,0,
0,0,0,0,0,0,0,0,0,0,0,0,0,0,0,0,
0,0,0,0,0,0,0,0,0,0,0,0,0,0,0,0,
0,0,0,0,0,0,0,0,0,0,0,0,0,0,0,0,
0,0,0,0,0,0,0,0,0,0,0,0,0,0,0,0
</chunk>
    <chunk x="16" y="16" width="16" height="16">
0,0,147,148,149,150,150,0,0,0,0,0,0,0,0,0,
0,0,0,0,0,0,0,0,0,0,0,0,0,0,0,0,
0,0,0,0,0,0,0,0,0,0,0,0,0,0,0,0,
0,0,0,0,0,0,0,0,0,0,0,0,0,0,0,0,
0,0,0,0,0,0,0,0,0,0,0,0,0,0,0,0,
0,0,0,0,0,0,0,0,0,0,0,0,0,0,0,0,
0,0,0,0,0,0,0,0,0,0,0,0,0,0,0,0,
0,0,0,0,0,0,0,0,0,0,0,0,0,0,0,0,
0,0,0,0,0,0,0,0,0,0,0,0,0,0,0,0,
0,0,0,0,0,0,0,0,0,0,0,0,0,0,0,0,
0,0,0,0,0,0,0,0,0,0,0,0,0,0,0,0,
0,0,0,0,0,0,0,0,0,0,0,0,0,0,0,0,
0,0,0,0,0,0,0,0,0,0,0,0,0,0,0,0,
0,0,0,0,0,0,0,0,0,0,0,0,0,0,0,0,
0,0,0,0,0,0,0,0,0,0,0,0,0,0,0,0,
0,0,0,0,0,0,0,0,0,0,0,0,0,0,0,0
</chunk>
   </data>
  </layer>
  <layer id="85" name="darker_surface2" width="38" height="25">
   <data encoding="csv">
    <chunk x="16" y="-16" width="16" height="16">
0,0,0,0,0,0,0,0,0,0,0,0,0,0,0,0,
0,0,0,0,0,0,0,0,0,0,0,0,0,0,0,0,
0,0,0,0,0,0,0,0,0,0,0,0,0,0,0,0,
0,0,0,0,0,0,0,0,0,0,0,0,0,0,0,0,
0,0,0,0,0,0,0,0,0,0,0,0,0,0,0,0,
0,0,0,0,0,0,0,0,0,0,0,0,0,0,0,0,
0,0,0,0,0,0,0,0,0,0,0,0,0,0,0,0,
0,0,0,0,0,0,0,0,0,0,0,0,0,0,0,0,
0,0,0,0,0,0,0,0,0,0,0,0,0,0,0,0,
0,0,0,0,0,0,0,0,0,0,0,0,0,0,0,0,
0,0,0,0,0,0,0,0,0,0,0,0,0,0,0,0,
0,0,0,0,0,0,0,0,0,0,0,0,0,0,0,0,
0,0,0,0,0,0,0,0,0,0,0,0,0,0,0,0,
0,0,0,0,0,0,0,0,0,0,0,0,0,0,0,0,
0,0,0,0,0,0,0,0,0,0,0,0,0,0,0,0,
0,0,0,1521,1522,1523,0,0,0,0,0,0,0,0,0,0
</chunk>
    <chunk x="-16" y="0" width="16" height="16">
0,0,0,0,0,0,0,0,0,0,0,0,0,0,0,0,
0,0,0,0,0,0,0,0,0,0,0,0,0,0,0,0,
0,0,0,0,0,0,0,0,0,0,0,0,0,0,0,0,
0,0,0,0,0,0,0,0,0,0,0,0,0,0,0,0,
0,0,0,0,0,0,0,0,0,0,0,0,0,0,0,0,
0,0,0,0,0,0,0,0,0,0,0,0,0,0,0,0,
0,0,0,0,0,0,0,0,0,0,0,0,0,0,0,0,
0,0,0,0,0,0,0,0,0,0,0,0,0,0,0,0,
0,0,0,0,0,0,0,0,0,0,0,0,0,0,0,0,
0,0,0,0,0,0,0,0,0,0,0,0,0,0,0,0,
0,0,0,0,0,0,0,0,0,0,0,0,0,0,0,0,
0,0,0,0,0,0,0,0,0,0,0,0,0,0,0,0,
0,0,0,0,0,0,0,0,0,0,0,0,0,0,0,0,
0,0,0,0,0,0,0,0,0,0,0,0,0,0,0,1471,
0,0,0,0,0,0,0,0,0,0,0,0,0,0,0,1524,
0,0,0,0,0,0,0,0,0,0,0,0,0,0,0,1496
</chunk>
    <chunk x="0" y="0" width="16" height="16">
0,0,0,0,0,0,0,0,0,0,0,0,0,0,0,0,
0,0,0,0,0,0,0,0,0,0,0,0,0,0,0,0,
0,0,0,0,0,0,0,0,0,0,0,0,0,0,0,0,
0,0,0,0,0,0,0,0,0,0,0,0,0,0,0,0,
0,0,0,0,0,0,0,0,0,0,0,0,0,0,0,0,
0,0,0,0,0,0,0,0,0,0,0,0,0,0,0,0,
0,0,0,0,0,0,0,0,0,0,0,0,0,0,0,0,
0,0,0,0,0,0,0,0,0,0,0,0,0,0,0,0,
0,0,0,0,0,0,0,0,0,0,0,0,0,0,0,0,
0,0,0,0,0,0,0,0,0,0,0,0,0,0,0,0,
0,0,0,0,0,0,0,0,0,0,0,0,0,0,0,0,
0,0,0,0,0,0,0,0,0,0,0,0,0,0,0,0,
0,0,0,0,0,0,0,0,0,0,0,0,0,0,0,0,
0,0,0,0,0,0,0,0,0,0,0,0,0,0,0,0,
1471,0,0,0,0,0,0,0,0,0,0,0,0,0,0,0,
1524,1471,0,0,0,0,0,0,0,0,0,0,0,0,0,0
</chunk>
    <chunk x="-16" y="16" width="16" height="16">
0,0,0,0,0,0,0,0,0,0,0,0,0,0,0,1496,
0,0,0,0,0,0,0,0,0,0,0,0,0,0,0,1496,
0,0,0,0,0,0,0,0,0,0,0,0,0,0,0,1496,
0,0,0,0,0,0,0,0,0,0,0,0,0,0,0,1522,
0,0,0,0,0,0,0,0,0,0,0,0,0,0,0,0,
0,0,0,0,0,0,0,0,0,0,0,0,0,0,0,0,
0,0,0,0,0,0,0,0,0,0,0,0,0,0,0,0,
0,0,0,0,0,0,0,0,0,0,0,0,0,0,0,0,
0,0,0,0,0,0,0,0,0,0,0,0,0,0,0,0,
0,0,0,0,0,0,0,0,0,0,0,0,0,0,0,0,
0,0,0,0,0,0,0,0,0,0,0,0,0,0,0,0,
0,0,0,0,0,0,0,0,0,0,0,0,0,0,0,0,
0,0,0,0,0,0,0,0,0,0,0,0,0,0,0,0,
0,0,0,0,0,0,0,0,0,0,0,0,0,0,0,0,
0,0,0,0,0,0,0,0,0,0,0,0,0,0,0,0,
0,0,0,0,0,0,0,0,0,0,0,0,0,0,0,0
</chunk>
    <chunk x="0" y="16" width="16" height="16">
1496,1497,0,0,0,0,0,0,0,0,0,0,0,0,0,0,
1472,1523,0,0,0,0,0,0,0,0,0,0,0,0,0,0,
1497,0,0,0,0,0,0,0,0,0,0,0,0,0,0,0,
1523,0,0,0,0,0,0,0,0,0,0,0,0,0,0,0,
0,0,0,0,0,0,0,0,0,0,0,0,0,0,0,0,
0,0,0,0,0,0,0,0,0,0,0,0,0,0,0,0,
0,0,0,0,0,0,0,0,0,0,0,0,0,0,0,0,
0,0,0,0,0,0,0,0,0,0,0,0,0,0,0,0,
0,0,0,0,0,0,0,0,0,0,0,0,0,0,0,0,
0,0,0,0,0,0,0,0,0,0,0,0,0,0,0,0,
0,0,0,0,0,0,0,0,0,0,0,0,0,0,0,0,
0,0,0,0,0,0,0,0,0,0,0,0,0,0,0,0,
0,0,0,0,0,0,0,0,0,0,0,0,0,0,0,0,
0,0,0,0,0,0,0,0,0,0,0,0,0,0,0,0,
0,0,0,0,0,0,0,0,0,0,0,0,0,0,0,0,
0,0,0,0,0,0,0,0,0,0,0,0,0,0,0,0
</chunk>
   </data>
  </layer>
  <layer id="78" name="bricks3" width="38" height="25">
   <data encoding="csv">
    <chunk x="16" y="-16" width="16" height="16">
0,0,0,0,0,0,0,0,0,0,0,0,0,0,0,0,
0,0,0,0,0,0,0,0,0,0,0,0,0,0,0,0,
0,0,0,0,0,0,0,0,0,0,0,0,0,0,0,0,
0,0,0,0,0,0,0,0,0,0,0,0,0,0,0,0,
0,0,0,0,0,0,0,0,0,0,0,0,0,0,0,0,
0,0,0,0,0,0,0,0,0,0,0,0,0,0,0,0,
0,0,0,0,0,0,0,0,0,0,0,0,0,0,0,0,
0,0,0,0,0,0,0,0,0,0,0,0,0,0,0,0,
0,0,0,0,0,0,0,0,0,0,0,0,0,0,0,0,
0,0,0,0,0,0,0,0,0,0,0,0,0,0,0,0,
0,0,0,0,0,0,0,0,0,0,0,0,0,0,0,0,
0,0,0,0,0,0,0,0,0,0,0,0,0,0,0,0,
0,0,0,0,0,0,0,0,0,0,0,0,0,0,0,0,
0,0,0,0,0,0,0,0,0,0,0,0,0,0,0,0,
0,0,0,0,0,0,0,0,0,0,0,0,0,0,0,0,
0,0,0,0,0,0,0,0,0,0,0,0,1005,1013,522,526
</chunk>
    <chunk x="32" y="-16" width="16" height="16">
0,0,0,0,0,0,0,0,0,0,0,0,0,0,0,0,
0,0,0,0,0,0,0,0,0,0,0,0,0,0,0,0,
0,0,0,0,0,0,0,0,0,0,0,0,0,0,0,0,
0,0,0,0,0,0,0,0,0,0,0,0,0,0,0,0,
0,0,0,0,0,0,0,0,0,0,0,0,0,0,0,0,
0,0,0,0,0,0,0,0,0,0,0,0,0,0,0,0,
0,0,0,0,0,0,0,0,0,0,0,0,0,0,0,0,
0,0,0,0,0,0,0,0,0,0,0,0,0,0,0,0,
0,0,0,0,0,0,0,0,0,0,0,0,0,0,0,0,
0,0,0,0,0,0,0,0,0,0,0,0,0,0,0,0,
0,0,0,0,0,0,0,0,0,0,0,0,0,0,0,0,
0,0,0,0,0,0,0,0,0,0,0,0,0,0,0,0,
0,0,0,0,0,0,0,0,0,0,0,0,0,0,0,0,
0,0,0,0,0,0,0,0,0,0,0,0,0,0,0,0,
0,0,0,0,0,0,0,0,0,0,0,0,0,0,0,0,
524,526,530,522,528,0,0,0,0,0,0,0,0,0,0,0
</chunk>
    <chunk x="16" y="0" width="16" height="16">
0,0,0,0,0,0,0,0,0,0,0,0,0,1005,983,984,
0,0,0,0,0,0,0,0,0,0,0,0,0,0,0,0,
0,0,0,0,0,0,0,0,0,0,0,0,0,0,0,0,
0,0,0,0,0,0,0,0,0,0,0,0,0,0,0,0,
0,0,0,0,0,0,0,0,0,0,0,0,0,0,0,953,
0,0,0,0,0,0,0,0,0,0,0,0,0,0,953,1039,
0,0,0,0,0,0,0,0,0,0,0,0,0,0,979,1012,
0,0,0,0,0,0,0,0,0,0,0,0,0,0,979,981,
0,0,0,0,0,0,0,0,0,0,0,0,0,953,1039,1038,
0,0,0,0,0,0,0,0,0,0,0,0,0,979,980,526,
0,0,0,0,0,0,0,0,0,0,0,0,0,1005,0,0,
0,0,0,0,0,0,0,0,0,0,0,0,0,0,0,0,
0,0,0,0,0,0,0,0,0,0,0,0,0,0,0,0,
0,0,0,0,0,0,0,0,0,0,0,0,0,0,0,0,
0,0,0,0,0,0,0,0,0,0,0,0,0,0,0,0,
0,0,0,0,0,0,0,0,0,0,0,0,0,0,0,0
</chunk>
    <chunk x="32" y="0" width="16" height="16">
1006,1013,528,526,530,0,0,0,0,0,0,0,0,0,0,0,
0,979,980,1012,1013,0,0,0,0,0,0,0,0,0,0,0,
0,979,1012,1007,1005,0,0,0,0,0,0,0,0,0,0,0,
0,979,981,0,0,0,0,0,0,0,0,0,0,0,0,0,
954,1039,981,0,0,0,0,0,0,0,0,0,0,0,0,0,
1012,1006,1007,0,0,0,0,0,0,0,0,0,0,0,0,0,
1007,0,0,0,0,0,0,0,0,0,0,0,0,0,0,0,
0,0,0,0,0,0,0,0,0,0,0,0,0,0,0,0,
955,0,0,0,0,0,0,0,0,0,0,0,0,0,0,0,
981,0,0,0,0,0,0,0,0,0,0,0,0,0,0,0,
1007,0,0,0,0,0,0,0,0,0,0,0,0,0,0,0,
0,0,0,0,0,0,0,0,0,0,0,0,0,0,0,0,
0,0,0,0,0,0,0,0,0,0,0,0,0,0,0,0,
0,0,0,0,0,0,0,0,0,0,0,0,0,0,0,0,
0,0,0,0,0,0,0,0,0,0,0,0,0,0,0,0,
0,0,0,0,0,0,0,0,0,0,0,0,0,0,0,0
</chunk>
   </data>
  </layer>
  <layer id="79" name="stairs" width="38" height="25">
   <data encoding="csv">
    <chunk x="0" y="0" width="16" height="16">
0,0,0,0,0,0,0,0,0,0,0,0,0,0,0,0,
0,0,0,0,0,0,0,0,0,0,0,0,0,0,0,0,
0,0,0,0,0,0,0,0,0,0,0,0,0,0,0,0,
0,0,0,0,0,1242,1243,0,0,0,0,0,0,0,0,0,
0,0,0,0,0,1268,1269,0,0,0,0,0,0,0,0,0,
0,0,0,0,0,1294,1295,0,0,0,0,0,0,0,0,0,
0,0,0,0,0,0,0,0,0,0,0,0,0,0,0,0,
0,0,0,0,0,0,0,0,0,0,0,0,0,0,0,0,
0,0,0,0,0,0,0,0,0,0,0,0,0,0,0,0,
0,0,0,0,0,0,0,0,0,0,0,0,0,0,0,0,
0,0,0,0,0,0,0,0,0,0,0,0,0,0,0,0,
0,0,0,0,0,0,0,0,0,0,0,0,0,0,0,0,
0,0,0,0,0,0,0,0,0,0,0,0,0,0,0,0,
0,0,0,0,0,0,0,0,0,0,0,0,0,0,0,0,
0,0,0,0,0,0,0,0,0,0,0,0,0,0,0,0,
0,0,0,0,0,0,0,0,0,0,1235,1236,0,0,0,0
</chunk>
    <chunk x="16" y="0" width="16" height="16">
0,0,1237,1238,0,0,0,0,0,0,0,0,0,0,0,0,
0,0,1263,1264,0,0,0,0,0,0,0,0,0,0,0,0,
0,0,1289,1290,0,0,0,0,0,0,0,0,0,0,0,0,
0,0,0,0,0,0,0,0,0,0,0,0,0,0,0,0,
0,0,0,0,0,0,0,0,0,0,0,0,0,0,0,0,
0,0,0,0,0,0,0,0,0,0,0,0,0,0,0,0,
0,0,0,0,0,0,0,0,0,0,0,0,0,0,0,0,
0,0,0,0,0,0,0,0,0,0,0,0,0,0,0,0,
0,0,0,0,0,0,0,0,0,0,0,0,0,0,0,0,
0,0,0,0,0,0,0,0,0,0,0,0,0,0,0,0,
0,0,0,0,0,0,0,0,0,0,0,0,0,0,1240,1241,
0,0,0,0,0,0,0,0,0,0,0,0,0,0,1266,1267,
1240,1241,0,0,0,0,0,0,0,0,0,0,0,0,1292,1293,
1266,1267,0,0,0,0,0,0,0,0,0,0,0,0,0,0,
1292,1293,0,0,0,0,0,0,0,0,0,0,0,0,0,0,
0,0,0,0,0,0,0,0,0,0,0,0,0,0,0,0
</chunk>
    <chunk x="0" y="16" width="16" height="16">
0,0,0,0,0,0,0,0,0,0,1261,1262,0,0,0,0,
0,0,0,0,0,0,0,0,0,0,1287,1288,0,0,0,0,
0,0,0,0,0,0,0,0,0,0,0,0,0,0,0,0,
0,0,0,0,0,0,0,0,0,0,0,0,0,0,0,0,
0,0,0,0,0,0,0,0,0,0,0,0,0,0,0,0,
0,0,0,0,0,0,0,0,0,0,0,0,0,0,0,0,
0,0,0,0,0,0,0,0,0,0,0,0,0,0,0,0,
0,0,0,0,0,0,0,0,0,0,0,0,0,0,0,0,
0,0,0,0,0,0,0,0,0,0,0,0,0,0,0,0,
0,0,0,0,0,0,0,0,0,0,0,0,0,0,0,0,
0,0,0,0,0,0,0,0,0,0,0,0,0,0,0,0,
0,0,0,0,0,0,0,0,0,0,0,0,0,0,0,0,
0,0,0,0,0,0,0,0,0,0,0,0,0,0,0,0,
0,0,0,0,0,0,0,0,0,0,0,0,0,0,0,0,
0,0,0,0,0,0,0,0,0,0,0,0,0,0,0,0,
0,0,0,0,0,0,0,0,0,0,0,0,0,0,0,0
</chunk>
    <chunk x="16" y="16" width="16" height="16">
0,0,0,0,0,0,0,0,0,0,0,0,0,0,0,0,
0,0,0,0,0,0,0,0,0,0,0,0,0,0,0,0,
0,0,1242,1243,0,0,0,0,0,0,0,0,0,0,0,0,
0,0,1268,1269,0,0,0,0,0,0,0,0,0,0,0,0,
0,0,1294,1295,0,0,0,0,0,0,0,0,0,0,0,0,
0,0,0,0,0,0,0,0,0,0,0,0,0,0,0,0,
0,0,0,0,0,0,0,0,0,0,0,0,0,0,0,0,
0,0,0,0,0,0,0,0,0,0,0,0,0,0,0,0,
0,0,0,0,0,0,0,0,0,0,0,0,0,0,0,0,
0,0,0,0,0,0,0,0,0,0,0,0,0,0,0,0,
0,0,0,0,0,0,0,0,0,0,0,0,0,0,0,0,
0,0,0,0,0,0,0,0,0,0,0,0,0,0,0,0,
0,0,0,0,0,0,0,0,0,0,0,0,0,0,0,0,
0,0,0,0,0,0,0,0,0,0,0,0,0,0,0,0,
0,0,0,0,0,0,0,0,0,0,0,0,0,0,0,0,
0,0,0,0,0,0,0,0,0,0,0,0,0,0,0,0
</chunk>
   </data>
  </layer>
  <layer id="93" name="details1" width="38" height="25">
   <data encoding="csv">
    <chunk x="0" y="-16" width="16" height="16">
0,0,0,0,0,0,0,0,0,0,0,0,0,0,0,0,
0,0,0,0,0,0,0,0,0,0,0,0,0,0,0,0,
0,0,0,0,0,0,0,0,0,0,0,0,0,0,0,0,
0,0,0,0,0,0,0,0,0,0,0,0,0,0,0,0,
0,0,0,0,0,0,0,0,0,0,0,0,0,0,0,0,
0,0,0,0,0,0,0,0,0,0,0,0,0,0,0,0,
0,0,0,0,0,0,0,0,0,0,0,0,0,0,0,0,
0,0,0,0,0,0,0,0,0,0,0,0,0,0,0,0,
0,0,0,0,0,0,0,0,0,0,0,0,0,0,0,0,
0,0,0,0,0,0,0,0,0,0,0,0,0,0,0,0,
0,0,0,0,0,0,0,0,0,0,0,0,0,0,0,0,
0,0,0,0,0,0,0,0,0,0,0,0,0,0,0,0,
0,0,0,0,0,0,0,0,0,0,0,0,0,0,0,0,
0,0,0,0,0,0,0,0,0,0,0,0,0,0,0,0,
0,0,0,0,0,0,0,0,0,0,0,0,0,0,0,0,
0,0,0,0,18301,0,0,0,0,0,0,0,19000,19001,0,0
</chunk>
    <chunk x="32" y="-16" width="16" height="16">
0,0,0,0,0,0,0,0,0,0,0,0,0,0,0,0,
0,0,0,0,0,0,0,0,0,0,0,0,0,0,0,0,
0,0,0,0,0,0,0,0,0,0,0,0,0,0,0,0,
0,0,0,0,0,0,0,0,0,0,0,0,0,0,0,0,
0,0,0,0,0,0,0,0,0,0,0,0,0,0,0,0,
0,0,0,0,0,0,0,0,0,0,0,0,0,0,0,0,
0,0,0,0,0,0,0,0,0,0,0,0,0,0,0,0,
0,0,0,0,0,0,0,0,0,0,0,0,0,0,0,0,
0,0,0,0,0,0,0,0,0,0,0,0,0,0,0,0,
0,0,0,0,0,0,0,0,0,0,0,0,0,0,0,0,
0,0,0,0,0,0,0,0,0,0,0,0,0,0,0,0,
0,0,0,0,0,0,0,0,0,0,0,0,0,0,0,0,
0,0,0,0,0,0,0,0,0,0,0,0,0,0,0,0,
0,0,0,0,0,0,0,0,0,0,0,0,0,0,0,0,
0,0,0,0,0,0,0,0,0,0,0,0,0,0,0,0,
18255,18256,0,0,0,0,0,0,0,0,0,0,0,0,0,0
</chunk>
    <chunk x="-16" y="0" width="16" height="16">
0,0,0,0,0,0,0,0,0,0,0,0,0,0,0,18352,
0,0,0,0,0,0,0,0,0,0,0,0,0,0,0,18392,
0,0,0,0,0,0,0,0,0,0,0,0,0,0,0,0,
0,0,0,0,0,0,0,0,0,0,0,0,0,0,0,0,
0,0,0,0,0,0,0,0,0,0,0,0,0,0,0,0,
0,0,0,0,0,0,0,0,0,0,0,0,0,0,0,0,
0,0,0,0,0,0,0,0,0,0,0,0,0,0,0,18351,
0,0,0,0,0,0,0,0,0,0,0,0,0,0,0,0,
0,0,0,0,0,0,0,0,0,0,0,0,0,0,0,18350,
0,0,0,0,0,0,0,0,0,0,0,0,0,0,0,18390,
0,0,0,0,0,0,0,0,0,0,0,0,0,0,0,0,
0,0,0,0,0,0,0,0,0,0,0,0,0,0,0,0,
0,0,0,0,0,0,0,0,0,0,0,0,0,0,0,18351,
0,0,0,0,0,0,0,0,0,0,0,0,0,0,0,0,
0,0,0,0,0,0,0,0,0,0,0,0,0,0,0,18921,
0,0,0,0,0,0,0,0,0,0,0,0,0,0,0,18961
</chunk>
    <chunk x="0" y="0" width="16" height="16">
18353,18354,0,0,0,0,0,0,0,0,0,0,19040,19041,0,0,
18393,18394,0,0,0,0,0,0,0,19000,19001,0,0,0,0,0,
0,0,0,0,0,0,0,0,0,19040,19041,0,0,0,0,18431,
0,0,0,0,0,0,0,0,0,0,0,0,0,0,0,18471,
0,0,0,0,0,0,0,0,0,0,0,0,0,0,0,0,
0,0,0,0,0,0,0,0,0,0,0,0,0,0,0,18351,
0,0,0,0,0,0,0,0,0,0,0,0,0,0,0,0,
0,0,0,0,0,0,0,0,0,0,0,0,0,0,0,0,
0,0,0,0,0,0,0,0,0,0,0,0,0,0,0,0,
18391,0,0,0,0,0,0,0,0,0,0,0,0,0,0,0,
0,0,0,0,0,0,0,0,0,0,0,0,0,0,0,0,
0,0,0,0,0,18924,0,19004,19005,0,0,0,0,0,0,0,
0,0,0,0,0,19002,19003,19044,19045,0,0,0,0,0,0,0,
0,0,0,0,0,19042,19043,0,0,18431,18432,0,0,0,0,0,
0,0,0,0,0,0,0,0,0,18471,18472,0,0,0,0,0,
0,0,0,0,0,18924,0,0,0,0,0,0,0,0,0,0
</chunk>
    <chunk x="16" y="0" width="16" height="16">
0,0,0,0,0,0,0,0,0,0,0,0,0,0,0,0,
0,0,0,0,0,0,0,0,0,0,0,0,0,0,0,0,
18432,0,0,0,0,0,0,0,0,0,0,0,0,0,0,0,
18472,0,0,0,0,0,0,0,0,18431,18432,0,0,0,0,0,
0,0,18431,18432,19004,19005,0,0,0,18471,18472,0,0,0,0,0,
0,0,18471,18472,19044,19045,0,0,0,0,0,0,18352,18353,18354,0,
0,0,0,0,0,0,0,0,0,0,0,0,18392,18393,18394,0,
0,0,0,0,0,0,0,0,0,0,0,0,0,0,0,0,
0,0,0,0,0,0,18360,18361,0,0,0,0,0,0,0,0,
0,0,0,0,0,0,18400,18401,0,0,0,0,0,0,0,0,
0,0,0,0,0,0,0,0,0,0,0,0,0,0,0,0,
0,0,0,0,0,0,0,0,0,18360,18361,0,0,0,0,0,
0,0,0,0,0,0,0,0,0,18400,18401,18920,18921,0,0,0,
0,0,0,0,0,0,0,0,0,0,0,18960,18961,0,0,0,
0,0,0,0,0,0,0,0,18431,18432,0,0,0,0,0,0,
0,0,0,0,0,0,0,0,18471,18472,0,0,0,0,0,0
</chunk>
    <chunk x="32" y="0" width="16" height="16">
18295,18296,0,0,0,0,0,0,0,0,0,0,0,0,0,0,
0,0,0,0,0,0,0,0,0,0,0,0,0,0,0,0,
0,0,0,0,0,0,0,0,0,0,0,0,0,0,0,0,
0,0,0,18347,18348,0,0,0,0,0,0,0,0,0,0,0,
0,0,0,18387,18388,0,0,0,0,0,0,0,0,0,0,0,
0,0,0,0,0,0,0,0,0,0,0,0,0,0,0,0,
0,0,0,0,0,0,0,0,0,0,0,0,0,0,0,0,
0,0,0,0,0,0,0,0,0,0,0,0,0,0,0,0,
0,0,0,0,0,0,0,0,0,0,0,0,0,0,0,0,
0,0,0,0,0,0,0,0,0,0,0,0,0,0,0,0,
0,0,0,0,0,0,0,0,0,0,0,0,0,0,0,0,
0,0,0,19004,19005,0,0,0,0,0,0,0,0,0,0,0,
0,0,0,19044,19045,0,0,0,0,0,0,0,0,0,0,0,
0,0,0,18362,18363,0,0,0,0,0,0,0,0,0,0,0,
0,0,0,18402,18403,0,0,0,0,0,0,0,0,0,0,0,
0,0,0,0,0,0,0,0,0,0,0,0,0,0,0,0
</chunk>
    <chunk x="-16" y="16" width="16" height="16">
0,0,0,0,0,0,0,0,0,0,0,0,0,0,0,0,
0,0,0,0,0,0,0,0,0,0,0,0,0,0,0,0,
0,0,0,0,0,0,0,0,0,0,0,0,0,0,0,19004,
0,0,0,0,0,0,0,0,0,0,0,0,0,0,0,19044,
0,0,0,0,0,0,0,0,0,0,0,0,0,0,0,0,
0,0,0,0,0,0,0,0,0,0,0,0,0,0,0,0,
0,0,0,0,0,0,0,0,0,0,0,0,0,0,0,0,
0,0,0,0,0,0,0,0,0,0,0,0,0,0,0,0,
0,0,0,0,0,0,0,0,0,0,0,0,0,0,0,0,
0,0,0,0,0,0,0,0,0,0,0,0,0,0,0,0,
0,0,0,0,0,0,0,0,0,0,0,0,0,0,0,0,
0,0,0,0,0,0,0,0,0,0,0,0,0,0,0,0,
0,0,0,0,0,0,0,0,0,0,0,0,0,0,0,0,
0,0,0,0,0,0,0,0,0,0,0,0,0,0,0,0,
0,0,0,0,0,0,0,0,0,0,0,0,0,0,0,0,
0,0,0,0,0,0,0,0,0,0,0,0,0,0,0,0
</chunk>
    <chunk x="0" y="16" width="16" height="16">
0,0,0,0,0,0,0,0,0,0,0,0,0,0,0,0,
0,0,0,0,0,0,0,18431,18432,0,0,0,0,0,0,0,
19005,0,0,0,0,0,0,18471,18472,0,0,0,0,0,0,0,
19045,0,0,0,0,0,0,0,0,0,0,0,18431,18432,0,0,
0,0,0,0,0,0,0,0,0,0,0,0,18471,18472,0,0,
0,0,0,0,0,0,0,0,0,0,0,0,0,0,0,0,
0,0,0,0,0,0,0,0,0,0,0,0,0,0,0,0,
0,0,0,0,0,0,0,0,0,0,0,0,0,0,0,0,
0,0,0,0,0,0,0,0,0,0,0,0,0,0,0,0,
0,0,0,0,0,0,0,0,0,0,0,0,0,0,0,0,
0,0,0,0,0,0,0,0,0,0,0,0,0,0,0,0,
0,0,0,0,0,0,0,0,0,0,0,0,0,0,0,0,
0,0,0,0,0,0,0,0,0,0,0,0,0,0,0,0,
0,0,0,0,0,0,0,0,0,0,0,0,0,0,0,0,
0,0,0,0,0,0,0,0,0,0,0,0,0,0,0,0,
0,0,0,0,0,0,0,0,0,0,0,0,0,0,0,0
</chunk>
    <chunk x="16" y="16" width="16" height="16">
0,0,0,0,18431,18432,0,0,0,0,0,0,0,0,0,0,
0,0,0,0,18471,18472,0,0,0,0,0,0,0,0,0,0,
0,0,0,0,0,0,0,0,0,0,0,0,0,0,0,0,
0,0,0,0,0,0,0,0,0,0,0,0,18347,18348,0,0,
18431,18432,0,0,0,0,0,0,0,0,0,0,18387,18388,0,0,
18471,18472,0,0,0,0,0,0,0,0,0,0,0,0,0,0,
0,0,0,0,0,0,0,0,0,0,0,0,19002,19003,0,0,
0,0,0,0,18351,0,0,0,0,18475,18476,0,19042,19043,0,0,
0,0,0,0,0,0,0,0,0,0,0,0,0,0,0,0,
0,0,0,0,0,0,0,0,0,0,0,0,0,0,0,0,
0,0,0,0,0,0,0,0,0,0,0,0,0,0,0,0,
0,0,0,0,0,0,0,0,0,0,0,0,0,0,0,0,
0,0,0,0,0,0,0,0,0,0,0,0,0,0,0,0,
0,0,0,0,0,0,0,0,0,0,0,0,0,0,0,0,
0,0,0,0,0,0,0,0,0,0,0,0,0,0,0,0,
0,0,0,0,0,0,0,0,0,0,0,0,0,0,0,0
</chunk>
    <chunk x="32" y="16" width="16" height="16">
0,0,0,0,0,0,0,0,0,0,0,0,0,0,0,0,
0,0,0,0,0,0,0,0,0,0,0,0,0,0,0,0,
0,18351,0,0,0,0,0,0,0,0,0,0,0,0,0,0,
0,0,0,0,18351,0,0,0,0,0,0,0,0,0,0,0,
0,0,0,0,0,0,0,0,0,0,0,0,0,0,0,0,
0,18360,18361,0,0,0,0,0,0,0,0,0,0,0,0,0,
0,18400,18401,0,0,0,0,0,0,0,0,0,0,0,0,0,
0,0,0,0,0,0,0,0,0,0,0,0,0,0,0,0,
0,0,0,0,0,0,0,0,0,0,0,0,0,0,0,0,
0,0,0,0,0,0,0,0,0,0,0,0,0,0,0,0,
0,0,0,0,0,0,0,0,0,0,0,0,0,0,0,0,
0,0,0,0,0,0,0,0,0,0,0,0,0,0,0,0,
0,0,0,0,0,0,0,0,0,0,0,0,0,0,0,0,
0,0,0,0,0,0,0,0,0,0,0,0,0,0,0,0,
0,0,0,0,0,0,0,0,0,0,0,0,0,0,0,0,
0,0,0,0,0,0,0,0,0,0,0,0,0,0,0,0
</chunk>
   </data>
  </layer>
  <layer id="94" name="detail2" width="38" height="25">
   <data encoding="csv">
    <chunk x="0" y="-16" width="16" height="16">
0,0,0,0,0,0,0,0,0,0,0,0,0,0,0,0,
0,0,0,0,0,0,0,0,0,0,0,0,0,0,0,0,
0,0,0,0,0,0,0,0,0,0,0,0,0,0,0,0,
0,0,0,0,0,0,0,0,0,0,0,0,0,0,0,0,
0,0,0,0,0,0,0,0,0,0,0,0,0,0,0,0,
0,0,0,0,0,0,0,0,0,0,0,0,0,0,0,0,
0,0,0,0,0,0,0,0,0,0,0,0,0,0,0,0,
0,0,0,0,0,0,0,0,0,0,0,0,0,0,0,0,
0,0,0,0,0,0,0,0,0,0,0,0,0,0,0,0,
0,0,0,0,0,0,0,0,0,0,0,0,0,0,0,0,
0,0,0,0,0,0,0,0,0,0,0,0,0,0,0,0,
0,0,0,0,0,0,0,0,0,0,0,0,0,0,0,0,
0,0,0,0,0,0,0,0,0,0,0,0,0,0,0,0,
0,0,0,0,0,0,0,0,0,0,0,0,0,0,0,0,
0,0,0,0,0,0,0,0,0,0,0,0,0,0,0,0,
0,0,0,0,0,0,0,0,0,0,0,0,19128,0,0,0
</chunk>
    <chunk x="16" y="-16" width="16" height="16">
0,0,0,0,0,0,0,0,0,0,0,0,0,0,0,0,
0,0,0,0,0,0,0,0,0,0,0,0,0,0,0,0,
0,0,0,0,0,0,0,0,0,0,0,0,0,0,0,0,
0,0,0,0,0,0,0,0,0,0,0,0,0,0,0,0,
0,0,0,0,0,0,0,0,0,0,0,0,0,0,0,0,
0,0,0,0,0,0,0,0,0,0,0,0,0,0,0,0,
0,0,0,0,0,0,0,0,0,0,0,0,0,0,0,0,
0,0,0,0,0,0,0,0,0,0,0,0,0,0,0,0,
0,0,0,0,0,0,0,0,0,0,0,0,0,0,0,0,
0,0,0,0,0,0,0,0,0,0,0,0,0,0,0,0,
0,0,0,0,0,0,0,0,0,0,0,0,0,0,0,0,
0,0,0,0,0,0,0,0,0,0,0,0,0,0,0,0,
0,0,0,0,0,0,0,0,0,0,0,0,0,0,0,0,
0,0,0,0,0,0,0,0,0,0,0,0,0,0,0,0,
0,0,0,0,0,0,0,0,0,0,0,0,0,0,0,0,
0,0,0,0,0,0,0,0,0,0,0,19067,19068,0,0,0
</chunk>
    <chunk x="-16" y="0" width="16" height="16">
0,0,0,0,0,0,0,0,0,0,0,0,0,0,0,0,
0,0,0,0,0,0,0,0,0,0,0,0,0,0,0,19071,
0,0,0,0,0,0,0,0,0,0,0,0,0,0,0,19111,
0,0,0,0,0,0,0,0,0,0,0,0,0,0,0,0,
0,0,0,0,0,0,0,0,0,0,0,0,0,0,0,2147502725,
0,0,0,0,0,0,0,0,0,0,0,0,0,0,0,19072,
0,0,0,0,0,0,0,0,0,0,0,0,0,0,0,0,
0,0,0,0,0,0,0,0,0,0,0,0,0,0,0,0,
0,0,0,0,0,0,0,0,0,0,0,0,0,0,0,0,
0,0,0,0,0,0,0,0,0,0,0,0,0,0,0,0,
0,0,0,0,0,0,0,0,0,0,0,0,0,0,0,0,
0,0,0,0,0,0,0,0,0,0,0,0,0,0,0,0,
0,0,0,0,0,0,0,0,0,0,0,0,0,0,0,0,
0,0,0,0,0,0,0,0,0,0,0,0,0,0,0,0,
0,0,0,0,0,0,0,0,0,0,0,0,0,0,0,0,
0,0,0,0,0,0,0,0,0,0,0,0,0,0,0,0
</chunk>
    <chunk x="0" y="0" width="16" height="16">
0,0,0,0,0,0,0,0,0,0,0,0,19125,0,0,0,
0,0,0,0,0,0,0,0,0,0,0,0,0,0,0,0,
0,0,0,0,0,0,0,0,0,0,0,0,0,0,0,0,
0,0,0,0,0,0,0,0,0,0,0,0,0,0,0,0,
0,0,0,0,0,0,0,0,0,0,0,0,0,0,0,0,
19073,0,0,0,0,0,0,0,0,0,0,0,0,0,0,0,
0,0,0,0,0,0,0,0,0,0,0,0,0,0,0,0,
0,0,0,0,0,0,0,0,0,0,0,0,0,0,0,0,
0,0,0,0,0,0,0,0,0,0,0,0,0,0,0,0,
0,0,0,0,0,0,0,0,0,0,0,0,0,0,0,0,
0,19071,0,0,19122,19123,0,0,0,0,0,19113,0,0,0,0,
0,19111,0,0,0,0,0,0,0,0,0,0,0,0,0,0,
0,0,0,0,0,19128,0,19122,19123,0,0,0,0,0,0,0,
0,0,0,19072,19073,0,0,0,0,0,0,0,0,0,0,0,
0,0,0,0,0,19087,19088,0,0,0,19071,0,19113,0,0,0,
0,0,19071,0,0,0,0,0,0,0,19111,0,0,0,0,0
</chunk>
    <chunk x="16" y="0" width="16" height="16">
0,0,0,0,0,0,0,0,0,0,0,19107,19108,19113,0,0,
0,19071,0,0,0,0,0,0,0,0,0,0,0,0,0,0,
0,19111,0,0,0,0,0,0,0,0,0,0,0,0,0,19113,
0,0,0,19113,0,0,0,19076,0,0,0,0,0,0,0,0,
0,0,0,0,19090,0,0,19116,0,0,0,0,19071,0,0,0,
0,0,0,0,0,0,0,0,0,19071,0,0,19111,0,0,0,
0,0,0,0,0,0,0,0,0,19111,19072,19073,0,0,0,0,
0,0,0,0,0,0,0,0,0,0,0,0,0,0,0,0,
0,0,0,0,0,0,0,0,0,0,0,0,0,0,0,0,
0,0,0,0,0,0,0,0,0,0,0,0,0,0,0,0,
0,0,0,0,0,0,0,0,0,0,0,0,0,0,0,0,
0,0,0,0,0,0,0,0,19125,0,0,0,0,0,0,0,
0,0,0,0,0,0,0,0,0,0,0,0,0,0,0,0,
0,0,0,0,0,0,0,0,0,0,0,0,0,0,0,0,
0,0,0,0,0,0,0,0,19115,0,0,0,0,0,0,0,
0,0,0,0,0,0,0,0,0,0,0,0,0,0,0,0
</chunk>
    <chunk x="32" y="0" width="16" height="16">
0,0,0,0,0,0,0,0,0,0,0,0,0,0,0,0,
0,0,0,0,0,0,0,0,0,0,0,0,0,0,0,0,
0,0,0,0,0,0,0,0,0,0,0,0,0,0,0,0,
19114,0,0,0,0,0,0,0,0,0,0,0,0,0,0,0,
0,0,0,19114,0,0,0,0,0,0,0,0,0,0,0,0,
0,0,0,0,0,0,0,0,0,0,0,0,0,0,0,0,
0,0,0,0,0,0,0,0,0,0,0,0,0,0,0,0,
0,0,0,0,19112,0,0,0,0,0,0,0,0,0,0,0,
0,0,0,0,0,0,0,0,0,0,0,0,0,0,0,0,
0,0,0,0,0,0,0,0,0,0,0,0,0,0,0,0,
0,0,0,0,0,0,0,0,0,0,0,0,0,0,0,0,
0,0,0,0,0,0,0,0,0,0,0,0,0,0,0,0,
0,19072,19073,0,0,0,0,0,0,0,0,0,0,0,0,0,
19069,0,19122,19123,0,0,0,0,0,0,0,0,0,0,0,0,
0,0,0,0,0,0,0,0,0,0,0,0,0,0,0,0,
0,19109,19110,0,0,0,0,0,0,0,0,0,0,0,0,0
</chunk>
    <chunk x="-16" y="16" width="16" height="16">
0,0,0,0,0,0,0,0,0,0,0,0,0,0,0,19128,
0,0,0,0,0,0,0,0,0,0,0,0,0,0,0,19080,
0,0,0,0,0,0,0,0,0,0,0,0,0,0,0,19120,
0,0,0,0,0,0,0,0,0,0,0,0,0,0,0,0,
0,0,0,0,0,0,0,0,0,0,0,0,0,0,0,0,
0,0,0,0,0,0,0,0,0,0,0,0,0,0,0,0,
0,0,0,0,0,0,0,0,0,0,0,0,0,0,0,19071,
0,0,0,0,0,0,0,0,0,0,0,0,0,0,0,19111,
0,0,0,0,0,0,0,0,0,0,0,0,0,0,0,0,
0,0,0,0,0,0,0,0,0,0,0,0,0,0,0,0,
0,0,0,0,0,0,0,0,0,0,0,0,0,0,0,0,
0,0,0,0,0,0,0,0,0,0,0,0,0,0,0,0,
0,0,0,0,0,0,0,0,0,0,0,0,0,0,0,0,
0,0,0,0,0,0,0,0,0,0,0,0,0,0,0,0,
0,0,0,0,0,0,0,0,0,0,0,0,0,0,0,0,
0,0,0,0,0,0,0,0,0,0,0,0,0,0,0,0
</chunk>
    <chunk x="0" y="16" width="16" height="16">
0,0,19111,0,0,0,0,0,0,0,0,0,0,0,0,0,
19081,0,0,0,0,19128,0,0,0,0,0,0,0,0,0,0,
19121,0,0,0,0,0,0,0,0,0,19074,19075,0,0,0,0,
0,0,0,0,0,0,0,0,0,0,0,0,0,0,0,0,
0,0,0,0,0,0,0,19115,19115,0,0,0,0,0,0,0,
0,0,0,0,0,0,0,0,0,0,0,0,0,0,0,19115,
0,0,0,0,0,0,0,0,0,0,0,0,0,0,0,0,
0,0,0,0,0,0,0,0,0,0,0,0,19072,19073,0,0,
0,0,0,0,0,0,0,0,0,0,0,0,0,0,0,0,
0,0,0,0,0,0,0,0,0,0,0,0,0,0,0,0,
0,0,0,0,0,0,0,0,0,0,0,0,0,0,0,0,
0,0,0,0,0,0,0,0,0,0,0,0,0,0,0,0,
0,0,0,0,0,0,0,0,0,0,0,0,0,0,0,0,
0,0,0,0,0,0,0,0,0,0,0,0,0,0,0,0,
0,0,0,0,0,0,0,0,0,0,0,0,0,0,0,0,
0,0,0,0,0,0,0,0,0,0,0,0,0,0,0,0
</chunk>
    <chunk x="16" y="16" width="16" height="16">
0,0,0,0,0,0,19076,0,0,0,0,0,0,0,0,0,
0,0,0,0,0,0,19116,0,0,0,0,19069,0,0,0,0,
0,0,0,0,0,0,0,0,0,0,0,0,0,0,0,0,
0,0,0,0,0,0,0,0,0,0,0,0,0,0,0,0,
0,0,0,0,0,0,0,0,0,0,19076,0,0,0,0,19113,
0,0,0,0,0,0,19115,0,0,0,19116,0,0,0,0,19122,
0,0,0,19071,0,0,0,0,0,0,0,0,0,0,0,0,
0,0,0,19111,0,19072,19073,0,19113,0,0,0,0,0,19090,0,
0,0,0,0,0,0,0,0,0,0,0,0,0,0,0,0,
0,0,0,0,0,0,0,0,0,0,0,0,0,0,0,0,
0,0,0,0,0,0,0,0,0,0,0,0,0,0,0,0,
0,0,0,0,0,0,0,0,0,0,0,0,0,0,0,0,
0,0,0,0,0,0,0,0,0,0,0,0,0,0,0,0,
0,0,0,0,0,0,0,0,0,0,0,0,0,0,0,0,
0,0,0,0,0,0,0,0,0,0,0,0,0,0,0,0,
0,0,0,0,0,0,0,0,0,0,0,0,0,0,0,0
</chunk>
    <chunk x="32" y="16" width="16" height="16">
0,0,0,0,0,0,0,0,0,0,0,0,0,0,0,0,
0,0,0,0,0,0,0,0,0,0,0,0,0,0,0,0,
0,0,0,19076,0,0,0,0,0,0,0,0,0,0,0,0,
0,0,0,19116,0,0,0,0,0,0,0,0,0,0,0,0,
0,0,0,0,0,0,0,0,0,0,0,0,0,0,0,0,
19123,0,0,0,19125,0,0,0,0,0,0,0,0,0,0,0,
0,0,0,0,0,0,0,0,0,0,0,0,0,0,0,0,
0,0,0,0,0,0,0,0,0,0,0,0,0,0,0,0,
0,0,0,0,0,0,0,0,0,0,0,0,0,0,0,0,
0,0,0,0,0,0,0,0,0,0,0,0,0,0,0,0,
0,0,0,0,0,0,0,0,0,0,0,0,0,0,0,0,
0,0,0,0,0,0,0,0,0,0,0,0,0,0,0,0,
0,0,0,0,0,0,0,0,0,0,0,0,0,0,0,0,
0,0,0,0,0,0,0,0,0,0,0,0,0,0,0,0,
0,0,0,0,0,0,0,0,0,0,0,0,0,0,0,0,
0,0,0,0,0,0,0,0,0,0,0,0,0,0,0,0
</chunk>
   </data>
  </layer>
  <layer id="95" name="details3" width="38" height="25">
   <data encoding="csv">
    <chunk x="16" y="-16" width="16" height="16">
0,0,0,0,0,0,0,0,0,0,0,0,0,0,0,0,
0,0,0,0,0,0,0,0,0,0,0,0,0,0,0,0,
0,0,0,0,0,0,0,0,0,0,0,0,0,0,0,0,
0,0,0,0,0,0,0,0,0,0,0,0,0,0,0,0,
0,0,0,0,0,0,0,0,0,0,0,0,0,0,0,0,
0,0,0,0,0,0,0,0,0,0,0,0,0,0,0,0,
0,0,0,0,0,0,0,0,0,0,0,0,0,0,0,0,
0,0,0,0,0,0,0,0,0,0,0,0,0,0,0,0,
0,0,0,0,0,0,0,0,0,0,0,0,0,0,0,0,
0,0,0,0,0,0,0,0,0,0,0,0,0,0,0,0,
0,0,0,0,0,0,0,0,0,0,0,0,0,0,0,0,
0,0,0,0,0,0,0,0,0,0,0,0,0,0,0,0,
0,0,0,0,0,0,0,0,0,0,0,0,0,0,0,0,
0,0,0,0,0,0,0,0,0,0,0,0,0,0,0,0,
0,0,0,0,0,0,0,0,0,0,0,0,0,0,0,0,
0,0,0,0,0,0,0,0,0,0,0,19057,19058,0,0,0
</chunk>
    <chunk x="-16" y="0" width="16" height="16">
0,0,0,0,0,0,0,0,0,0,0,0,0,0,0,18976,
0,0,0,0,0,0,0,0,0,0,0,0,0,0,0,0,
0,0,0,0,0,0,0,0,0,0,0,0,0,0,0,0,
0,0,0,0,0,0,0,0,0,0,0,0,0,0,0,0,
0,0,0,0,0,0,0,0,0,0,0,0,0,0,0,0,
0,0,0,0,0,0,0,0,0,0,0,0,0,0,0,0,
0,0,0,0,0,0,0,0,0,0,0,0,0,0,0,0,
0,0,0,0,0,0,0,0,0,0,0,0,0,0,0,0,
0,0,0,0,0,0,0,0,0,0,0,0,0,0,0,0,
0,0,0,0,0,0,0,0,0,0,0,0,0,0,0,0,
0,0,0,0,0,0,0,0,0,0,0,0,0,0,0,0,
0,0,0,0,0,0,0,0,0,0,0,0,0,0,0,0,
0,0,0,0,0,0,0,0,0,0,0,0,0,0,0,0,
0,0,0,0,0,0,0,0,0,0,0,0,0,0,0,0,
0,0,0,0,0,0,0,0,0,0,0,0,0,0,0,0,
0,0,0,0,0,0,0,0,0,0,0,0,0,0,0,0
</chunk>
    <chunk x="0" y="0" width="16" height="16">
0,0,0,0,0,0,0,0,0,0,0,0,0,0,0,0,
18941,0,0,0,0,0,0,0,0,0,0,0,0,0,0,0,
18981,0,0,0,0,0,0,0,0,0,0,0,0,0,0,0,
0,0,0,0,0,0,0,0,0,0,0,0,0,0,0,0,
0,0,0,0,0,0,0,0,0,0,0,0,0,0,0,0,
0,0,0,0,0,0,0,0,0,0,0,0,0,0,0,0,
0,0,0,0,0,0,0,0,0,0,0,0,0,0,0,0,
0,0,0,0,0,0,0,0,0,0,0,0,0,0,0,0,
0,0,0,0,0,0,0,0,0,0,0,0,0,0,0,0,
0,0,0,0,0,0,0,0,0,0,0,0,0,0,0,0,
0,0,0,0,0,0,0,0,0,0,0,18937,0,0,0,0,
0,0,0,0,0,0,0,0,0,0,0,18977,0,0,0,0,
0,0,0,0,0,0,0,0,0,0,0,0,0,0,0,0,
0,0,0,0,0,0,0,0,0,0,0,0,0,18941,0,0,
0,0,0,0,0,0,0,0,0,0,0,0,0,18981,0,0,
0,0,0,0,0,0,0,0,0,0,0,0,0,0,0,0
</chunk>
    <chunk x="16" y="0" width="16" height="16">
0,0,0,0,0,0,0,0,0,0,0,0,0,0,19099,0,
0,0,0,0,0,0,0,0,0,0,0,0,0,0,0,0,
0,0,0,0,0,0,0,0,0,0,0,0,0,0,0,0,
0,0,0,0,0,0,0,0,0,0,0,0,0,0,0,0,
0,0,0,0,0,0,0,0,0,0,0,0,0,0,0,0,
0,0,0,0,0,0,0,0,0,0,0,0,0,0,0,0,
0,0,0,0,0,0,0,0,0,0,0,0,0,0,0,0,
0,0,0,0,0,0,0,0,0,0,0,0,0,0,0,0,
0,0,0,0,0,0,0,0,0,0,0,0,0,19098,0,0,
0,0,0,0,0,0,0,0,0,0,0,0,0,0,0,0,
0,0,0,0,0,0,0,0,0,0,0,0,0,0,0,0,
0,0,0,0,0,0,0,0,0,0,0,0,0,0,0,0,
0,0,0,0,0,0,0,0,0,0,0,0,0,0,0,0,
0,0,0,0,0,0,0,0,0,0,0,0,0,0,0,0,
0,0,0,0,0,0,0,0,0,0,0,0,0,2147502668,0,0,
0,0,0,0,0,0,0,0,0,0,0,0,0,0,0,0
</chunk>
    <chunk x="32" y="0" width="16" height="16">
0,0,0,0,0,0,0,0,0,0,0,0,0,0,0,0,
0,0,0,0,0,0,0,0,0,0,0,0,0,0,0,0,
0,0,0,0,0,0,0,0,0,0,0,0,0,0,0,0,
19057,19058,0,0,0,0,0,0,0,0,0,0,0,0,0,0,
0,0,0,19096,0,0,0,0,0,0,0,0,0,0,0,0,
0,0,0,0,0,0,0,0,0,0,0,0,0,0,0,0,
0,0,0,0,0,0,0,0,0,0,0,0,0,0,0,0,
0,0,0,0,0,0,0,0,0,0,0,0,0,0,0,0,
0,0,0,0,0,0,0,0,0,0,0,0,0,0,0,0,
0,19056,0,0,0,0,0,0,0,0,0,0,0,0,0,0,
0,0,0,0,0,0,0,0,0,0,0,0,0,0,0,0,
0,0,0,0,0,0,0,0,0,0,0,0,0,0,0,0,
0,0,0,0,0,0,0,0,0,0,0,0,0,0,0,0,
0,0,0,0,0,0,0,0,0,0,0,0,0,0,0,0,
19096,0,0,0,0,0,0,0,0,0,0,0,0,0,0,0,
0,0,0,0,0,0,0,0,0,0,0,0,0,0,0,0
</chunk>
    <chunk x="16" y="16" width="16" height="16">
0,0,0,0,18975,0,0,0,0,0,0,0,0,0,18983,0,
18939,18940,0,0,0,0,0,0,0,0,0,0,0,0,0,0,
18979,18980,0,0,0,0,0,0,0,0,0,0,0,0,0,0,
0,0,0,0,0,0,0,0,0,0,0,0,0,0,0,0,
0,0,0,0,0,0,0,0,0,0,0,0,0,0,0,0,
0,0,0,0,0,0,0,0,0,0,0,0,0,0,0,0,
0,0,0,0,0,18939,18940,0,0,0,0,0,0,0,0,0,
0,0,0,0,0,18979,18980,0,0,0,0,0,0,0,0,0,
0,0,0,0,0,0,0,0,0,0,0,0,0,0,0,0,
0,0,0,0,0,0,0,0,0,0,0,0,0,0,0,0,
0,0,0,0,0,0,0,0,0,0,0,0,0,0,0,0,
0,0,0,0,0,0,0,0,0,0,0,0,0,0,0,0,
0,0,0,0,0,0,0,0,0,0,0,0,0,0,0,0,
0,0,0,0,0,0,0,0,0,0,0,0,0,0,0,0,
0,0,0,0,0,0,0,0,0,0,0,0,0,0,0,0,
0,0,0,0,0,0,0,0,0,0,0,0,0,0,0,0
</chunk>
    <chunk x="32" y="16" width="16" height="16">
0,0,0,0,0,0,0,0,0,0,0,0,0,0,0,0,
0,18939,18940,0,0,0,0,0,0,0,0,0,0,0,0,0,
0,18979,18980,0,0,0,0,0,0,0,0,0,0,0,0,0,
0,0,0,0,0,0,0,0,0,0,0,0,0,0,0,0,
0,0,0,0,0,0,0,0,0,0,0,0,0,0,0,0,
0,0,0,0,0,0,0,0,0,0,0,0,0,0,0,0,
0,0,0,0,0,0,0,0,0,0,0,0,0,0,0,0,
0,0,0,0,0,0,0,0,0,0,0,0,0,0,0,0,
0,0,0,0,0,0,0,0,0,0,0,0,0,0,0,0,
0,0,0,0,0,0,0,0,0,0,0,0,0,0,0,0,
0,0,0,0,0,0,0,0,0,0,0,0,0,0,0,0,
0,0,0,0,0,0,0,0,0,0,0,0,0,0,0,0,
0,0,0,0,0,0,0,0,0,0,0,0,0,0,0,0,
0,0,0,0,0,0,0,0,0,0,0,0,0,0,0,0,
0,0,0,0,0,0,0,0,0,0,0,0,0,0,0,0,
0,0,0,0,0,0,0,0,0,0,0,0,0,0,0,0
</chunk>
   </data>
  </layer>
 </group>
 <group id="100" name="Base">
  <layer id="89" name="Log" width="38" height="25">
   <data encoding="csv">
    <chunk x="0" y="0" width="16" height="16">
0,0,0,0,0,0,0,0,0,0,0,0,0,0,0,0,
0,0,0,0,0,0,0,0,0,0,0,0,0,0,0,0,
0,0,0,0,0,0,0,0,0,0,0,0,0,0,0,0,
0,0,0,0,0,0,0,0,0,0,0,0,0,0,0,0,
0,0,0,0,0,0,0,0,0,0,0,0,0,0,0,0,
0,0,0,0,0,0,0,0,0,0,0,0,0,0,0,0,
0,0,0,0,0,0,0,0,0,0,0,0,0,0,0,0,
0,0,0,0,0,0,0,0,0,0,0,0,0,0,0,0,
0,0,0,0,0,0,0,0,0,0,0,9970,9971,9972,9973,9974,
0,0,0,0,0,0,0,0,0,0,0,0,0,0,0,0,
0,0,0,0,0,0,0,0,0,0,0,0,0,0,0,0,
0,0,0,0,0,0,0,0,0,0,0,0,0,0,0,0,
0,0,0,0,0,0,0,0,0,0,0,0,0,0,0,0,
0,0,0,0,0,0,0,0,0,0,0,0,0,0,0,0,
0,0,0,0,0,0,0,0,0,0,0,0,0,0,0,0,
0,0,0,0,0,0,0,0,0,0,0,0,0,0,0,0
</chunk>
    <chunk x="16" y="0" width="16" height="16">
0,0,0,0,0,0,0,0,0,0,0,0,0,0,0,0,
0,0,0,0,0,0,0,0,0,0,0,0,0,0,0,0,
0,0,0,0,0,0,0,0,0,0,0,0,0,0,0,0,
0,0,0,0,0,0,0,0,0,0,0,0,0,0,0,0,
9675,0,0,0,0,0,0,0,0,0,0,0,0,0,0,0,
9750,0,0,0,0,0,0,0,0,0,0,0,0,0,0,0,
0,0,0,0,0,0,0,0,0,0,0,0,0,0,0,0,
0,0,0,0,0,0,0,0,0,0,0,0,0,0,0,0,
9975,0,0,0,0,0,0,0,0,0,0,0,0,0,0,0,
0,0,0,0,0,0,0,0,0,0,0,0,0,0,0,0,
0,0,0,0,0,0,0,0,0,0,0,0,0,0,0,0,
0,0,0,0,0,0,0,0,0,0,0,0,0,0,0,0,
0,0,0,0,0,0,0,0,0,0,0,0,0,0,0,0,
0,0,0,0,0,0,0,0,0,0,0,0,0,0,0,0,
0,0,0,0,0,0,0,0,0,0,0,0,0,0,0,0,
0,0,0,0,0,0,0,0,0,0,0,0,0,0,0,0
</chunk>
   </data>
  </layer>
  <layer id="103" name="Building near" width="38" height="25">
   <data encoding="csv">
    <chunk x="0" y="0" width="16" height="16">
0,0,0,0,0,0,0,0,0,0,0,0,0,0,0,0,
0,0,0,0,0,0,0,0,0,0,0,0,0,0,0,0,
0,0,0,0,0,0,0,0,0,0,0,0,0,0,0,0,
0,0,0,0,0,0,0,0,0,0,0,0,0,0,0,0,
0,0,0,0,0,0,0,0,0,0,0,9670,9671,0,0,0,
0,0,0,0,0,0,0,0,0,0,0,9745,9746,0,0,0,
0,0,0,0,0,0,0,0,0,0,0,9820,9821,9822,9823,9824,
0,0,0,0,0,0,0,0,0,0,0,9895,9896,9897,9898,9899,
0,0,0,0,0,0,0,0,0,0,0,9970,9971,9972,9973,9974,
0,0,0,0,0,0,0,0,0,0,0,0,0,0,0,0,
0,0,0,0,0,0,0,0,0,0,0,0,0,0,0,0,
0,0,0,0,0,0,0,0,0,0,0,0,0,0,0,0,
0,0,0,0,0,0,0,0,0,0,0,0,0,0,0,0,
0,0,0,0,0,0,0,0,0,0,0,0,0,0,0,0,
0,0,0,0,0,0,0,0,0,0,0,0,0,0,0,0,
0,0,0,0,0,0,0,0,0,0,0,0,0,0,0,0
</chunk>
    <chunk x="16" y="0" width="16" height="16">
0,0,0,0,0,0,0,0,0,0,0,0,0,0,0,0,
0,0,0,0,0,0,0,0,0,0,0,0,0,0,0,0,
0,0,0,0,0,0,0,0,0,0,0,0,0,0,0,0,
0,0,0,0,0,0,0,0,0,0,0,0,0,0,0,0,
9675,0,0,0,0,0,0,0,0,0,0,0,0,0,0,0,
9750,0,0,0,0,0,0,0,0,0,0,0,0,0,0,0,
9825,0,0,0,0,0,0,0,0,0,0,0,0,0,0,0,
9900,0,0,0,0,0,0,0,0,0,0,0,0,0,0,0,
9975,0,0,0,0,0,0,0,0,0,0,0,0,0,0,0,
0,0,0,0,0,0,0,0,0,0,0,0,0,0,0,0,
0,0,0,0,0,0,0,0,0,0,0,0,0,0,0,0,
0,0,0,0,0,0,0,0,0,0,0,0,0,0,0,0,
0,0,0,0,0,0,0,0,0,0,0,0,0,0,0,0,
0,0,0,0,0,0,0,0,0,0,0,0,0,0,0,0,
0,0,0,0,0,0,0,0,0,0,0,0,0,0,0,0,
0,0,0,0,0,0,0,0,0,0,0,0,0,0,0,0
</chunk>
   </data>
  </layer>
  <layer id="88" name="Objects_under_elevated_space" width="38" height="25">
   <data encoding="csv">
    <chunk x="-16" y="0" width="16" height="16">
0,0,0,0,0,0,0,0,0,0,0,0,0,0,0,0,
0,0,0,0,0,0,0,0,0,0,0,0,0,0,0,0,
0,0,0,0,0,0,0,0,0,0,0,0,0,0,0,0,
0,0,0,0,0,0,0,0,0,0,0,0,0,0,0,0,
0,0,0,0,0,0,0,0,0,0,0,0,0,0,0,0,
0,0,0,0,0,0,0,0,0,0,0,0,0,0,0,9513,
0,0,0,0,0,0,0,0,0,0,0,0,0,0,0,9588,
0,0,0,0,0,0,0,0,0,0,0,0,0,0,0,9663,
0,0,0,0,0,0,0,0,0,0,0,0,0,0,0,9738,
0,0,0,0,0,0,0,0,0,0,0,0,0,0,0,9813,
0,0,0,0,0,0,0,0,0,0,0,0,0,0,0,9888,
0,0,0,0,0,0,0,0,0,0,0,0,0,0,0,0,
0,0,0,0,0,0,0,0,0,0,0,0,0,0,0,0,
0,0,0,0,0,0,0,0,0,0,0,0,0,0,0,0,
0,0,0,0,0,0,0,0,0,0,0,0,0,0,0,0,
0,0,0,0,0,0,0,0,0,0,0,0,0,0,0,0
</chunk>
    <chunk x="0" y="0" width="16" height="16">
0,0,0,0,0,0,0,0,0,0,0,0,0,0,0,0,
0,0,0,0,0,0,0,0,0,0,0,0,0,0,0,0,
0,0,0,0,0,0,0,0,0,0,0,0,0,0,0,0,
0,0,0,0,0,0,0,0,0,0,0,0,0,0,0,0,
0,0,0,0,0,0,0,0,0,0,0,0,0,0,0,0,
9539,9540,9541,9542,9543,0,0,0,0,0,0,0,0,0,0,0,
9614,9615,9616,9617,9618,0,0,0,0,0,0,0,0,0,0,0,
9689,9690,9691,9692,9693,0,0,0,0,0,0,0,0,0,0,0,
9764,9765,9766,9767,9768,0,0,0,0,0,0,0,0,0,0,0,
9839,9840,9841,9842,9843,0,0,0,0,0,0,0,0,0,0,0,
9914,9915,9916,9917,9918,0,0,0,0,0,0,0,0,0,0,0,
0,0,0,0,0,0,0,0,0,0,0,0,0,0,0,0,
0,0,0,0,0,0,0,0,0,0,0,0,0,0,0,0,
0,0,0,0,0,0,0,0,0,0,0,0,0,0,0,0,
0,0,0,0,0,0,0,0,0,0,0,0,0,0,0,0,
0,0,0,0,0,0,0,0,0,0,0,0,0,0,0,0
</chunk>
   </data>
  </layer>
  <layer id="106" name="Tile Layer 23" width="38" height="25">
   <data encoding="csv">
    <chunk x="16" y="0" width="16" height="16">
0,0,0,0,0,0,0,0,0,0,0,0,0,0,0,0,
0,0,0,0,0,0,0,0,0,0,0,0,0,0,0,0,
0,0,0,0,0,0,0,0,0,0,0,0,0,0,0,0,
0,0,0,0,0,0,0,0,0,0,0,0,0,0,0,0,
0,0,0,0,0,0,0,0,0,0,0,0,0,0,0,0,
0,0,0,0,0,0,0,0,0,0,0,0,0,0,0,0,
0,0,0,0,0,0,0,0,0,0,0,0,0,0,0,0,
0,0,0,0,0,0,0,0,0,0,0,0,0,0,0,0,
0,0,14052,14053,14054,14055,0,0,0,0,0,0,0,0,0,0,
0,0,14096,14097,14098,14099,0,0,0,0,0,0,0,0,0,0,
0,0,14140,14141,14142,14143,0,0,0,0,0,0,0,0,0,0,
0,0,0,0,0,0,0,0,0,0,0,0,0,0,0,0,
0,0,0,0,0,0,0,0,0,0,0,0,0,0,0,0,
0,0,0,0,0,0,0,0,0,0,0,0,0,0,0,0,
0,0,0,0,0,0,0,0,0,0,0,0,0,0,0,0,
0,0,0,0,0,0,0,0,0,0,0,0,0,0,0,0
</chunk>
   </data>
  </layer>
  <layer id="86" name="Objects" width="38" height="25">
   <data encoding="csv">
    <chunk x="-16" y="0" width="16" height="16">
0,0,0,0,0,0,0,0,0,0,0,0,0,0,0,0,
0,0,0,0,0,0,0,0,0,0,0,0,0,0,0,0,
0,0,0,0,0,0,0,0,0,0,0,0,0,0,0,0,
0,0,0,0,0,0,0,11277,11278,0,0,0,0,0,0,0,
0,0,0,0,0,0,0,0,0,0,0,0,0,0,0,0,
0,0,0,0,0,0,0,0,0,0,0,0,0,0,0,0,
0,0,0,0,0,0,0,0,0,0,0,0,0,0,0,0,
0,0,0,0,0,0,0,0,0,0,0,0,0,0,0,0,
0,0,0,0,0,0,0,0,0,0,0,0,0,0,0,0,
0,0,0,0,0,0,0,0,0,0,0,0,0,0,0,0,
0,0,0,0,0,0,0,0,0,0,0,0,0,0,0,0,
0,0,0,0,0,0,0,0,0,0,0,0,0,0,0,0,
0,0,0,0,0,0,0,0,0,0,0,0,0,0,0,0,
0,0,0,0,0,0,0,0,0,0,0,0,0,0,0,0,
0,0,0,0,0,0,0,0,0,0,0,0,0,0,0,0,
0,0,0,0,0,0,0,0,0,0,0,0,0,0,0,0
</chunk>
    <chunk x="0" y="0" width="16" height="16">
0,0,0,0,0,0,11302,0,0,0,0,0,0,0,0,0,
0,0,0,0,0,0,0,0,0,0,0,0,0,0,0,0,
0,0,0,0,0,0,0,0,0,0,0,0,0,0,0,0,
0,0,0,0,0,0,0,0,0,0,0,0,0,0,0,0,
0,0,0,0,0,0,0,0,0,0,0,0,0,0,0,0,
0,0,0,0,0,0,0,17219,17220,17221,17222,0,0,0,0,0,
0,0,0,0,0,0,0,17263,17264,17265,17266,0,0,0,0,0,
0,0,0,0,0,0,0,0,0,0,0,0,0,0,0,0,
0,0,0,0,0,0,0,0,0,0,0,0,0,0,0,0,
0,0,0,0,0,0,0,0,0,0,0,0,0,0,0,0,
0,0,0,0,0,0,0,0,0,0,0,0,0,0,0,0,
0,0,0,10342,0,0,0,0,0,0,0,0,0,0,0,0,
0,0,0,0,0,0,0,0,0,0,0,0,0,0,0,0,
0,0,0,0,0,0,0,0,0,0,0,0,0,0,0,0,
0,0,0,0,0,0,0,0,0,0,0,0,0,0,0,0,
0,0,0,0,0,0,0,0,0,0,0,0,0,0,0,0
</chunk>
    <chunk x="16" y="0" width="16" height="16">
0,0,0,0,0,0,0,0,10942,10943,10944,0,0,0,0,0,
0,0,0,0,0,0,0,0,0,0,0,0,0,0,0,0,
0,0,0,0,0,0,0,0,0,0,0,0,0,0,0,0,
0,0,0,0,0,0,0,0,0,0,0,0,0,0,0,0,
0,13875,0,0,0,0,0,0,0,0,0,0,0,0,0,0,
0,0,0,0,0,0,0,0,0,0,0,0,0,0,0,0,
0,0,0,0,0,0,0,0,0,0,0,0,0,0,0,0,
0,0,0,0,0,0,0,0,0,0,0,0,0,0,0,0,
0,0,0,0,0,0,0,0,0,0,0,0,0,0,0,0,
0,0,0,0,0,0,0,0,0,0,0,0,0,0,0,0,
0,0,0,0,0,0,0,0,0,0,0,0,0,0,0,0,
0,0,0,0,0,0,0,0,0,0,0,0,0,0,0,0,
0,0,0,0,0,0,0,0,0,0,0,0,0,0,0,0,
0,0,0,0,0,0,0,0,0,0,0,0,0,0,0,0,
0,0,0,0,0,0,0,0,0,0,0,0,0,0,0,0,
0,0,0,0,0,0,0,0,0,0,0,0,0,0,0,0
</chunk>
    <chunk x="0" y="16" width="16" height="16">
0,0,0,0,0,0,16870,0,0,0,0,0,0,0,0,0,
0,0,0,0,0,0,0,0,0,0,0,0,0,0,0,0,
0,0,0,0,0,0,0,0,0,0,0,0,0,0,0,0,
0,0,0,0,0,0,0,0,0,0,0,0,0,0,0,0,
0,0,0,0,0,0,0,17047,0,0,0,0,0,0,0,0,
0,0,0,0,0,0,0,17091,0,0,0,0,0,0,0,0,
0,0,0,0,0,0,0,0,0,0,0,0,0,0,0,0,
0,0,0,0,0,0,0,0,0,0,0,0,0,0,0,0,
0,0,0,0,0,0,0,0,0,0,0,0,0,0,0,0,
0,0,0,0,0,0,0,0,0,0,0,0,0,0,0,0,
0,0,0,0,0,0,0,0,0,0,0,0,0,0,0,0,
0,0,0,0,0,0,0,0,0,0,0,0,0,0,0,0,
0,0,0,0,0,0,0,0,0,0,0,0,0,0,0,0,
0,0,0,0,0,0,0,0,0,0,0,0,0,0,0,0,
0,0,0,0,0,0,0,0,0,0,0,0,0,0,0,0,
0,0,0,0,0,0,0,0,0,0,0,0,0,0,0,0
</chunk>
    <chunk x="16" y="16" width="16" height="16">
0,0,0,0,0,0,0,0,0,0,0,0,0,0,0,0,
11764,0,0,0,0,11489,0,0,0,11493,0,0,0,0,0,0,
0,0,0,0,0,0,0,0,0,0,0,0,0,0,0,0,
0,0,0,0,0,0,0,0,0,0,0,0,0,0,0,0,
0,0,0,0,0,0,0,0,0,0,0,0,0,0,0,0,
0,0,0,0,0,0,0,0,0,0,0,0,0,0,0,0,
0,0,0,0,0,0,0,0,0,0,0,0,0,0,0,0,
0,0,0,0,0,0,0,0,0,0,0,0,0,0,0,0,
0,0,0,0,0,0,0,0,0,0,0,0,0,0,0,0,
0,0,0,0,0,0,0,0,0,0,0,0,0,0,0,0,
0,0,0,0,0,0,0,0,0,0,0,0,0,0,0,0,
0,0,0,0,0,0,0,0,0,0,0,0,0,0,0,0,
0,0,0,0,0,0,0,0,0,0,0,0,0,0,0,0,
0,0,0,0,0,0,0,0,0,0,0,0,0,0,0,0,
0,0,0,0,0,0,0,0,0,0,0,0,0,0,0,0,
0,0,0,0,0,0,0,0,0,0,0,0,0,0,0,0
</chunk>
    <chunk x="32" y="16" width="16" height="16">
0,0,0,0,0,0,0,0,0,0,0,0,0,0,0,0,
0,0,0,0,0,0,0,0,0,0,0,0,0,0,0,0,
0,0,0,0,0,0,0,0,0,0,0,0,0,0,0,0,
0,0,0,0,0,0,0,0,0,0,0,0,0,0,0,0,
0,0,0,0,0,0,0,0,0,0,0,0,0,0,0,0,
0,0,10739,0,0,0,0,0,0,0,0,0,0,0,0,0,
0,0,0,0,0,0,0,0,0,0,0,0,0,0,0,0,
0,0,0,0,0,0,0,0,0,0,0,0,0,0,0,0,
0,0,0,0,0,0,0,0,0,0,0,0,0,0,0,0,
0,0,0,0,0,0,0,0,0,0,0,0,0,0,0,0,
0,0,0,0,0,0,0,0,0,0,0,0,0,0,0,0,
0,0,0,0,0,0,0,0,0,0,0,0,0,0,0,0,
0,0,0,0,0,0,0,0,0,0,0,0,0,0,0,0,
0,0,0,0,0,0,0,0,0,0,0,0,0,0,0,0,
0,0,0,0,0,0,0,0,0,0,0,0,0,0,0,0,
0,0,0,0,0,0,0,0,0,0,0,0,0,0,0,0
</chunk>
   </data>
  </layer>
 </group>
 <group id="99" name="OverPlayer">
  <layer id="104" name="Tile Layer 22" width="38" height="25">
   <data encoding="csv">
    <chunk x="0" y="0" width="16" height="16">
0,0,0,0,0,0,0,0,0,0,0,0,0,0,0,0,
0,0,0,0,0,0,0,0,0,0,0,0,0,0,0,0,
0,0,0,0,0,0,0,0,0,0,0,0,0,0,0,0,
0,0,0,0,0,0,0,0,0,0,0,0,0,0,0,0,
0,0,0,0,0,0,0,0,0,0,0,0,0,9672,9673,9674,
0,0,0,0,0,0,0,0,0,0,0,0,0,9747,9748,9749,
0,0,0,0,0,0,0,0,0,0,0,0,0,0,0,0,
0,0,0,0,0,0,0,0,0,0,0,0,0,0,0,0,
0,0,0,0,0,0,0,0,0,0,0,0,0,0,0,0,
0,0,0,0,0,0,0,0,0,0,0,0,0,0,0,0,
0,0,0,0,0,0,0,0,0,0,0,0,0,0,0,0,
0,0,0,0,0,0,0,0,0,0,0,0,0,0,0,0,
0,0,0,0,0,0,0,0,0,0,0,0,0,0,0,0,
0,0,0,0,0,0,0,0,0,0,0,0,0,0,0,0,
0,0,0,0,0,0,0,0,0,0,0,0,0,0,0,0,
0,0,0,0,0,0,0,0,0,0,0,0,0,0,0,0
</chunk>
   </data>
  </layer>
  <layer id="92" name="Objects5" width="38" height="25">
   <data encoding="csv">
    <chunk x="0" y="0" width="16" height="16">
0,0,0,0,0,0,0,0,0,0,0,0,0,0,0,0,
0,0,0,0,0,0,0,0,0,0,0,0,0,0,0,0,
0,0,0,0,0,0,0,0,0,0,0,0,0,0,0,0,
0,0,0,0,0,0,0,0,0,0,0,0,0,0,0,0,
0,0,0,0,0,0,0,0,0,0,0,0,0,0,0,0,
0,0,0,0,0,0,0,0,0,0,0,0,0,0,0,0,
0,0,0,0,0,0,0,0,0,0,0,0,0,0,0,0,
0,0,0,0,0,0,0,0,0,0,0,0,0,0,0,0,
0,0,0,0,0,0,0,0,0,0,0,0,0,0,0,0,
0,0,0,0,0,0,0,0,0,0,0,0,0,0,0,0,
0,0,0,0,0,0,0,12686,12687,0,0,0,0,0,0,0,
0,0,0,0,0,0,0,12761,12762,0,0,0,0,0,0,0,
0,0,0,0,0,0,0,0,0,0,0,0,0,0,0,0,
0,0,0,0,0,0,0,0,0,0,0,0,0,0,0,0,
0,0,0,0,0,0,0,0,0,0,0,0,0,0,0,0,
0,0,0,0,0,0,0,0,0,0,0,0,0,0,0,0
</chunk>
   </data>
  </layer>
  <layer id="108" name="Objects" width="38" height="25">
   <data encoding="csv">
    <chunk x="-16" y="0" width="16" height="16">
0,0,0,0,0,0,0,0,0,0,0,0,0,0,0,0,
0,0,0,0,0,0,0,0,0,0,0,0,0,0,0,0,
0,0,0,0,0,0,0,0,0,0,0,0,0,0,0,10421,
0,0,0,0,0,0,0,11277,11278,0,0,0,0,0,0,10496,
0,0,0,0,0,0,0,0,0,0,0,0,0,0,0,10571,
0,0,0,0,0,0,0,0,0,0,0,0,0,0,0,0,
0,0,0,0,0,0,0,0,0,0,0,0,0,0,0,0,
0,0,0,0,0,0,0,0,0,0,0,0,0,0,0,0,
0,0,0,0,0,0,0,0,0,0,0,0,0,0,0,0,
0,0,0,0,0,0,0,0,0,0,0,0,0,0,0,0,
0,0,0,0,0,0,0,0,0,0,0,0,0,0,0,0,
0,0,0,0,0,0,0,0,0,0,0,0,0,0,0,0,
0,0,0,0,0,0,0,0,0,0,0,0,0,0,0,0,
0,0,0,0,0,0,0,0,0,0,0,0,0,0,0,0,
0,0,0,0,0,0,0,0,0,0,0,0,0,0,0,0,
0,0,0,0,0,0,0,0,0,0,0,0,0,0,0,0
</chunk>
    <chunk x="0" y="0" width="16" height="16">
0,0,0,0,0,0,11302,0,0,0,0,0,0,0,11014,11015,
10580,0,0,0,0,0,0,0,0,0,0,0,0,0,11089,11090,
10422,10423,0,0,0,0,0,0,0,0,0,0,0,0,11164,11165,
10497,10498,0,0,0,0,0,17131,17132,17133,17134,0,0,0,0,0,
10572,10573,0,0,0,0,0,17175,17176,17177,17178,0,0,0,0,0,
0,0,0,0,0,0,0,0,0,0,17222,0,0,0,0,0,
0,0,0,0,0,0,0,0,0,0,17266,0,0,0,10558,10559,
0,0,0,0,0,0,0,0,0,0,0,11601,11602,11603,10633,10634,
10131,10132,10133,0,0,0,0,0,0,0,0,11676,11677,11678,11679,0,
10206,10207,10208,0,0,0,0,0,0,0,0,11751,11752,11753,11754,0,
10281,10282,10283,0,0,0,0,0,0,0,0,11826,11827,11828,11829,0,
10339,10340,10341,10342,0,0,0,0,0,0,0,0,0,0,0,0,
10414,10415,10416,10417,0,0,0,11203,0,0,0,0,0,0,0,0,
10489,10490,10491,10492,0,0,0,0,0,0,0,0,0,0,0,0,
10564,10565,10566,10567,0,0,0,0,0,0,0,0,0,0,0,0,
0,0,0,0,0,0,0,0,0,0,0,0,0,0,0,0
</chunk>
    <chunk x="16" y="0" width="16" height="16">
11016,0,0,0,0,0,0,0,10942,10943,10944,10945,10946,10947,10948,10949,
11091,0,0,0,0,0,0,0,11017,11018,11019,11020,11021,11022,11023,11024,
11166,0,0,0,0,0,0,0,11092,11093,11094,11095,11096,11097,11098,11099,
0,0,0,0,0,0,0,0,11167,11168,11169,11170,11171,11172,11173,11174,
0,13875,13876,13877,13878,13879,13880,0,11242,11243,11244,11245,11246,11247,11248,11249,
0,13919,13920,13921,13922,13923,13924,0,11317,11318,11319,11320,11321,11322,11323,11324,
0,13963,13964,13965,13966,13967,13968,0,11392,11393,11394,11395,11396,11397,11398,11399,
0,14007,14008,14009,14010,14011,14012,0,0,0,11469,11470,11471,10735,0,0,
0,0,0,0,0,0,14056,0,0,0,0,0,0,0,0,0,
0,0,0,0,0,0,14100,0,0,0,0,0,0,0,0,0,
0,0,0,0,0,0,0,0,0,0,0,0,0,0,0,0,
0,0,0,0,0,0,0,0,0,0,0,0,0,0,0,0,
0,0,0,0,0,10956,10957,10958,0,0,0,0,0,0,0,0,
0,0,0,0,0,11031,11032,11033,0,0,0,0,0,0,0,0,
0,0,0,0,0,11106,11107,11108,0,0,0,0,0,0,0,0,
0,0,0,0,0,11181,11182,11183,0,0,0,0,0,0,0,0
</chunk>
    <chunk x="32" y="0" width="16" height="16">
10950,10951,0,0,0,0,0,0,0,0,0,0,0,0,0,0,
11025,11026,0,0,0,0,0,0,0,0,0,0,0,0,0,0,
11100,11101,0,0,0,0,0,0,0,0,0,0,0,0,0,0,
11175,11176,0,0,0,0,0,0,0,0,0,0,0,0,0,0,
0,0,0,0,0,0,0,0,0,0,0,0,0,0,0,0,
0,0,0,0,0,0,0,0,0,0,0,0,0,0,0,0,
0,0,0,0,0,0,0,0,0,0,0,0,0,0,0,0,
0,0,0,0,0,0,0,0,0,0,0,0,0,0,0,0,
0,0,0,0,0,0,0,0,0,0,0,0,0,0,0,0,
0,0,0,0,0,0,0,0,0,0,0,0,0,0,0,0,
0,0,0,0,0,0,0,0,0,0,0,0,0,0,0,0,
0,0,0,0,0,0,0,0,0,0,0,0,0,0,0,0,
0,0,0,2147494173,2147494172,0,0,0,0,0,0,0,0,0,0,0,
0,0,0,2147494248,2147494247,0,0,0,0,0,0,0,0,0,0,0,
0,0,0,0,0,0,0,0,0,0,0,0,0,0,0,0,
0,0,0,0,0,0,0,0,0,0,0,0,0,0,0,0
</chunk>
    <chunk x="0" y="16" width="16" height="16">
0,0,0,16867,0,0,16870,16871,0,0,0,0,0,0,0,0,
0,0,0,16911,0,0,16914,16915,0,0,0,0,0,0,0,0,
0,0,0,0,0,0,0,0,0,0,0,0,0,0,0,0,
0,0,0,0,0,0,0,17003,0,0,0,0,0,0,0,0,
0,0,0,0,0,0,0,17047,0,0,0,0,0,0,0,0,
0,0,0,0,0,0,0,17091,0,0,0,0,0,0,0,0,
0,0,0,0,0,0,0,0,0,0,0,0,0,0,0,0,
0,0,0,0,0,0,0,0,0,0,0,0,0,0,0,0,
0,0,0,0,0,0,0,0,0,0,0,0,0,0,0,0,
0,0,0,0,0,0,0,0,0,0,0,0,0,0,0,0,
0,0,0,0,0,0,0,0,0,0,0,0,0,0,0,0,
0,0,0,0,0,0,0,0,0,0,0,0,0,0,0,0,
0,0,0,0,0,0,0,0,0,0,0,0,0,0,0,0,
0,0,0,0,0,0,0,0,0,0,0,0,0,0,0,0,
0,0,0,0,0,0,0,0,0,0,0,0,0,0,0,0,
0,0,0,0,0,0,0,0,0,0,0,0,0,0,0,0
</chunk>
    <chunk x="16" y="16" width="16" height="16">
0,0,0,0,0,0,0,0,0,0,0,0,0,0,0,0,
11764,0,0,11767,0,11489,11490,11491,11492,11493,0,0,0,0,0,0,
11839,0,0,0,0,11564,11565,11566,11567,11568,0,0,0,0,0,0,
0,0,0,0,0,11639,11640,11641,11642,11643,0,0,0,0,0,0,
0,0,0,0,0,11714,0,11716,11717,11718,0,0,0,0,0,0,
0,0,0,0,0,0,0,0,0,0,0,0,0,0,0,0,
0,0,0,0,0,0,0,0,0,0,0,0,0,0,0,0,
0,0,0,0,0,0,0,0,0,0,0,0,0,0,0,0,
0,0,0,0,0,0,0,0,0,0,0,0,0,0,0,0,
0,0,0,0,0,0,0,0,0,0,0,0,0,0,0,0,
0,0,0,0,0,0,0,0,0,0,0,0,0,0,0,0,
0,0,0,0,0,0,0,0,0,0,0,0,0,0,0,0,
0,0,0,0,0,0,0,0,0,0,0,0,0,0,0,0,
0,0,0,0,0,0,0,0,0,0,0,0,0,0,0,0,
0,0,0,0,0,0,0,0,0,0,0,0,0,0,0,0,
0,0,0,0,0,0,0,0,0,0,0,0,0,0,0,0
</chunk>
    <chunk x="32" y="16" width="16" height="16">
0,0,0,0,0,0,0,0,0,0,0,0,0,0,0,0,
0,0,0,0,0,0,0,0,0,0,0,0,0,0,0,0,
0,0,0,0,0,0,0,0,0,0,0,0,0,0,0,0,
0,0,0,0,0,0,0,0,0,0,0,0,0,0,0,0,
0,0,0,0,0,0,0,0,0,0,0,0,0,0,0,0,
0,0,10739,0,0,0,0,0,0,0,0,0,0,0,0,0,
0,0,0,0,0,0,0,0,0,0,0,0,0,0,0,0,
0,0,0,0,0,0,0,0,0,0,0,0,0,0,0,0,
0,0,0,0,0,0,0,0,0,0,0,0,0,0,0,0,
0,0,0,0,0,0,0,0,0,0,0,0,0,0,0,0,
0,0,0,0,0,0,0,0,0,0,0,0,0,0,0,0,
0,0,0,0,0,0,0,0,0,0,0,0,0,0,0,0,
0,0,0,0,0,0,0,0,0,0,0,0,0,0,0,0,
0,0,0,0,0,0,0,0,0,0,0,0,0,0,0,0,
0,0,0,0,0,0,0,0,0,0,0,0,0,0,0,0,
0,0,0,0,0,0,0,0,0,0,0,0,0,0,0,0
</chunk>
   </data>
  </layer>
  <layer id="96" name="details3" width="38" height="25">
   <data encoding="csv">
    <chunk x="0" y="-16" width="16" height="16">
0,0,0,0,0,0,0,0,0,0,0,0,0,0,0,0,
0,0,0,0,0,0,0,0,0,0,0,0,0,0,0,0,
0,0,0,0,0,0,0,0,0,0,0,0,0,0,0,0,
0,0,0,0,0,0,0,0,0,0,0,0,0,0,0,0,
0,0,0,0,0,0,0,0,0,0,0,0,0,0,0,0,
0,0,0,0,0,0,0,0,0,0,0,0,0,0,0,0,
0,0,0,0,0,0,0,0,0,0,0,0,0,0,0,0,
0,0,0,0,0,0,0,0,0,0,0,0,0,0,0,0,
0,0,0,0,0,0,0,0,0,0,0,0,0,0,0,0,
0,0,0,0,0,0,0,0,0,0,0,0,0,0,0,0,
0,0,0,0,0,0,0,0,0,0,0,0,0,0,0,0,
0,0,0,0,0,0,0,0,0,0,0,0,0,0,0,0,
0,0,0,0,0,0,0,0,0,0,0,0,0,0,0,0,
0,0,0,0,0,0,0,0,0,0,0,0,0,0,0,0,
0,0,0,0,0,0,0,0,0,0,0,0,0,0,0,0,
0,19259,0,19173,19174,19260,0,0,0,0,0,0,0,0,0,0
</chunk>
    <chunk x="16" y="-16" width="16" height="16">
0,0,0,0,0,0,0,0,0,0,0,0,0,0,0,0,
0,0,0,0,0,0,0,0,0,0,0,0,0,0,0,0,
0,0,0,0,0,0,0,0,0,0,0,0,0,0,0,0,
0,0,0,0,0,0,0,0,0,0,0,0,0,0,0,0,
0,0,0,0,0,0,0,0,0,0,0,0,0,0,0,0,
0,0,0,0,0,0,0,0,0,0,0,0,0,0,0,0,
0,0,0,0,0,0,0,0,0,0,0,0,0,0,0,0,
0,0,0,0,0,0,0,0,0,0,0,0,0,0,0,0,
0,0,0,0,0,0,0,0,0,0,0,0,0,0,0,0,
0,0,0,0,0,0,0,0,0,0,0,0,0,0,0,0,
0,0,0,0,0,0,0,0,0,0,0,0,0,0,0,0,
0,0,0,0,0,0,0,0,0,0,0,0,0,0,0,0,
0,0,0,0,0,0,0,0,0,0,0,0,0,0,0,0,
0,0,0,0,0,0,0,0,0,0,0,0,0,0,0,0,
0,0,0,0,0,0,0,0,0,0,0,0,0,0,0,0,
0,0,0,18284,0,0,0,0,0,0,0,0,0,19173,19174,19254
</chunk>
    <chunk x="-16" y="0" width="16" height="16">
0,0,0,0,0,0,0,0,0,0,0,0,0,0,0,0,
0,0,0,0,0,0,0,0,0,0,0,0,0,0,0,0,
0,0,0,0,0,0,0,0,0,0,0,0,0,0,0,0,
0,0,0,0,0,0,0,0,0,0,0,0,0,0,0,0,
0,0,0,0,0,0,0,0,0,0,0,0,0,0,0,0,
0,0,0,0,0,0,0,0,0,0,0,0,0,0,0,0,
0,0,0,0,0,0,0,0,0,0,0,0,0,0,0,0,
0,0,0,0,0,0,0,0,0,0,0,0,0,0,0,19231,
0,0,0,0,0,0,0,0,0,0,0,0,0,0,0,0,
0,0,0,0,0,0,0,0,0,0,0,0,0,0,0,0,
0,0,0,0,0,0,0,0,0,0,0,0,0,0,0,0,
0,0,0,0,0,0,0,0,0,0,0,0,0,0,0,0,
0,0,0,0,0,0,0,0,0,0,0,0,0,0,0,0,
0,0,0,0,0,0,0,0,0,0,0,0,0,0,0,18284,
0,0,0,0,0,0,0,0,0,0,0,0,0,0,0,0,
0,0,0,0,0,0,0,0,0,0,0,0,0,0,0,0
</chunk>
    <chunk x="0" y="0" width="16" height="16">
0,0,0,19213,19214,0,0,0,0,0,0,0,0,0,0,0,
0,0,0,0,0,0,0,0,0,0,0,0,0,18272,0,0,
0,0,0,0,0,0,0,0,0,0,0,0,0,0,0,0,
0,0,0,0,0,0,0,0,0,0,0,0,0,0,0,0,
0,19151,0,0,0,0,0,0,0,0,0,0,0,0,0,0,
0,19191,0,0,0,0,18302,0,0,0,0,0,0,0,0,0,
0,0,0,0,0,0,0,0,0,0,0,0,0,0,0,0,
0,0,0,0,0,0,0,0,0,0,0,0,0,0,0,0,
0,0,0,0,0,0,0,0,0,0,0,0,0,0,0,0,
0,0,0,0,0,0,0,0,0,0,0,0,0,0,0,0,
0,0,19237,0,0,0,0,0,0,0,0,18229,18230,0,0,19257,
0,0,0,19231,0,0,0,0,0,0,0,18269,18270,0,0,0,
0,0,0,0,0,0,0,0,0,0,0,0,0,0,0,0,
0,0,0,0,2147502799,0,0,0,0,0,0,0,0,0,0,0,
0,0,0,0,2147502839,0,0,0,0,19230,18272,0,0,0,0,0,
0,0,0,0,0,0,0,0,0,0,0,0,0,0,0,0
</chunk>
    <chunk x="16" y="0" width="16" height="16">
0,0,0,0,0,0,0,0,0,0,0,0,0,19213,19214,0,
0,0,0,0,0,0,0,0,0,0,0,0,0,0,0,0,
0,0,0,0,0,0,0,0,0,0,0,0,0,0,0,0,
0,0,0,0,0,0,19237,0,0,0,0,11170,11171,11172,0,0,
0,0,0,0,0,0,0,0,0,0,0,11245,11246,0,0,0,
0,0,0,0,0,0,0,0,19155,19235,0,0,0,0,0,0,
19180,0,0,0,0,0,0,0,0,0,0,0,0,0,0,0,
19220,19221,0,0,0,0,0,0,0,0,19150,0,0,0,0,0,
19175,0,0,0,0,0,0,0,0,0,19190,0,0,0,0,0,
19215,0,0,0,0,0,0,0,0,0,0,0,0,0,0,0,
0,0,0,0,0,0,0,0,0,0,0,0,0,0,0,0,
0,0,0,0,0,19184,0,0,0,0,0,0,0,0,0,0,
0,0,0,0,0,19224,0,0,0,0,0,0,0,0,0,0,
0,0,0,0,0,0,0,0,0,0,0,0,0,0,0,0,
0,0,0,0,0,0,0,0,18284,19150,0,0,0,0,0,0,
0,0,0,0,0,0,0,0,19230,19190,0,0,0,0,0,0
</chunk>
    <chunk x="32" y="0" width="16" height="16">
0,0,0,0,0,0,0,0,0,0,0,0,0,0,0,0,
0,0,0,0,0,0,0,0,0,0,0,0,0,0,0,0,
0,19260,0,0,0,0,0,0,0,0,0,0,0,0,0,0,
0,0,0,0,0,0,0,0,0,0,0,0,0,0,0,0,
0,0,0,18229,18230,0,0,0,0,0,0,0,0,0,0,0,
0,0,0,18269,18270,0,0,0,0,0,0,0,0,0,0,0,
0,0,0,0,0,0,0,0,0,0,0,0,0,0,0,0,
0,19154,19155,0,0,0,0,0,0,0,0,0,0,0,0,0,
0,19194,19195,0,0,0,0,0,0,0,0,0,0,0,0,0,
0,0,0,0,0,0,0,0,0,0,0,0,0,0,0,0,
0,0,0,0,0,0,0,0,0,0,0,0,0,0,0,0,
0,0,0,0,0,0,0,0,0,0,0,0,0,0,0,0,
0,0,0,0,0,0,0,0,0,0,0,0,0,0,0,0,
0,0,0,0,0,0,0,0,0,0,0,0,0,0,0,0,
0,0,0,0,0,0,0,0,0,0,0,0,0,0,0,0,
0,0,0,0,0,0,0,0,0,0,0,0,0,0,0,0
</chunk>
    <chunk x="0" y="16" width="16" height="16">
0,0,19229,0,0,0,0,0,0,0,0,0,0,0,0,0,
0,0,0,0,0,0,0,0,0,0,0,0,0,0,0,0,
0,0,0,0,0,0,0,0,0,0,0,0,0,0,0,0,
0,0,0,0,0,0,0,0,0,0,0,0,0,0,0,0,
0,0,0,0,0,0,0,0,0,0,0,0,0,0,0,0,
0,0,0,0,0,0,0,0,0,0,0,0,0,0,0,0,
0,0,0,0,0,0,0,0,0,0,0,0,0,0,0,0,
0,0,0,0,0,0,0,0,0,0,0,0,0,0,0,0,
0,0,0,0,0,0,0,0,0,0,0,0,0,0,0,0,
0,0,0,0,0,0,0,0,0,0,0,0,0,0,0,0,
0,0,0,0,0,0,0,0,0,0,0,0,0,0,0,0,
0,0,0,0,0,0,0,0,0,0,0,0,0,0,0,0,
0,0,0,0,0,0,0,0,0,0,0,0,0,0,0,0,
0,0,0,0,0,0,0,0,0,0,0,0,0,0,0,0,
0,0,0,0,0,0,0,0,0,0,0,0,0,0,0,0,
0,0,0,0,0,0,0,0,0,0,0,0,0,0,0,0
</chunk>
   </data>
  </layer>
 </group>
 <objectgroup id="101" name="Border">
  <object id="1" x="-16" y="-14">
   <polygon points="0,0 608,0 608,-6 0,-8"/>
  </object>
  <object id="2" x="-14" y="-14">
   <polygon points="0,0 0,399 -6,399 -6,-9 0,-9"/>
  </object>
  <object id="3" x="-14" y="383">
   <polygon points="0,0 611,0 611,5 -7,5 -7,0"/>
  </object>
  <object id="4" x="590" y="383">
   <polygon points="0,0 1,-403 6,-403 7,4 0,4"/>
  </object>
 </objectgroup>
 <objectgroup id="102" name="Collision">
  <object id="5" x="130" y="382">
   <polygon points="0,0 1,-3 3,-6 6,-9 10,-12 14,-14 16,-12 16,-11 19,-10 22,-10 25,-10 27,-11 28,-13 30,-15 30,-17 31,-22 32,-29 33,-34 33,-37 33,-42 33,-46 34,-50 34,-53 32,-54 29,-54 27,-51 24,-50 21,-50 14,-51 10,-52 2,-51 -1,-53 -5,-50 -5,-47 -7,-43 -12,-40 -17,-39 -20,-36 -24,-28 -26,-24 -36,-22 -43,-21 -48,-21 -54,-23 -59,-27 -63,-31 -66,-35 -69,-37 -74,-35 -80,-35 -82,-38 -85,-31 -85,-28 -88,-25 -97,-20 -99,-20 -101,-16 -104,-12 -107,-7 -115,-5 -124,-5 -129,-4 -133,-2 -133,2 -128,6 -3,3 -1,4"/>
  </object>
  <object id="7" x="222" y="383">
   <polygon points="0,0 0,-3 -1,-5 -2,-7 -3,-9 -6,-11 -8,-12 -9,-13 -10,-14 -13,-15 -15,-15 -17,-13 -18,-12 -20,-13 -25,-13 -27,-13 -29,-15 -30,-16 -31,-17 -32,-20 -32,-25 -33,-33 -31,-36 -33,-45 -35,-48 -32,-52 -27,-49 -19,-49 -14,-48 -11,-46 -8,-42 -4,-39 1,-38 9,-37 16,-37 18,-35 19,-33 22,-30 25,-26 28,-24 32,-23 38,-22 46,-22 52,-23 61,-26 66,-24 71,-15 74,-11 77,-9 84,-3 87,1"/>
  </object>
  <object id="8" x="460" y="309">
   <polygon points="0,0 -5,0 -8,-2 -11,-4 -12,-7 -13,-12 -13,-17 -13,-20 -11,-25 -5,-26 2,-26 7,-23 8,-19 6,-14 6,-11 7,-8 3,-4"/>
  </object>
  <object id="10" x="173" y="100">
   <polygon points="0,0 2,-2 4,-5 6,-5 7,-4 10,-7 13,-6 16,-5 18,-5 20,-3 23,-1 26,-1 29,-1 31,-2 35,-4 38,-5 36,-8 36,-10 38,-14 38,-18 38,-21 39,-25 41,-27 45,-31 50,-34 53,-37 54,-41 55,-44 55,-48 54,-53 52,-56 48,-58 41,-58 38,-57 34,-59 26,-58 23,-59 18,-57 15,-53 14,-48 12,-45 6,-41 1,-41 -8,-42 -12,-40 -15,-38 -16,-32 -14,-28 -14,-23 -15,-19 -14,-15 -15,-11 -17,-7 -14,-3 -11,0 -6,0 -2,1"/>
  </object>
  <object id="11" x="398" y="-15">
   <polygon points="0,0 -3,4 -12,8 -17,13 -16,19 -17,25 -17,31 -12,33 -6,36 -3,40 -2,43 3,48 6,51 11,52 16,50 20,46 23,42 26,38 29,35 34,32 37,30 37,24 38,17 37,14 29,9 25,4 24,0 12,0"/>
  </object>
  <object id="12" x="311" y="43">
   <polygon points="0,0 4,-1 7,2 12,4 14,7 19,7 23,4 28,3 32,3 35,-2 39,-4 39,3 38,13 38,31 36,34 38,40 40,44 42,50 43,57 42,63 44,65 51,65 55,63 59,64 61,65 67,63 70,63 71,67 70,73 70,78 69,82 72,86 75,90 75,94 77,97 84,98 87,97 89,97 96,99 99,98 101,97 103,114 104,120 105,121 106,124 108,128 109,129 112,131 114,131 117,130 119,128 121,130 121,133 125,134 127,136 130,135 132,133 135,133 138,129 140,130 143,132 146,131 148,126 148,132 149,137 149,142 151,144 150,148 152,150 153,154 154,157 156,160 160,162 163,162 165,160 167,160 171,163 173,166 175,168 178,167 176,158 176,156 177,153 177,148 178,144 178,141 178,135 179,132 178,130 176,130 174,129 171,128 169,127 165,124 161,122 158,119 155,115 155,111 155,106 156,103 156,101 154,96 152,95 145,96 142,96 140,95 135,96 133,100 130,100 128,98 124,97 121,95 115,91 114,89 112,88 106,80 108,76 108,72 104,65 102,63 95,63 89,62 85,59 77,56 76,54 75,44 76,40 74,33 71,31 62,33 57,29 49,25 48,23 45,20 44,12 44,8 43,1 43,-6 43,-10 41,-15 41,-18 43,-22 46,-27 40,-32 38,-32 33,-32 27,-33 23,-29 18,-29 14,-31 12,-33 9,-34 6,-37 2,-36 -1,-32 0,-28"/>
  </object>
  <object id="13" x="296" y="46">
   <polygon points="0,0 -2,-1 -7,-4 -8,-7 -8,-9 -9,-11 -9,-15 -9,-19 -11,-23 -11,-26 -12,-34 -13,-37 -14,-35 -17,-33 -19,-33 -21,-35 -24,-36 -26,-37 -30,-38 -32,-38 -37,-40 -41,-42 -42,-43 -42,-45 -42,-50 -43,-54 -46,-52 -46,-50 -50,-49 -52,-50 -56,-52 -58,-52 -60,-51 -65,-51 -68,-52 -69,-53 -70,-54 -72,-58 -74,-60 -75,-61 -76,-63 -34,-61 -9,-61 -4,-60 -6,-56 -5,-52 -4,-49 -2,-45 -1,-43 2,-39 2,-33 1,-30 1,-25 2,-2 2,0 2,1"/>
  </object>
  <object id="14" x="195" y="-15">
   <polygon points="0,0 0,3 1,5 1,9 1,13 1,16 -2,19 -4,22 -8,26 -12,29 -14,31 -19,28 -21,26 -21,25 -23,24 -26,25 -26,27 -28,28 -30,28 -31,27 -32,30 -30,31 -32,33 -34,35 -35,36 -37,38 -42,43 -46,46 -47,47 -49,46 -50,44 -51,43 -53,41 -53,40 -54,40 -55,40 -56,41 -57,43 -58,44 -58,45 -60,46 -61,46 -62,45 -63,45 -64,48 -63,50 -62,50 -62,55 -63,56 -63,57 -62,58 -62,59 -62,61 -63,62 -63,64 -62,66 -62,76 -62,77 -64,80 -68,87 -70,89 -77,93 -78,94 -80,95 -81,93 -82,92 -84,90 -85,89 -86,88 -88,91 -90,92 -91,94 -93,90 -93,81 -91,79 -90,77 -88,75 -86,74 -83,75 -81,76 -74,69 -72,68 -71,63 -71,60 -70,56 -69,51 -70,48 -70,43 -69,39 -70,31 -70,28 -69,24 -65,24 -62,27 -58,28 -53,28 -50,26 -47,24 -43,20 -41,17 -38,15 -34,10 -32,9 -26,13 -22,12 -17,10 -12,7 -9,4 -6,0 -2,-1"/>
  </object>
  <object id="15" x="89" y="64">
   <polygon points="0,0 0,5 1,7 1,10 1,13 1,16 1,18 0,19 -2,19 -5,17 -7,16 -9,15 -9,12 -11,12 -12,13 -14,12 -15,10 -18,9 -20,8 -23,9 -26,11 -28,9 -29,8 -31,10 -33,14 -36,14 -38,15 -38,18 -37,20 -37,23 -37,26 -37,28 -36,29 -37,31 -38,32 -42,39 -44,42 -45,43 -46,44 -49,44 -50,46 -53,48 -55,47 -56,45 -58,43 -59,41 -61,40 -63,42 -64,44 -65,46 -69,46 -70,46 -70,50 -68,51 -68,53 -69,58 -69,60 -69,62 -71,66 -72,68 -71,70 -71,71 -70,74 -68,76 -66,77 -64,77 -61,78 -59,78 -58,78 -55,76 -54,74 -53,72 -52,74 -48,78 -46,79 -44,81 -42,83 -40,87 -38,91 -37,94 -37,99 -38,104 -38,105 -38,106 -34,106 -32,107 -31,108 -26,110 -25,109 -22,105 -20,105 -19,110 -16,113 -14,112 -11,114 -10,118 -8,117 -7,122 -5,123 -5,127 -6,130 -5,138 -5,145 -5,148 -5,155 -5,158 -5,162 -5,166 -4,180 -4,184 -5,188 -6,192 -4,192 -8,196 -11,200 -13,204 -16,205 -19,206 -21,208 -24,205 -27,202 -28,201 -29,201 -31,203 -31,204 -33,206 -37,206 -37,207 -38,208 -38,210 -36,211 -36,214 -36,234 -37,237 -37,239 -38,242 -43,248 -44,251 -46,252 -49,253 -52,255 -53,256 -54,255 -57,253 -58,250 -60,249 -61,249 -61,251 -63,250 -63,253 -64,254 -67,255 -69,255 -68,261 -68,264 -69,268 -70,270 -69,271 -72,274 -75,279 -76,281 -78,283 -84,286 -86,286 -89,285 -92,286 -94,289 -98,289 -101,288 -104,286 -104,253 -102,255 -99,256 -94,256 -92,256 -88,254 -78,251 -77,246 -75,240 -74,234 -76,229 -76,223 -75,220 -71,217 -67,218 -61,219 -58,218 -53,218 -50,218 -46,212 -44,209 -44,206 -43,203 -44,195 -44,190 -43,185 -44,181 -45,177 -44,171 -42,169 -37,168 -33,170 -31,171 -26,169 -16,166 -13,161 -13,157 -11,147 -12,143 -11,138 -10,134 -11,127 -12,122 -18,116 -22,114 -25,112 -28,112 -31,110 -33,110 -37,112 -39,111 -43,106 -44,88 -54,82 -64,82 -67,80 -74,80 -76,80 -77,72 -82,67 -85,66 -91,64 -96,63 -101,63 -104,63 -105,59 -104,57 -101,57 -96,57 -78,53 -75,42 -76,36 -76,32 -74,27 -72,24 -69,25 -63,27 -58,25 -51,24 -44,17 -43,14 -42,10 -43,5 -44,1 -43,-4 -41,-7 -37,-6 -35,-4 -28,-5 -26,-8 -22,-10 -18,-11 -15,-10 -11,-8 -5,-4 -3,-3"/>
  </object>
  <object id="16" x="502" y="174">
   <polygon points="0,0 -1,14 0,20 0,23 0,30 0,33 3,31 5,29 9,28 11,32 18,34 24,28 29,18 30,16 37,15 37,11 39,11 42,14 44,18 49,16 55,12 62,3 63,-2 63,-3 66,-3 73,-4 78,-3 86,-3 87,0 91,0 90,-42 87,-42 82,-41 78,-39 76,-38 72,-38 69,-38 66,-37 63,-37 61,-38 58,-37 57,-35 54,-30 53,-27 51,-24 44,-22 41,-22 37,-20 29,-20 29,-21 28,-22 23,-19 22,-14 20,-12 16,-9 12,-6 6,-6 6,-2 5,-2 2,-1"/>
  </object>
  <object id="18" x="311" y="300">
   <polygon points="0,0 1,-4 4,-6 10,-4 15,-1 24,0 31,-4 35,-8 39,-13 40,-15 43,-16 51,-16 56,-18 65,-19 70,-19 76,-19 81,-21 85,-25 87,-39 86,-45 84,-51 84,-58 86,-58 92,-51 95,-50 102,-49 108,-52 115,-54 118,-58 116,-70 111,-72 107,-74 103,-74 98,-74 93,-74 89,-76 87,-79 87,-86 88,-91 86,-98 82,-102 78,-105 78,-108 81,-110 88,-106 90,-101 92,-97 93,-91 93,-82 94,-79 96,-77 99,-81 102,-85 106,-83 109,-82 114,-78 120,-74 124,-69 125,-63 127,-55 126,-46 116,-31 113,-29 111,-28 110,-28 107,-31 103,-33 101,-35 99,-33 98,-31 94,-30 93,-30 92,-28 94,-24 94,-20 94,-16 93,-13 90,-7 88,-2 90,3 91,7 91,12 89,17 88,19 86,21 80,22 78,23 75,25 71,26 68,25 64,25 60,25 58,25 55,23 53,20 51,20 50,20 45,22 44,21 39,20 40,17 39,15 36,17 30,19 27,17 24,18 23,19 22,20 19,19 18,22 15,22 11,20 10,19 10,16 5,16 2,14 -2,14 0,4"/>
  </object>
  <object id="19" x="286" y="300">
   <polygon points="0,0 3,-4 8,-3 11,2 11,6 11,11 11,18 9,19 6,17 2,16 1,19 -3,21 -6,21 -9,22 -11,19 -15,16 -17,15 -18,13 -19,14 -20,16 -23,18 -25,18 -27,17 -31,16 -35,15 -38,13 -39,13 -43,13 -46,14 -49,15 -54,17 -57,16 -62,10 -64,4 -67,0 -66,-6 -65,-14 -64,-19 -65,-19 -69,-15 -73,-14 -80,-16 -85,-16 -90,-18 -94,-18 -94,-22 -97,-28 -100,-34 -101,-39 -104,-46 -103,-52 -101,-55 -97,-54 -94,-52 -90,-45 -88,-42 -76,-34 -72,-33 -68,-33 -65,-35 -63,-36 -60,-32 -59,-29 -58,-19 -58,-16 -56,-11 -54,-8 -51,-6 -48,-4 -45,-3 -42,-4 -37,-6 -32,-5 -28,-4 -25,-1 -21,0 -15,-2 -12,-3 -10,0 -7,1 -4,1"/>
  </object>
  <object id="20" x="169" y="270">
   <polygon points="0,0 -3,0 -5,0 -7,-2 -9,-2 -11,-4 -13,-3 -15,-1 -19,-2 -22,-3 -24,-5 -24,-6 -25,-9 -25,-11 -29,-17 -30,-21 -30,-29 -29,-33 -33,-42 -33,-43 -29,-40 -28,-39 -28,-44 -29,-48 -28,-50 -24,-48 -24,-53 -26,-56 -26,-59 -26,-62 -27,-66 -28,-71 -29,-75 -26,-75 -27,-87 -26,-87 -24,-83 -22,-87 -22,-94 -20,-92 -18,-93 -16,-96 -15,-98 -12,-97 -11,-96 -9,-96 -8,-99 -7,-102 -5,-102 -3,-100 0,-100 1,-98 3,-97 3,-99 1,-101 0,-104 1,-106 3,-104 4,-103 4,-105 3,-109 4,-115 4,-117 3,-120 2,-122 2,-124 3,-125 5,-123 5,-125 4,-125 4,-135 6,-136 8,-131 9,-133 9,-135 9,-139 10,-141 10,-142 12,-141 14,-141 15,-142 15,-144 16,-145 17,-146 19,-145 20,-145 22,-145 23,-147 24,-149 25,-151 27,-150 29,-149 30,-148 31,-148 33,-147 35,-145 36,-144 38,-145 39,-147 40,-149 41,-151 41,-155 41,-157 43,-156 45,-157 48,-160 49,-161 54,-159 55,-160 55,-162 57,-164 57,-166 58,-167 60,-165 64,-163 68,-161 71,-159 78,-157 80,-157 81,-157 83,-159 85,-159 88,-159 89,-160 91,-160 94,-159 96,-164 98,-158 102,-159 104,-160 104,-164 105,-166 109,-164 112,-163 114,-161 117,-160 118,-161 121,-163 122,-165 124,-167 126,-163 127,-161 129,-160 133,-157 135,-154 137,-153 138,-149 139,-146 139,-143 139,-141 135,-141 131,-140 130,-143 131,-145 132,-148 130,-150 128,-153 125,-155 122,-156 119,-158 113,-158 111,-160 105,-159 100,-156 98,-155 93,-155 91,-156 87,-157 83,-156 82,-153 79,-152 75,-153 73,-154 72,-157 70,-158 64,-159 61,-160 58,-158 55,-158 50,-155 47,-152 44,-149 43,-147 43,-144 42,-142 40,-141 34,-142 32,-143 29,-143 26,-142 23,-142 19,-140 13,-134 10,-131 10,-129 10,-126 9,-123 9,-120 10,-116 10,-112 11,-110 10,-106 7,-104 7,-102 8,-98 8,-96 4,-94 0,-95 -3,-95 -8,-94 -14,-92 -16,-90 -18,-88 -20,-85 -21,-82 -22,-80 -22,-75 -23,-72 -23,-68 -23,-65 -22,-62 -21,-58 -17,-57 -18,-52 -20,-47 -22,-44 -24,-41 -25,-36 -24,-34 -22,-31 -21,-29 -19,-25 -15,-23 -10,-22 -4,-20 -1,-18 0,-17 0,-14 0,-11 0,-7 0,-1"/>
  </object>
  <object id="23" x="280" y="234">
   <polygon points="0,0 -1,-30 -1,-35 0,-40 1,-39 4,-36 8,-34 11,-33 14,-31 17,-29 20,-31 20,-34 23,-35 25,-30 28,-28 30,-25 32,-21 37,-20 41,-18 44,-17 46,-21 49,-22 51,-25 53,-28 54,-31 59,-34 60,-33 64,-30 66,-29 68,-33 70,-35 73,-35 77,-33 79,-31 85,-29 86,-32 91,-33 95,-35 101,-42 103,-53 101,-64 99,-69 96,-71 92,-72 89,-73 83,-74 81,-76 76,-75 73,-77 70,-80 69,-93 69,-97 66,-101 58,-106 49,-108 41,-107 36,-104 27,-104 21,-104 17,-103 16,-101 10,-102 8,-103 4,-104 1,-99 -3,-97 -4,-93 -4,-91 -7,-89 -13,-91 -16,-91 -21,-90 -26,-88 -28,-87 -32,-83 -34,-80 -37,-74 -37,-53 -35,-43 -33,-38 -27,-35 -19,-29 -16,-28 -14,-26 -15,9 -19,8 -21,6 -24,4 -25,2 -25,1 -28,3 -30,3 -34,3 -37,0 -40,-2 -41,-6 -42,-10 -44,-12 -43,-17 -43,-22 -44,-28 -44,-39 -44,-49 -44,-55 -44,-61 -45,-71 -43,-72 -42,-84 -41,-84 -39,-79 -38,-82 -38,-85 -36,-90 -33,-89 -30,-94 -24,-93 -23,-99 -18,-96 -14,-95 -13,-93 -12,-92 -11,-95 -10,-99 -9,-100 -8,-98 -7,-96 -6,-93 -5,-97 -5,-101 -5,-104 -5,-106 -3,-104 -2,-105 2,-109 4,-108 9,-107 11,-108 17,-104 20,-104 29,-105 32,-107 33,-112 35,-111 37,-107 39,-107 41,-111 42,-115 43,-114 48,-112 50,-112 53,-110 56,-108 60,-112 62,-114 63,-109 66,-108 67,-106 71,-104 75,-98 77,-95 75,-85 84,-78 88,-77 92,-81 94,-80 96,-77 99,-75 104,-71 106,-68 109,-62 107,-56 108,-52 110,-45 107,-10 103,-5 101,1 98,4 95,5 92,5 89,3 86,1 85,-1 83,0 82,2 80,5 78,5 74,2 71,2 69,-1 67,-2 66,0 64,3 59,4 58,6 59,9 51,18 46,21 44,22 42,21 39,17 37,17 34,19 31,19 27,16 24,12 20,7 20,4 21,0 21,-3 19,0 17,3 14,4 9,3 5,2 2,2"/>
  </object>
  <object id="24" x="558" y="111">
   <polygon points="0,0 2,-6 2,-11 1,-19 7,-20 12,-20 16,-22 19,-18 19,-12 19,-5 20,0 12,5 6,6 3,3"/>
  </object>
  <object id="26" x="185" y="94">
   <polygon points="0,0 0,3 1,5 -3,7 -6,10 -7,15 -6,18 2,19 9,18 10,20 14,21 17,19 18,18 17,16 17,14 19,6 23,7 26,9 27,12 30,13 31,15 33,16 66,17 65,8 64,6 62,6 61,4 57,5 43,5 38,5 38,0 37,-3 37,-5 38,-10 34,-12 28,-11 27,-10 24,-9 21,-8"/>
  </object>
  <object id="27" x="53" y="87">
   <polygon points="0,0 3,1 5,2 7,4 8,6 10,8 11,7 14,6 16,7 18,8 21,10 22,12 22,14 19,18 19,43 20,44 21,46 20,48 17,50 16,55 15,58 15,70 15,79 17,82 15,85 10,87 0,85 -4,83 -3,71 -8,60 -14,52 -19,56 -27,56 -36,52 -38,47 -38,43 -36,36 -36,30 -36,26 -35,22 -33,19 -22,13 -15,13 -9,9 -6,5 -3,1"/>
  </object>
  <object id="28" x="429" y="48">
   <polygon points="0,0 3,3 6,5 6,7 8,11 9,15 13,18 18,21 25,22 29,23 32,23 38,22 40,19 43,17 46,13 50,9 51,5 53,2 55,-2 57,-5 58,-12 59,-15 59,-16 55,-24 52,-28 49,-30 46,-31 44,-32 24,-33 16,-30 12,-28 7,-25 5,-25 1,-22 -1,-20 -3,-15 -7,-11 -10,-10 -13,-7 -13,-3 -11,2 -3,1"/>
  </object>
  <object id="29" x="484" y="24">
   <polygon points="0,0 3,-2 4,-4 6,-6 10,-6 11,-6 12,-5 12,4 12,7 12,8 10,8 6,8 4,7 3,7 1,5 0,2"/>
  </object>
  <object id="30" x="496" y="31">
   <polygon points="0,0 4,-3 7,-5 12,-6 16,-7 22,-10 24,-11 23,-8 19,-3 18,0 16,3 12,12 12,13 9,17 6,19 4,21 1,23 -3,26 -11,27 -13,28 -16,30 -19,33 -23,40 -24,43 -23,44 -21,43 -19,39 -17,35 -14,33 -12,34 -16,39 -19,45 -18,48 -17,49 -15,46 -14,47 -12,48 -12,49 -10,48 -5,40 -3,44 -5,48 -4,49 -2,49 11,32 13,29 15,28 16,26 18,21 26,8 33,1 39,-9 43,-15 43,-18 41,-19 38,-23 36,-23 34,-22 31,-22 26,-20 20,-18 14,-16 10,-15 2,-14 -4,-14 -6,-13 -9,-9 -12,-7 -10,-1 -2,1"/>
  </object>
  <object id="32" x="420" y="50">
   <polygon points="0,0 -5,3 -9,5 -13,9 -16,13 -18,14 -15,17 -11,18 -7,20 0,25 4,25 7,25 8,28 8,30 9,30 11,29 14,31 16,32 16,37 21,37 36,38 37,39 43,39 48,43 50,45 51,48 52,51 51,53 53,55 54,57 53,59 51,58 49,56 47,55 46,55 48,58 49,59 47,60 45,60 43,58 41,56 39,54 38,53 35,53 36,56 39,59 43,64 41,65 38,65 35,60 32,58 25,55 19,50 15,47 12,47 8,49 4,50 2,48 1,45 1,43 1,41 -1,40 -6,41 -9,37 -10,35 -17,30 -25,24 -30,22 -31,18 -29,13 -25,9 -22,8 -14,3 -10,-2 -4,-8 -4,-9 -3,-3"/>
  </object>
  <object id="33" x="290" y="135">
   <polygon points="0,0 -2,2 -2,3 5,4 5,8 6,20 5,22 5,27 5,36 6,37 13,38 18,37 20,35 21,34 21,33 21,31 21,11 24,7 30,6 37,9 37,19 38,28 37,32 41,37 42,38 49,38 53,38 54,36 54,34 54,30 55,27 56,25 61,26 62,27 62,25 59,23 55,20 55,16 57,12 59,6 62,5 55,-4 45,-10 22,-7 8,-6 1,-4"/>
  </object>
  <object id="34" x="311" y="166">
   <polygon points="0,0 16,0 17,-2 0,-2"/>
  </object>
  <object id="37" x="26" y="191">
   <polygon points="0,0 0,-5 4,-7 11,-9 14,-10 17,-8 23,-3 27,2 27,7 30,12 29,19 27,22 25,23 24,29 23,31 20,31 20,34 16,37 8,44 2,43 -2,40 -5,38 -8,37 -10,35 -14,32 -16,29 -16,24 -17,19 -19,16 -21,14 -22,11 -21,9 -18,7 -16,6 -15,3 -8,-5 -3,-3"/>
  </object>
  <object id="38" x="19" y="165">
   <polygon points="0,0 -2,-2 -6,-3 -12,-1 -14,-5 -10,-9 -8,-12 -15,-16 -14,-20 -8,-24 0,-25 7,-21 15,-21 20,-19 23,-16 22,-10 15,-3 12,0 8,-1 3,-2"/>
  </object>
  <object id="39" x="32" y="169">
   <polygon points="0,0 -2,2 -1,3 4,4 9,4 11,2 8,-2 8,-6 5,-6"/>
  </object>
  <object id="40" x="16" y="168">
   <polygon points="0,0 1,2 -2,5 -4,5 -8,4 -11,3 -10,0 -9,-2 -7,-3"/>
  </object>
  <object id="41" x="71" y="135">
   <polygon points="0,0 3,4 6,7 6,10 3,13 -2,15 -4,15 -8,11 -5,2"/>
  </object>
  <object id="42" x="70" y="154">
   <polygon points="0,0 5,0 7,0 9,2 8,4 6,6 2,6 0,5 -2,3"/>
  </object>
  <object id="43" x="11" y="72">
   <polygon points="0,0 4,-2 7,-6 7,-10 10,-12 11,-18 8,-20 8,-23 8,-27 7,-29 3,-30 1,-31 -1,-30 -3,-28 -5,-27 -6,-26 -9,-26 -13,-26 -15,-26 -16,-24 -18,-21 -18,-18 -18,-15 -19,-12 -18,-7 -16,-5 -10,-5 -8,-3 -6,-2 -5,-1 -1,0"/>
  </object>
  <object id="44" x="9" y="28">
   <polygon points="0,0 3,-3 5,-5 3,-10 1,-11 -3,-11 -5,-9 -7,-7 -7,-5 -7,-3 -7,-1 -6,0 -2,0"/>
  </object>
  <object id="45" x="246" y="45">
   <polygon points="0,0 -2,1 -5,2 -7,1 -8,0 -8,-1 -11,-1 -13,-2 -14,-4 -15,-4 -16,-2 -18,-4 -18,-7 -18,-9 -18,-10 -15,-12 -15,-14 -15,-16 -13,-16 -11,-16 -13,-18 -15,-18 -17,-17 -21,-17 -22,-19 -21,-21 -18,-22 -17,-25 -17,-26 -15,-27 -13,-28 -11,-30 -9,-33 -11,-34 -12,-34 -14,-38 -10,-40 -8,-41 -2,-44 0,-45 -4,-42 -6,-38 -5,-36 -3,-36 -2,-34 -1,-31 1,-31 1,-35 2,-36 4,-38 4,-39 3,-42 3,-43 5,-43 7,-44 9,-44 14,-43 20,-40 24,-38 23,-36 23,-34 23,-33 21,-32 17,-33 17,-32 18,-30 19,-27 22,-27 23,-27 25,-25 25,-22 24,-20 25,-18 23,-14 23,-12 24,-11 23,-10 20,-10 18,-10 16,-12 15,-14 14,-15 12,-14 13,-13 17,-10 19,-8 19,-6 19,-5 18,-5 15,-7 14,-8 11,-9 9,-11 7,-13 5,-10 4,-8 1,-6 -1,-6 -1,-5 1,-3"/>
  </object>
  <object id="46" x="123" y="99">
   <polygon points="0,0 2,0 4,1 6,3 6,5 8,6 10,2 12,1 14,0 15,2 18,2 19,2 20,1 18,-2 17,-4 20,-5 23,-5 24,-6 20,-9 17,-10 15,-9 15,-12 15,-13 11,-13 5,-13 1,-14 1,-13 0,-11 -3,-10 -7,-9 -9,-7 -10,-5 -5,-6 -5,-5 -6,-2 -7,2 -1,-1"/>
  </object>
  <object id="48" x="121" y="173">
   <polygon points="0,0 0,-3 0,-5 0,-6 1,-7 2,-8 5,-9 6,-9 9,-9 10,-7 11,-7 11,0 11,1 8,1 7,2 3,2 0,1"/>
  </object>
  <object id="49" x="567" y="210">
   <polygon points="0,0 -1,-3 -2,-7 0,-10 4,-13 8,-14 13,-14 17,-10 20,-5 20,-1 18,8 14,9 11,5 7,4"/>
  </object>
  <object id="50" x="467" y="124">
   <polygon points="0,0 -1,-1 -2,-5 0,-8 0,-9 3,-10 5,-11 9,-9 11,-8 12,-4 10,-1 8,0 6,-1"/>
  </object>
  <object id="51" x="346" y="234">
   <polygon points="0,0 1,3 3,6 6,9 9,10 12,11 17,11 20,11 23,9 27,6 29,4 24,1 11,0 2,-3 -1,-1"/>
  </object>
  <object id="52" x="199" y="157">
   <polygon points="0,0 0,-3 -1,-5 2,-7 3,-7 10,-7 14,-3 14,0 10,1 6,1"/>
  </object>
  <object id="53" x="212" y="122">
   <polygon points="0,0 2,3 7,2 9,-1 14,-3 17,-1 19,0 24,-3 29,-3 33,-3 37,0 40,0 41,-7 43,-9 37,-8 27,-11 19,-13 6,-10 1,-4"/>
  </object>
  <object id="54" x="267" y="158">
   <polygon points="0,0 -5,0 -7,-1 -7,-3 -7,-4 -5,-5 -1,-4 -1,-3"/>
  </object>
  <object id="55" x="343" y="195">
   <polygon points="0,0 2,-2 3,-1 3,2 0,2"/>
  </object>
  <object id="56" x="406" y="234">
   <polygon points="0,0 0,3 1,6 4,6 7,6 7,2 5,2 3,0"/>
  </object>
  <object id="57" x="537" y="140">
   <polygon points="0,0 0,-4 0,-6 3,-5 6,-4 7,-3 8,-3 8,1 4,2 2,1"/>
  </object>
  <object id="58" x="550" y="124">
   <polygon points="0,0 0,-3 1,-3 3,-3 4,-3 4,-1 3,1"/>
  </object>
  <object id="59" x="537" y="140">
   <polygon points="0,0 1,2 3,2 6,3 8,3 9,1 9,0 8,0"/>
  </object>
  <object id="60" x="429" y="130">
   <polygon points="0,0 -8,-1 -10,-2 -10,-5 -8,-6 -8,-8 -6,-9 0,-9"/>
  </object>
  <object id="61" x="395" y="94">
   <polygon points="0,0 -7,-1 -6,-2 -6,-4 0,-4"/>
  </object>
  <object id="62" x="400" y="90">
   <polygon points="0,0 0,-2 2,-3 5,-3 5,0 5,2 2,2"/>
  </object>
  <object id="63" x="363" y="64">
   <polygon points="0,0 -5,0 -5,-3 -5,-4 0,-4 0,-1"/>
  </object>
  <object id="66" x="534" y="44">
   <polygon points="0,0 0,-4 5,-4 5,0"/>
  </object>
  <object id="67" x="485" y="8">
   <polygon points="0,0 -10,0 -10,-8 0,-8"/>
  </object>
  <object id="68" x="501" y="0">
   <polygon points="0,0 0,-5 6,-5 6,0"/>
  </object>
  <object id="69" x="246" y="163">
   <polygon points="0,0 0,3 0,4 5,4 5,0"/>
  </object>
  <object id="70" x="264" y="122">
   <polygon points="0,0 0,5 0,6 10,6 10,0"/>
  </object>
  <object id="71" x="63" y="225">
   <polygon points="0,0 1,-5 10,-7 11,-7 11,-4 10,-1 6,0"/>
  </object>
  <object id="72" x="38" y="173">
   <polygon points="0,0 1,2 2,3 3,3 5,1 6,0 5,0 1,0"/>
  </object>
  <object id="73" x="54" y="181">
   <polygon points="0,0 0,-1 1,-2 5,-2 5,-1 5,0 4,1 3,2 2,1"/>
  </object>
  <object id="74" x="32" y="270">
   <polygon points="0,0 0,-1 0,-2 2,-3 5,-2 6,-2 6,0 5,1 3,1 0,1"/>
  </object>
  <object id="75" x="-10" y="218">
   <polygon points="0,0 0,-1 1,-3 3,-3 4,-2 5,0 3,1 1,1"/>
  </object>
  <object id="76" x="576" y="86">
   <polygon points="0,0 -4,-1 -6,-3 -4,-6 -1,-6 1,-5 1,-3"/>
  </object>
  <object id="77" x="192" y="180">
   <polygon points="0,0 -3,0 -5,-2 -3,-4 -1,-5 1,-4 1,-2"/>
  </object>
  <object id="78" x="155" y="233">
   <polygon points="0,0 0,3 -1,3 -1,4 0,5 5,5 5,3 4,3 4,0"/>
  </object>
  <object id="79" x="167" y="235">
   <polygon points="0,0 0,-1 1,-2 2,-2 3,-1 3,1 2,1 1,0"/>
  </object>
  <object id="80" x="394" y="234">
   <polygon points="0,0 -2,0 -3,-1 -2,-2 -1,-3 1,-2"/>
  </object>
 </objectgroup>
 <objectgroup id="107" name="Trigger">
  <object id="35" name="Dungeon Trigger" x="327" y="166">
   <polygon points="0,0 0,2 0,3 -16,3 -16,0"/>
  </object>
  <object id="36" name="Forest Trigger" x="131" y="383">
   <polygon points="0,0 0,-4 5,-9 87,-10 91,-4 91,-1 91,0"/>
  </object>
 </objectgroup>
</map>
